config/curves/Ilford_MGFB_1.cube
# DiVERE Density Curve 1D LUT
LUT_1D_SIZE 65536
DOMAIN_MIN 0.0 0.0 0.0
DOMAIN_MAX 1.0 1.0 1.0

0.008340 0.008340 0.008340
0.008340 0.008340 0.008340
0.008340 0.008340 0.008340
0.008340 0.008340 0.008340
0.008340 0.008340 0.008340
0.008340 0.008340 0.008340
0.008340 0.008340 0.008340
0.008340 0.008340 0.008340
0.008340 0.008340 0.008340
0.008340 0.008340 0.008340
0.008340 0.008340 0.008340
0.008340 0.008340 0.008340
0.008340 0.008340 0.008340
0.008340 0.008340 0.008340
0.008340 0.008340 0.008340
0.008340 0.008340 0.008340
0.008340 0.008340 0.008340
0.008340 0.008340 0.008340
0.008340 0.008340 0.008340
0.008340 0.008340 0.008340
0.008340 0.008340 0.008340
0.008340 0.008340 0.008340
0.008340 0.008340 0.008340
0.008340 0.008340 0.008340
0.008340 0.008340 0.008340
0.008340 0.008340 0.008340
0.008340 0.008340 0.008340
0.008340 0.008340 0.008340
0.008340 0.008340 0.008340
0.008340 0.008340 0.008340
0.008340 0.008340 0.008340
0.008340 0.008340 0.008340
0.008340 0.008340 0.008340
0.008340 0.008340 0.008340
0.008340 0.008340 0.008340
0.008340 0.008340 0.008340
0.008340 0.008340 0.008340
0.008342 0.008342 0.008342
0.008348 0.008348 0.008348
0.008353 0.008353 0.008353
0.008358 0.008358 0.008358
0.008363 0.008363 0.008363
0.008368 0.008368 0.008368
0.008373 0.008373 0.008373
0.008378 0.008378 0.008378
0.008383 0.008383 0.008383
0.008387 0.008387 0.008387
0.008392 0.008392 0.008392
0.008396 0.008396 0.008396
0.008400 0.008400 0.008400
0.008404 0.008404 0.008404
0.008408 0.008408 0.008408
0.008412 0.008412 0.008412
0.008416 0.008416 0.008416
0.008420 0.008420 0.008420
0.008424 0.008424 0.008424
0.008428 0.008428 0.008428
0.008431 0.008431 0.008431
0.008435 0.008435 0.008435
0.008439 0.008439 0.008439
0.008442 0.008442 0.008442
0.008445 0.008445 0.008445
0.008449 0.008449 0.008449
0.008452 0.008452 0.008452
0.008455 0.008455 0.008455
0.008459 0.008459 0.008459
0.008462 0.008462 0.008462
0.008465 0.008465 0.008465
0.008468 0.008468 0.008468
0.008471 0.008471 0.008471
0.008474 0.008474 0.008474
0.008477 0.008477 0.008477
0.008480 0.008480 0.008480
0.008483 0.008483 0.008483
0.008486 0.008486 0.008486
0.008488 0.008488 0.008488
0.008491 0.008491 0.008491
0.008494 0.008494 0.008494
0.008497 0.008497 0.008497
0.008500 0.008500 0.008500
0.008503 0.008503 0.008503
0.008506 0.008506 0.008506
0.008509 0.008509 0.008509
0.008511 0.008511 0.008511
0.008514 0.008514 0.008514
0.008517 0.008517 0.008517
0.008520 0.008520 0.008520
0.008523 0.008523 0.008523
0.008526 0.008526 0.008526
0.008528 0.008528 0.008528
0.008531 0.008531 0.008531
0.008534 0.008534 0.008534
0.008536 0.008536 0.008536
0.008539 0.008539 0.008539
0.008542 0.008542 0.008542
0.008544 0.008544 0.008544
0.008547 0.008547 0.008547
0.008549 0.008549 0.008549
0.008552 0.008552 0.008552
0.008554 0.008554 0.008554
0.008556 0.008556 0.008556
0.008559 0.008559 0.008559
0.008561 0.008561 0.008561
0.008564 0.008564 0.008564
0.008566 0.008566 0.008566
0.008568 0.008568 0.008568
0.008571 0.008571 0.008571
0.008573 0.008573 0.008573
0.008575 0.008575 0.008575
0.008577 0.008577 0.008577
0.008580 0.008580 0.008580
0.008582 0.008582 0.008582
0.008584 0.008584 0.008584
0.008586 0.008586 0.008586
0.008588 0.008588 0.008588
0.008590 0.008590 0.008590
0.008592 0.008592 0.008592
0.008595 0.008595 0.008595
0.008597 0.008597 0.008597
0.008599 0.008599 0.008599
0.008601 0.008601 0.008601
0.008603 0.008603 0.008603
0.008605 0.008605 0.008605
0.008607 0.008607 0.008607
0.008609 0.008609 0.008609
0.008611 0.008611 0.008611
0.008613 0.008613 0.008613
0.008615 0.008615 0.008615
0.008616 0.008616 0.008616
0.008618 0.008618 0.008618
0.008620 0.008620 0.008620
0.008622 0.008622 0.008622
0.008624 0.008624 0.008624
0.008626 0.008626 0.008626
0.008628 0.008628 0.008628
0.008629 0.008629 0.008629
0.008631 0.008631 0.008631
0.008633 0.008633 0.008633
0.008635 0.008635 0.008635
0.008637 0.008637 0.008637
0.008638 0.008638 0.008638
0.008640 0.008640 0.008640
0.008642 0.008642 0.008642
0.008644 0.008644 0.008644
0.008645 0.008645 0.008645
0.008647 0.008647 0.008647
0.008649 0.008649 0.008649
0.008650 0.008650 0.008650
0.008652 0.008652 0.008652
0.008654 0.008654 0.008654
0.008655 0.008655 0.008655
0.008657 0.008657 0.008657
0.008660 0.008660 0.008660
0.008665 0.008665 0.008665
0.008670 0.008670 0.008670
0.008675 0.008675 0.008675
0.008680 0.008680 0.008680
0.008685 0.008685 0.008685
0.008690 0.008690 0.008690
0.008695 0.008695 0.008695
0.008700 0.008700 0.008700
0.008704 0.008704 0.008704
0.008709 0.008709 0.008709
0.008714 0.008714 0.008714
0.008718 0.008718 0.008718
0.008723 0.008723 0.008723
0.008728 0.008728 0.008728
0.008732 0.008732 0.008732
0.008737 0.008737 0.008737
0.008742 0.008742 0.008742
0.008746 0.008746 0.008746
0.008751 0.008751 0.008751
0.008755 0.008755 0.008755
0.008760 0.008760 0.008760
0.008764 0.008764 0.008764
0.008768 0.008768 0.008768
0.008773 0.008773 0.008773
0.008777 0.008777 0.008777
0.008781 0.008781 0.008781
0.008786 0.008786 0.008786
0.008790 0.008790 0.008790
0.008794 0.008794 0.008794
0.008799 0.008799 0.008799
0.008803 0.008803 0.008803
0.008807 0.008807 0.008807
0.008811 0.008811 0.008811
0.008816 0.008816 0.008816
0.008820 0.008820 0.008820
0.008824 0.008824 0.008824
0.008828 0.008828 0.008828
0.008832 0.008832 0.008832
0.008836 0.008836 0.008836
0.008840 0.008840 0.008840
0.008844 0.008844 0.008844
0.008848 0.008848 0.008848
0.008852 0.008852 0.008852
0.008856 0.008856 0.008856
0.008860 0.008860 0.008860
0.008864 0.008864 0.008864
0.008868 0.008868 0.008868
0.008872 0.008872 0.008872
0.008876 0.008876 0.008876
0.008880 0.008880 0.008880
0.008884 0.008884 0.008884
0.008887 0.008887 0.008887
0.008891 0.008891 0.008891
0.008895 0.008895 0.008895
0.008899 0.008899 0.008899
0.008903 0.008903 0.008903
0.008906 0.008906 0.008906
0.008910 0.008910 0.008910
0.008914 0.008914 0.008914
0.008918 0.008918 0.008918
0.008921 0.008921 0.008921
0.008925 0.008925 0.008925
0.008929 0.008929 0.008929
0.008932 0.008932 0.008932
0.008936 0.008936 0.008936
0.008939 0.008939 0.008939
0.008943 0.008943 0.008943
0.008947 0.008947 0.008947
0.008950 0.008950 0.008950
0.008954 0.008954 0.008954
0.008957 0.008957 0.008957
0.008961 0.008961 0.008961
0.008964 0.008964 0.008964
0.008968 0.008968 0.008968
0.008971 0.008971 0.008971
0.008975 0.008975 0.008975
0.008978 0.008978 0.008978
0.008982 0.008982 0.008982
0.008985 0.008985 0.008985
0.008989 0.008989 0.008989
0.008992 0.008992 0.008992
0.008995 0.008995 0.008995
0.008999 0.008999 0.008999
0.009002 0.009002 0.009002
0.009005 0.009005 0.009005
0.009009 0.009009 0.009009
0.009012 0.009012 0.009012
0.009015 0.009015 0.009015
0.009019 0.009019 0.009019
0.009022 0.009022 0.009022
0.009025 0.009025 0.009025
0.009028 0.009028 0.009028
0.009032 0.009032 0.009032
0.009035 0.009035 0.009035
0.009038 0.009038 0.009038
0.009041 0.009041 0.009041
0.009045 0.009045 0.009045
0.009048 0.009048 0.009048
0.009051 0.009051 0.009051
0.009054 0.009054 0.009054
0.009057 0.009057 0.009057
0.009060 0.009060 0.009060
0.009064 0.009064 0.009064
0.009067 0.009067 0.009067
0.009070 0.009070 0.009070
0.009073 0.009073 0.009073
0.009076 0.009076 0.009076
0.009079 0.009079 0.009079
0.009082 0.009082 0.009082
0.009085 0.009085 0.009085
0.009088 0.009088 0.009088
0.009091 0.009091 0.009091
0.009094 0.009094 0.009094
0.009097 0.009097 0.009097
0.009100 0.009100 0.009100
0.009103 0.009103 0.009103
0.009110 0.009110 0.009110
0.009128 0.009128 0.009128
0.009147 0.009147 0.009147
0.009165 0.009165 0.009165
0.009184 0.009184 0.009184
0.009202 0.009202 0.009202
0.009220 0.009220 0.009220
0.009238 0.009238 0.009238
0.009257 0.009257 0.009257
0.009275 0.009275 0.009275
0.009293 0.009293 0.009293
0.009311 0.009311 0.009311
0.009329 0.009329 0.009329
0.009347 0.009347 0.009347
0.009365 0.009365 0.009365
0.009383 0.009383 0.009383
0.009401 0.009401 0.009401
0.009419 0.009419 0.009419
0.009437 0.009437 0.009437
0.009455 0.009455 0.009455
0.009473 0.009473 0.009473
0.009491 0.009491 0.009491
0.009508 0.009508 0.009508
0.009526 0.009526 0.009526
0.009544 0.009544 0.009544
0.009562 0.009562 0.009562
0.009579 0.009579 0.009579
0.009597 0.009597 0.009597
0.009615 0.009615 0.009615
0.009632 0.009632 0.009632
0.009650 0.009650 0.009650
0.009668 0.009668 0.009668
0.009685 0.009685 0.009685
0.009703 0.009703 0.009703
0.009720 0.009720 0.009720
0.009737 0.009737 0.009737
0.009755 0.009755 0.009755
0.009772 0.009772 0.009772
0.009790 0.009790 0.009790
0.009807 0.009807 0.009807
0.009824 0.009824 0.009824
0.009842 0.009842 0.009842
0.009859 0.009859 0.009859
0.009876 0.009876 0.009876
0.009893 0.009893 0.009893
0.009911 0.009911 0.009911
0.009928 0.009928 0.009928
0.009945 0.009945 0.009945
0.009962 0.009962 0.009962
0.009979 0.009979 0.009979
0.009996 0.009996 0.009996
0.010013 0.010013 0.010013
0.010030 0.010030 0.010030
0.010047 0.010047 0.010047
0.010064 0.010064 0.010064
0.010081 0.010081 0.010081
0.010098 0.010098 0.010098
0.010115 0.010115 0.010115
0.010132 0.010132 0.010132
0.010149 0.010149 0.010149
0.010166 0.010166 0.010166
0.010183 0.010183 0.010183
0.010199 0.010199 0.010199
0.010216 0.010216 0.010216
0.010233 0.010233 0.010233
0.010250 0.010250 0.010250
0.010266 0.010266 0.010266
0.010283 0.010283 0.010283
0.010300 0.010300 0.010300
0.010316 0.010316 0.010316
0.010333 0.010333 0.010333
0.010349 0.010349 0.010349
0.010366 0.010366 0.010366
0.010382 0.010382 0.010382
0.010399 0.010399 0.010399
0.010416 0.010416 0.010416
0.010432 0.010432 0.010432
0.010448 0.010448 0.010448
0.010465 0.010465 0.010465
0.010481 0.010481 0.010481
0.010498 0.010498 0.010498
0.010514 0.010514 0.010514
0.010530 0.010530 0.010530
0.010547 0.010547 0.010547
0.010563 0.010563 0.010563
0.010579 0.010579 0.010579
0.010596 0.010596 0.010596
0.010612 0.010612 0.010612
0.010628 0.010628 0.010628
0.010644 0.010644 0.010644
0.010660 0.010660 0.010660
0.010677 0.010677 0.010677
0.010693 0.010693 0.010693
0.010709 0.010709 0.010709
0.010725 0.010725 0.010725
0.010741 0.010741 0.010741
0.010757 0.010757 0.010757
0.010773 0.010773 0.010773
0.010789 0.010789 0.010789
0.010805 0.010805 0.010805
0.010821 0.010821 0.010821
0.010837 0.010837 0.010837
0.010853 0.010853 0.010853
0.010869 0.010869 0.010869
0.010885 0.010885 0.010885
0.010901 0.010901 0.010901
0.010917 0.010917 0.010917
0.010932 0.010932 0.010932
0.010948 0.010948 0.010948
0.010964 0.010964 0.010964
0.010980 0.010980 0.010980
0.010996 0.010996 0.010996
0.011011 0.011011 0.011011
0.011027 0.011027 0.011027
0.011043 0.011043 0.011043
0.011058 0.011058 0.011058
0.011074 0.011074 0.011074
0.011090 0.011090 0.011090
0.011105 0.011105 0.011105
0.011121 0.011121 0.011121
0.011137 0.011137 0.011137
0.011152 0.011152 0.011152
0.011168 0.011168 0.011168
0.011183 0.011183 0.011183
0.011199 0.011199 0.011199
0.011214 0.011214 0.011214
0.011230 0.011230 0.011230
0.011245 0.011245 0.011245
0.011261 0.011261 0.011261
0.011276 0.011276 0.011276
0.011292 0.011292 0.011292
0.011307 0.011307 0.011307
0.011322 0.011322 0.011322
0.011338 0.011338 0.011338
0.011353 0.011353 0.011353
0.011368 0.011368 0.011368
0.011384 0.011384 0.011384
0.011399 0.011399 0.011399
0.011414 0.011414 0.011414
0.011430 0.011430 0.011430
0.011445 0.011445 0.011445
0.011460 0.011460 0.011460
0.011475 0.011475 0.011475
0.011490 0.011490 0.011490
0.011506 0.011506 0.011506
0.011521 0.011521 0.011521
0.011536 0.011536 0.011536
0.011551 0.011551 0.011551
0.011566 0.011566 0.011566
0.011581 0.011581 0.011581
0.011596 0.011596 0.011596
0.011611 0.011611 0.011611
0.011626 0.011626 0.011626
0.011642 0.011642 0.011642
0.011657 0.011657 0.011657
0.011672 0.011672 0.011672
0.011686 0.011686 0.011686
0.011701 0.011701 0.011701
0.011716 0.011716 0.011716
0.011731 0.011731 0.011731
0.011746 0.011746 0.011746
0.011761 0.011761 0.011761
0.011776 0.011776 0.011776
0.011791 0.011791 0.011791
0.011806 0.011806 0.011806
0.011821 0.011821 0.011821
0.011835 0.011835 0.011835
0.011850 0.011850 0.011850
0.011865 0.011865 0.011865
0.011880 0.011880 0.011880
0.011895 0.011895 0.011895
0.011909 0.011909 0.011909
0.011924 0.011924 0.011924
0.011939 0.011939 0.011939
0.011990 0.011990 0.011990
0.012047 0.012047 0.012047
0.012104 0.012104 0.012104
0.012160 0.012160 0.012160
0.012217 0.012217 0.012217
0.012275 0.012275 0.012275
0.012332 0.012332 0.012332
0.012389 0.012389 0.012389
0.012447 0.012447 0.012447
0.012504 0.012504 0.012504
0.012562 0.012562 0.012562
0.012620 0.012620 0.012620
0.012678 0.012678 0.012678
0.012736 0.012736 0.012736
0.012795 0.012795 0.012795
0.012853 0.012853 0.012853
0.012912 0.012912 0.012912
0.012971 0.012971 0.012971
0.013030 0.013030 0.013030
0.013089 0.013089 0.013089
0.013148 0.013148 0.013148
0.013207 0.013207 0.013207
0.013267 0.013267 0.013267
0.013326 0.013326 0.013326
0.013386 0.013386 0.013386
0.013446 0.013446 0.013446
0.013506 0.013506 0.013506
0.013566 0.013566 0.013566
0.013627 0.013627 0.013627
0.013687 0.013687 0.013687
0.013748 0.013748 0.013748
0.013808 0.013808 0.013808
0.013869 0.013869 0.013869
0.013930 0.013930 0.013930
0.013992 0.013992 0.013992
0.014053 0.014053 0.014053
0.014114 0.014114 0.014114
0.014176 0.014176 0.014176
0.014238 0.014238 0.014238
0.014299 0.014299 0.014299
0.014361 0.014361 0.014361
0.014424 0.014424 0.014424
0.014486 0.014486 0.014486
0.014548 0.014548 0.014548
0.014611 0.014611 0.014611
0.014673 0.014673 0.014673
0.014736 0.014736 0.014736
0.014799 0.014799 0.014799
0.014862 0.014862 0.014862
0.014926 0.014926 0.014926
0.014989 0.014989 0.014989
0.015053 0.015053 0.015053
0.015116 0.015116 0.015116
0.015180 0.015180 0.015180
0.015244 0.015244 0.015244
0.015308 0.015308 0.015308
0.015372 0.015372 0.015372
0.015437 0.015437 0.015437
0.015501 0.015501 0.015501
0.015566 0.015566 0.015566
0.015631 0.015631 0.015631
0.015696 0.015696 0.015696
0.015761 0.015761 0.015761
0.015826 0.015826 0.015826
0.015891 0.015891 0.015891
0.015957 0.015957 0.015957
0.016022 0.016022 0.016022
0.016088 0.016088 0.016088
0.016154 0.016154 0.016154
0.016220 0.016220 0.016220
0.016286 0.016286 0.016286
0.016353 0.016353 0.016353
0.016419 0.016419 0.016419
0.016486 0.016486 0.016486
0.016553 0.016553 0.016553
0.016619 0.016619 0.016619
0.016687 0.016687 0.016687
0.016754 0.016754 0.016754
0.016821 0.016821 0.016821
0.016888 0.016888 0.016888
0.016956 0.016956 0.016956
0.017024 0.017024 0.017024
0.017092 0.017092 0.017092
0.017160 0.017160 0.017160
0.017228 0.017228 0.017228
0.017296 0.017296 0.017296
0.017365 0.017365 0.017365
0.017433 0.017433 0.017433
0.017502 0.017502 0.017502
0.017571 0.017571 0.017571
0.017640 0.017640 0.017640
0.017709 0.017709 0.017709
0.017778 0.017778 0.017778
0.017848 0.017848 0.017848
0.017917 0.017917 0.017917
0.017987 0.017987 0.017987
0.018057 0.018057 0.018057
0.018127 0.018127 0.018127
0.018197 0.018197 0.018197
0.018267 0.018267 0.018267
0.018338 0.018338 0.018338
0.018408 0.018408 0.018408
0.018479 0.018479 0.018479
0.018550 0.018550 0.018550
0.018621 0.018621 0.018621
0.018692 0.018692 0.018692
0.018763 0.018763 0.018763
0.018835 0.018835 0.018835
0.018906 0.018906 0.018906
0.018978 0.018978 0.018978
0.019050 0.019050 0.019050
0.019122 0.019122 0.019122
0.019194 0.019194 0.019194
0.019266 0.019266 0.019266
0.019338 0.019338 0.019338
0.019411 0.019411 0.019411
0.019484 0.019484 0.019484
0.019557 0.019557 0.019557
0.019630 0.019630 0.019630
0.019703 0.019703 0.019703
0.019776 0.019776 0.019776
0.019849 0.019849 0.019849
0.019923 0.019923 0.019923
0.019996 0.019996 0.019996
0.020070 0.020070 0.020070
0.020144 0.020144 0.020144
0.020218 0.020218 0.020218
0.020293 0.020293 0.020293
0.020367 0.020367 0.020367
0.020441 0.020441 0.020441
0.020516 0.020516 0.020516
0.020591 0.020591 0.020591
0.020666 0.020666 0.020666
0.020741 0.020741 0.020741
0.020816 0.020816 0.020816
0.020892 0.020892 0.020892
0.020967 0.020967 0.020967
0.021043 0.021043 0.021043
0.021119 0.021119 0.021119
0.021195 0.021195 0.021195
0.021271 0.021271 0.021271
0.021347 0.021347 0.021347
0.021423 0.021423 0.021423
0.021500 0.021500 0.021500
0.021576 0.021576 0.021576
0.021653 0.021653 0.021653
0.021730 0.021730 0.021730
0.021807 0.021807 0.021807
0.021884 0.021884 0.021884
0.021962 0.021962 0.021962
0.022039 0.022039 0.022039
0.022117 0.022117 0.022117
0.022195 0.022195 0.022195
0.022273 0.022273 0.022273
0.022351 0.022351 0.022351
0.022429 0.022429 0.022429
0.022507 0.022507 0.022507
0.022586 0.022586 0.022586
0.022665 0.022665 0.022665
0.022743 0.022743 0.022743
0.022822 0.022822 0.022822
0.022901 0.022901 0.022901
0.022981 0.022981 0.022981
0.023060 0.023060 0.023060
0.023139 0.023139 0.023139
0.023219 0.023219 0.023219
0.023299 0.023299 0.023299
0.023379 0.023379 0.023379
0.023459 0.023459 0.023459
0.023539 0.023539 0.023539
0.023619 0.023619 0.023619
0.023700 0.023700 0.023700
0.023781 0.023781 0.023781
0.023861 0.023861 0.023861
0.023942 0.023942 0.023942
0.024023 0.024023 0.024023
0.024105 0.024105 0.024105
0.024186 0.024186 0.024186
0.024267 0.024267 0.024267
0.024349 0.024349 0.024349
0.024431 0.024431 0.024431
0.024513 0.024513 0.024513
0.024595 0.024595 0.024595
0.024677 0.024677 0.024677
0.024759 0.024759 0.024759
0.024842 0.024842 0.024842
0.024925 0.024925 0.024925
0.025007 0.025007 0.025007
0.025090 0.025090 0.025090
0.025173 0.025173 0.025173
0.025257 0.025257 0.025257
0.025340 0.025340 0.025340
0.025423 0.025423 0.025423
0.025507 0.025507 0.025507
0.025591 0.025591 0.025591
0.025675 0.025675 0.025675
0.025759 0.025759 0.025759
0.025843 0.025843 0.025843
0.025927 0.025927 0.025927
0.026012 0.026012 0.026012
0.026097 0.026097 0.026097
0.026181 0.026181 0.026181
0.026266 0.026266 0.026266
0.026351 0.026351 0.026351
0.026437 0.026437 0.026437
0.026522 0.026522 0.026522
0.026607 0.026607 0.026607
0.026693 0.026693 0.026693
0.026779 0.026779 0.026779
0.026865 0.026865 0.026865
0.026951 0.026951 0.026951
0.027037 0.027037 0.027037
0.027123 0.027123 0.027123
0.027210 0.027210 0.027210
0.027297 0.027297 0.027297
0.027383 0.027383 0.027383
0.027470 0.027470 0.027470
0.027557 0.027557 0.027557
0.027645 0.027645 0.027645
0.027732 0.027732 0.027732
0.027820 0.027820 0.027820
0.027907 0.027907 0.027907
0.027995 0.027995 0.027995
0.028083 0.028083 0.028083
0.028171 0.028171 0.028171
0.028259 0.028259 0.028259
0.028348 0.028348 0.028348
0.028436 0.028436 0.028436
0.028525 0.028525 0.028525
0.028614 0.028614 0.028614
0.028703 0.028703 0.028703
0.028792 0.028792 0.028792
0.028881 0.028881 0.028881
0.028970 0.028970 0.028970
0.029060 0.029060 0.029060
0.029150 0.029150 0.029150
0.029239 0.029239 0.029239
0.029329 0.029329 0.029329
0.029420 0.029420 0.029420
0.029525 0.029525 0.029525
0.029630 0.029630 0.029630
0.029735 0.029735 0.029735
0.029841 0.029841 0.029841
0.029947 0.029947 0.029947
0.030053 0.030053 0.030053
0.030159 0.030159 0.030159
0.030266 0.030266 0.030266
0.030372 0.030372 0.030372
0.030479 0.030479 0.030479
0.030587 0.030587 0.030587
0.030694 0.030694 0.030694
0.030802 0.030802 0.030802
0.030909 0.030909 0.030909
0.031017 0.031017 0.031017
0.031126 0.031126 0.031126
0.031234 0.031234 0.031234
0.031343 0.031343 0.031343
0.031452 0.031452 0.031452
0.031561 0.031561 0.031561
0.031670 0.031670 0.031670
0.031780 0.031780 0.031780
0.031890 0.031890 0.031890
0.032000 0.032000 0.032000
0.032110 0.032110 0.032110
0.032221 0.032221 0.032221
0.032331 0.032331 0.032331
0.032442 0.032442 0.032442
0.032554 0.032554 0.032554
0.032665 0.032665 0.032665
0.032777 0.032777 0.032777
0.032888 0.032888 0.032888
0.033000 0.033000 0.033000
0.033113 0.033113 0.033113
0.033225 0.033225 0.033225
0.033338 0.033338 0.033338
0.033451 0.033451 0.033451
0.033564 0.033564 0.033564
0.033678 0.033678 0.033678
0.033791 0.033791 0.033791
0.033905 0.033905 0.033905
0.034019 0.034019 0.034019
0.034134 0.034134 0.034134
0.034248 0.034248 0.034248
0.034363 0.034363 0.034363
0.034478 0.034478 0.034478
0.034593 0.034593 0.034593
0.034708 0.034708 0.034708
0.034824 0.034824 0.034824
0.034940 0.034940 0.034940
0.035056 0.035056 0.035056
0.035173 0.035173 0.035173
0.035289 0.035289 0.035289
0.035406 0.035406 0.035406
0.035523 0.035523 0.035523
0.035640 0.035640 0.035640
0.035758 0.035758 0.035758
0.035875 0.035875 0.035875
0.035993 0.035993 0.035993
0.036111 0.036111 0.036111
0.036230 0.036230 0.036230
0.036348 0.036348 0.036348
0.036467 0.036467 0.036467
0.036586 0.036586 0.036586
0.036706 0.036706 0.036706
0.036825 0.036825 0.036825
0.036945 0.036945 0.036945
0.037065 0.037065 0.037065
0.037185 0.037185 0.037185
0.037306 0.037306 0.037306
0.037426 0.037426 0.037426
0.037547 0.037547 0.037547
0.037668 0.037668 0.037668
0.037790 0.037790 0.037790
0.037911 0.037911 0.037911
0.038033 0.038033 0.038033
0.038155 0.038155 0.038155
0.038278 0.038278 0.038278
0.038400 0.038400 0.038400
0.038523 0.038523 0.038523
0.038646 0.038646 0.038646
0.038769 0.038769 0.038769
0.038892 0.038892 0.038892
0.039016 0.039016 0.039016
0.039140 0.039140 0.039140
0.039264 0.039264 0.039264
0.039389 0.039389 0.039389
0.039513 0.039513 0.039513
0.039638 0.039638 0.039638
0.039763 0.039763 0.039763
0.039888 0.039888 0.039888
0.040014 0.040014 0.040014
0.040140 0.040140 0.040140
0.040266 0.040266 0.040266
0.040392 0.040392 0.040392
0.040518 0.040518 0.040518
0.040645 0.040645 0.040645
0.040772 0.040772 0.040772
0.040899 0.040899 0.040899
0.041026 0.041026 0.041026
0.041154 0.041154 0.041154
0.041282 0.041282 0.041282
0.041410 0.041410 0.041410
0.041538 0.041538 0.041538
0.041667 0.041667 0.041667
0.041796 0.041796 0.041796
0.041925 0.041925 0.041925
0.042054 0.042054 0.042054
0.042183 0.042183 0.042183
0.042313 0.042313 0.042313
0.042443 0.042443 0.042443
0.042573 0.042573 0.042573
0.042704 0.042704 0.042704
0.042834 0.042834 0.042834
0.042965 0.042965 0.042965
0.043096 0.043096 0.043096
0.043228 0.043228 0.043228
0.043359 0.043359 0.043359
0.043491 0.043491 0.043491
0.043623 0.043623 0.043623
0.043755 0.043755 0.043755
0.043888 0.043888 0.043888
0.044021 0.044021 0.044021
0.044154 0.044154 0.044154
0.044287 0.044287 0.044287
0.044420 0.044420 0.044420
0.044554 0.044554 0.044554
0.044688 0.044688 0.044688
0.044822 0.044822 0.044822
0.044957 0.044957 0.044957
0.045091 0.045091 0.045091
0.045226 0.045226 0.045226
0.045361 0.045361 0.045361
0.045497 0.045497 0.045497
0.045632 0.045632 0.045632
0.045768 0.045768 0.045768
0.045904 0.045904 0.045904
0.046041 0.046041 0.046041
0.046177 0.046177 0.046177
0.046314 0.046314 0.046314
0.046451 0.046451 0.046451
0.046588 0.046588 0.046588
0.046726 0.046726 0.046726
0.046864 0.046864 0.046864
0.047002 0.047002 0.047002
0.047140 0.047140 0.047140
0.047278 0.047278 0.047278
0.047417 0.047417 0.047417
0.047556 0.047556 0.047556
0.047695 0.047695 0.047695
0.047834 0.047834 0.047834
0.047974 0.047974 0.047974
0.048114 0.048114 0.048114
0.048254 0.048254 0.048254
0.048395 0.048395 0.048395
0.048535 0.048535 0.048535
0.048676 0.048676 0.048676
0.048817 0.048817 0.048817
0.048958 0.048958 0.048958
0.049100 0.049100 0.049100
0.049242 0.049242 0.049242
0.049384 0.049384 0.049384
0.049526 0.049526 0.049526
0.049669 0.049669 0.049669
0.049812 0.049812 0.049812
0.049955 0.049955 0.049955
0.050098 0.050098 0.050098
0.050241 0.050241 0.050241
0.050385 0.050385 0.050385
0.050529 0.050529 0.050529
0.050673 0.050673 0.050673
0.050818 0.050818 0.050818
0.050963 0.050963 0.050963
0.051108 0.051108 0.051108
0.051253 0.051253 0.051253
0.051398 0.051398 0.051398
0.051544 0.051544 0.051544
0.051690 0.051690 0.051690
0.051836 0.051836 0.051836
0.051982 0.051982 0.051982
0.052129 0.052129 0.052129
0.052276 0.052276 0.052276
0.052423 0.052423 0.052423
0.052570 0.052570 0.052570
0.052718 0.052718 0.052718
0.052866 0.052866 0.052866
0.053014 0.053014 0.053014
0.053162 0.053162 0.053162
0.053311 0.053311 0.053311
0.053460 0.053460 0.053460
0.053609 0.053609 0.053609
0.053758 0.053758 0.053758
0.053908 0.053908 0.053908
0.054058 0.054058 0.054058
0.054208 0.054208 0.054208
0.054358 0.054358 0.054358
0.054509 0.054509 0.054509
0.054659 0.054659 0.054659
0.054810 0.054810 0.054810
0.054962 0.054962 0.054962
0.055113 0.055113 0.055113
0.055265 0.055265 0.055265
0.055417 0.055417 0.055417
