config/curves/Ilford_MGFB_2.cube
# DiVERE Density Curve 1D LUT
LUT_1D_SIZE 65536
DOMAIN_MIN 0.0 0.0 0.0
DOMAIN_MAX 1.0 1.0 1.0

0.008132 0.008132 0.008132
0.008132 0.008132 0.008132
0.008132 0.008132 0.008132
0.008132 0.008132 0.008132
0.008132 0.008132 0.008132
0.008132 0.008132 0.008132
0.008132 0.008132 0.008132
0.008132 0.008132 0.008132
0.008132 0.008132 0.008132
0.008132 0.008132 0.008132
0.008132 0.008132 0.008132
0.008132 0.008132 0.008132
0.008132 0.008132 0.008132
0.008132 0.008132 0.008132
0.008132 0.008132 0.008132
0.008132 0.008132 0.008132
0.008132 0.008132 0.008132
0.008132 0.008132 0.008132
0.008132 0.008132 0.008132
0.008132 0.008132 0.008132
0.008132 0.008132 0.008132
0.008132 0.008132 0.008132
0.008132 0.008132 0.008132
0.008132 0.008132 0.008132
0.008132 0.008132 0.008132
0.008132 0.008132 0.008132
0.008132 0.008132 0.008132
0.008132 0.008132 0.008132
0.008132 0.008132 0.008132
0.008132 0.008132 0.008132
0.008132 0.008132 0.008132
0.008132 0.008132 0.008132
0.008132 0.008132 0.008132
0.008132 0.008132 0.008132
0.008132 0.008132 0.008132
0.008132 0.008132 0.008132
0.008132 0.008132 0.008132
0.008132 0.008132 0.008132
0.008120 0.008120 0.008120
0.008108 0.008108 0.008108
0.008097 0.008097 0.008097
0.008087 0.008087 0.008087
0.008076 0.008076 0.008076
0.008066 0.008066 0.008066
0.008056 0.008056 0.008056
0.008046 0.008046 0.008046
0.008036 0.008036 0.008036
0.008027 0.008027 0.008027
0.008018 0.008018 0.008018
0.008009 0.008009 0.008009
0.008000 0.008000 0.008000
0.007992 0.007992 0.007992
0.007983 0.007983 0.007983
0.007975 0.007975 0.007975
0.007967 0.007967 0.007967
0.007959 0.007959 0.007959
0.007951 0.007951 0.007951
0.007944 0.007944 0.007944
0.007936 0.007936 0.007936
0.007929 0.007929 0.007929
0.007921 0.007921 0.007921
0.007914 0.007914 0.007914
0.007907 0.007907 0.007907
0.007901 0.007901 0.007901
0.007894 0.007894 0.007894
0.007887 0.007887 0.007887
0.007881 0.007881 0.007881
0.007874 0.007874 0.007874
0.007868 0.007868 0.007868
0.007862 0.007862 0.007862
0.007856 0.007856 0.007856
0.007850 0.007850 0.007850
0.007844 0.007844 0.007844
0.007838 0.007838 0.007838
0.007832 0.007832 0.007832
0.007826 0.007826 0.007826
0.007820 0.007820 0.007820
0.007814 0.007814 0.007814
0.007807 0.007807 0.007807
0.007801 0.007801 0.007801
0.007795 0.007795 0.007795
0.007789 0.007789 0.007789
0.007783 0.007783 0.007783
0.007778 0.007778 0.007778
0.007772 0.007772 0.007772
0.007766 0.007766 0.007766
0.007760 0.007760 0.007760
0.007755 0.007755 0.007755
0.007749 0.007749 0.007749
0.007744 0.007744 0.007744
0.007739 0.007739 0.007739
0.007733 0.007733 0.007733
0.007728 0.007728 0.007728
0.007723 0.007723 0.007723
0.007718 0.007718 0.007718
0.007713 0.007713 0.007713
0.007708 0.007708 0.007708
0.007703 0.007703 0.007703
0.007698 0.007698 0.007698
0.007693 0.007693 0.007693
0.007689 0.007689 0.007689
0.007684 0.007684 0.007684
0.007679 0.007679 0.007679
0.007674 0.007674 0.007674
0.007670 0.007670 0.007670
0.007665 0.007665 0.007665
0.007661 0.007661 0.007661
0.007656 0.007656 0.007656
0.007652 0.007652 0.007652
0.007648 0.007648 0.007648
0.007643 0.007643 0.007643
0.007639 0.007639 0.007639
0.007635 0.007635 0.007635
0.007631 0.007631 0.007631
0.007627 0.007627 0.007627
0.007622 0.007622 0.007622
0.007618 0.007618 0.007618
0.007614 0.007614 0.007614
0.007610 0.007610 0.007610
0.007606 0.007606 0.007606
0.007602 0.007602 0.007602
0.007598 0.007598 0.007598
0.007595 0.007595 0.007595
0.007591 0.007591 0.007591
0.007587 0.007587 0.007587
0.007583 0.007583 0.007583
0.007580 0.007580 0.007580
0.007576 0.007576 0.007576
0.007572 0.007572 0.007572
0.007568 0.007568 0.007568
0.007565 0.007565 0.007565
0.007561 0.007561 0.007561
0.007558 0.007558 0.007558
0.007554 0.007554 0.007554
0.007551 0.007551 0.007551
0.007547 0.007547 0.007547
0.007544 0.007544 0.007544
0.007540 0.007540 0.007540
0.007537 0.007537 0.007537
0.007534 0.007534 0.007534
0.007531 0.007531 0.007531
0.007530 0.007530 0.007530
0.007529 0.007529 0.007529
0.007528 0.007528 0.007528
0.007527 0.007527 0.007527
0.007526 0.007526 0.007526
0.007525 0.007525 0.007525
0.007524 0.007524 0.007524
0.007523 0.007523 0.007523
0.007522 0.007522 0.007522
0.007521 0.007521 0.007521
0.007520 0.007520 0.007520
0.007519 0.007519 0.007519
0.007518 0.007518 0.007518
0.007517 0.007517 0.007517
0.007516 0.007516 0.007516
0.007515 0.007515 0.007515
0.007514 0.007514 0.007514
0.007513 0.007513 0.007513
0.007512 0.007512 0.007512
0.007511 0.007511 0.007511
0.007510 0.007510 0.007510
0.007509 0.007509 0.007509
0.007508 0.007508 0.007508
0.007507 0.007507 0.007507
0.007506 0.007506 0.007506
0.007505 0.007505 0.007505
0.007504 0.007504 0.007504
0.007503 0.007503 0.007503
0.007503 0.007503 0.007503
0.007502 0.007502 0.007502
0.007501 0.007501 0.007501
0.007500 0.007500 0.007500
0.007499 0.007499 0.007499
0.007498 0.007498 0.007498
0.007497 0.007497 0.007497
0.007496 0.007496 0.007496
0.007496 0.007496 0.007496
0.007495 0.007495 0.007495
0.007494 0.007494 0.007494
0.007493 0.007493 0.007493
0.007492 0.007492 0.007492
0.007491 0.007491 0.007491
0.007491 0.007491 0.007491
0.007490 0.007490 0.007490
0.007489 0.007489 0.007489
0.007488 0.007488 0.007488
0.007487 0.007487 0.007487
0.007487 0.007487 0.007487
0.007486 0.007486 0.007486
0.007485 0.007485 0.007485
0.007484 0.007484 0.007484
0.007483 0.007483 0.007483
0.007483 0.007483 0.007483
0.007482 0.007482 0.007482
0.007481 0.007481 0.007481
0.007480 0.007480 0.007480
0.007479 0.007479 0.007479
0.007479 0.007479 0.007479
0.007478 0.007478 0.007478
0.007477 0.007477 0.007477
0.007476 0.007476 0.007476
0.007476 0.007476 0.007476
0.007475 0.007475 0.007475
0.007474 0.007474 0.007474
0.007473 0.007473 0.007473
0.007473 0.007473 0.007473
0.007472 0.007472 0.007472
0.007471 0.007471 0.007471
0.007471 0.007471 0.007471
0.007470 0.007470 0.007470
0.007469 0.007469 0.007469
0.007468 0.007468 0.007468
0.007468 0.007468 0.007468
0.007467 0.007467 0.007467
0.007466 0.007466 0.007466
0.007466 0.007466 0.007466
0.007465 0.007465 0.007465
0.007464 0.007464 0.007464
0.007464 0.007464 0.007464
0.007463 0.007463 0.007463
0.007462 0.007462 0.007462
0.007462 0.007462 0.007462
0.007461 0.007461 0.007461
0.007460 0.007460 0.007460
0.007460 0.007460 0.007460
0.007459 0.007459 0.007459
0.007458 0.007458 0.007458
0.007458 0.007458 0.007458
0.007457 0.007457 0.007457
0.007456 0.007456 0.007456
0.007456 0.007456 0.007456
0.007455 0.007455 0.007455
0.007454 0.007454 0.007454
0.007454 0.007454 0.007454
0.007453 0.007453 0.007453
0.007452 0.007452 0.007452
0.007452 0.007452 0.007452
0.007451 0.007451 0.007451
0.007450 0.007450 0.007450
0.007450 0.007450 0.007450
0.007451 0.007451 0.007451
0.007462 0.007462 0.007462
0.007473 0.007473 0.007473
0.007483 0.007483 0.007483
0.007494 0.007494 0.007494
0.007504 0.007504 0.007504
0.007515 0.007515 0.007515
0.007526 0.007526 0.007526
0.007536 0.007536 0.007536
0.007547 0.007547 0.007547
0.007557 0.007557 0.007557
0.007567 0.007567 0.007567
0.007578 0.007578 0.007578
0.007588 0.007588 0.007588
0.007599 0.007599 0.007599
0.007609 0.007609 0.007609
0.007619 0.007619 0.007619
0.007629 0.007629 0.007629
0.007640 0.007640 0.007640
0.007650 0.007650 0.007650
0.007660 0.007660 0.007660
0.007670 0.007670 0.007670
0.007680 0.007680 0.007680
0.007691 0.007691 0.007691
0.007701 0.007701 0.007701
0.007711 0.007711 0.007711
0.007721 0.007721 0.007721
0.007731 0.007731 0.007731
0.007741 0.007741 0.007741
0.007751 0.007751 0.007751
0.007761 0.007761 0.007761
0.007771 0.007771 0.007771
0.007780 0.007780 0.007780
0.007790 0.007790 0.007790
0.007800 0.007800 0.007800
0.007810 0.007810 0.007810
0.007820 0.007820 0.007820
0.007830 0.007830 0.007830
0.007839 0.007839 0.007839
0.007849 0.007849 0.007849
0.007859 0.007859 0.007859
0.007868 0.007868 0.007868
0.007878 0.007878 0.007878
0.007888 0.007888 0.007888
0.007897 0.007897 0.007897
0.007907 0.007907 0.007907
0.007917 0.007917 0.007917
0.007926 0.007926 0.007926
0.007936 0.007936 0.007936
0.007945 0.007945 0.007945
0.007955 0.007955 0.007955
0.007964 0.007964 0.007964
0.007973 0.007973 0.007973
0.007983 0.007983 0.007983
0.007992 0.007992 0.007992
0.008002 0.008002 0.008002
0.008011 0.008011 0.008011
0.008020 0.008020 0.008020
0.008030 0.008030 0.008030
0.008039 0.008039 0.008039
0.008048 0.008048 0.008048
0.008058 0.008058 0.008058
0.008067 0.008067 0.008067
0.008076 0.008076 0.008076
0.008085 0.008085 0.008085
0.008094 0.008094 0.008094
0.008104 0.008104 0.008104
0.008113 0.008113 0.008113
0.008122 0.008122 0.008122
0.008131 0.008131 0.008131
0.008140 0.008140 0.008140
0.008149 0.008149 0.008149
0.008158 0.008158 0.008158
0.008167 0.008167 0.008167
0.008176 0.008176 0.008176
0.008185 0.008185 0.008185
0.008194 0.008194 0.008194
0.008203 0.008203 0.008203
0.008212 0.008212 0.008212
0.008221 0.008221 0.008221
0.008230 0.008230 0.008230
0.008239 0.008239 0.008239
0.008248 0.008248 0.008248
0.008256 0.008256 0.008256
0.008265 0.008265 0.008265
0.008274 0.008274 0.008274
0.008283 0.008283 0.008283
0.008292 0.008292 0.008292
0.008300 0.008300 0.008300
0.008309 0.008309 0.008309
0.008318 0.008318 0.008318
0.008327 0.008327 0.008327
0.008335 0.008335 0.008335
0.008344 0.008344 0.008344
0.008353 0.008353 0.008353
0.008361 0.008361 0.008361
0.008370 0.008370 0.008370
0.008378 0.008378 0.008378
0.008387 0.008387 0.008387
0.008396 0.008396 0.008396
0.008404 0.008404 0.008404
0.008413 0.008413 0.008413
0.008421 0.008421 0.008421
0.008430 0.008430 0.008430
0.008438 0.008438 0.008438
0.008447 0.008447 0.008447
0.008455 0.008455 0.008455
0.008464 0.008464 0.008464
0.008472 0.008472 0.008472
0.008480 0.008480 0.008480
0.008489 0.008489 0.008489
0.008497 0.008497 0.008497
0.008506 0.008506 0.008506
0.008514 0.008514 0.008514
0.008522 0.008522 0.008522
0.008531 0.008531 0.008531
0.008539 0.008539 0.008539
0.008547 0.008547 0.008547
0.008555 0.008555 0.008555
0.008564 0.008564 0.008564
0.008572 0.008572 0.008572
0.008580 0.008580 0.008580
0.008588 0.008588 0.008588
0.008596 0.008596 0.008596
0.008605 0.008605 0.008605
0.008613 0.008613 0.008613
0.008621 0.008621 0.008621
0.008629 0.008629 0.008629
0.008637 0.008637 0.008637
0.008645 0.008645 0.008645
0.008653 0.008653 0.008653
0.008662 0.008662 0.008662
0.008670 0.008670 0.008670
0.008678 0.008678 0.008678
0.008686 0.008686 0.008686
0.008694 0.008694 0.008694
0.008702 0.008702 0.008702
0.008710 0.008710 0.008710
0.008718 0.008718 0.008718
0.008726 0.008726 0.008726
0.008734 0.008734 0.008734
0.008742 0.008742 0.008742
0.008749 0.008749 0.008749
0.008757 0.008757 0.008757
0.008765 0.008765 0.008765
0.008773 0.008773 0.008773
0.008781 0.008781 0.008781
0.008789 0.008789 0.008789
0.008798 0.008798 0.008798
0.008807 0.008807 0.008807
0.008816 0.008816 0.008816
0.008826 0.008826 0.008826
0.008835 0.008835 0.008835
0.008844 0.008844 0.008844
0.008853 0.008853 0.008853
0.008863 0.008863 0.008863
0.008872 0.008872 0.008872
0.008881 0.008881 0.008881
0.008890 0.008890 0.008890
0.008899 0.008899 0.008899
0.008908 0.008908 0.008908
0.008917 0.008917 0.008917
0.008926 0.008926 0.008926
0.008936 0.008936 0.008936
0.008945 0.008945 0.008945
0.008954 0.008954 0.008954
0.008963 0.008963 0.008963
0.008972 0.008972 0.008972
0.008981 0.008981 0.008981
0.008990 0.008990 0.008990
0.008999 0.008999 0.008999
0.009008 0.009008 0.009008
0.009017 0.009017 0.009017
0.009026 0.009026 0.009026
0.009034 0.009034 0.009034
0.009043 0.009043 0.009043
0.009052 0.009052 0.009052
0.009061 0.009061 0.009061
0.009070 0.009070 0.009070
0.009079 0.009079 0.009079
0.009088 0.009088 0.009088
0.009097 0.009097 0.009097
0.009106 0.009106 0.009106
0.009114 0.009114 0.009114
0.009123 0.009123 0.009123
0.009132 0.009132 0.009132
0.009141 0.009141 0.009141
0.009149 0.009149 0.009149
0.009158 0.009158 0.009158
0.009167 0.009167 0.009167
0.009176 0.009176 0.009176
0.009184 0.009184 0.009184
0.009193 0.009193 0.009193
0.009202 0.009202 0.009202
0.009211 0.009211 0.009211
0.009219 0.009219 0.009219
0.009228 0.009228 0.009228
0.009237 0.009237 0.009237
0.009245 0.009245 0.009245
0.009254 0.009254 0.009254
0.009262 0.009262 0.009262
0.009271 0.009271 0.009271
0.009280 0.009280 0.009280
0.009288 0.009288 0.009288
0.009297 0.009297 0.009297
0.009305 0.009305 0.009305
0.009314 0.009314 0.009314
0.009322 0.009322 0.009322
0.009331 0.009331 0.009331
0.009339 0.009339 0.009339
0.009348 0.009348 0.009348
0.009356 0.009356 0.009356
0.009365 0.009365 0.009365
0.009373 0.009373 0.009373
0.009382 0.009382 0.009382
0.009390 0.009390 0.009390
0.009399 0.009399 0.009399
0.009407 0.009407 0.009407
0.009416 0.009416 0.009416
0.009424 0.009424 0.009424
0.009432 0.009432 0.009432
0.009441 0.009441 0.009441
0.009449 0.009449 0.009449
0.009458 0.009458 0.009458
0.009466 0.009466 0.009466
0.009474 0.009474 0.009474
0.009483 0.009483 0.009483
0.009491 0.009491 0.009491
0.009499 0.009499 0.009499
0.009508 0.009508 0.009508
0.009516 0.009516 0.009516
0.009524 0.009524 0.009524
0.009532 0.009532 0.009532
0.009541 0.009541 0.009541
0.009549 0.009549 0.009549
0.009557 0.009557 0.009557
0.009565 0.009565 0.009565
0.009574 0.009574 0.009574
0.009582 0.009582 0.009582
0.009590 0.009590 0.009590
0.009598 0.009598 0.009598
0.009606 0.009606 0.009606
0.009614 0.009614 0.009614
0.009623 0.009623 0.009623
0.009631 0.009631 0.009631
0.009639 0.009639 0.009639
0.009647 0.009647 0.009647
0.009655 0.009655 0.009655
0.009663 0.009663 0.009663
0.009671 0.009671 0.009671
0.009679 0.009679 0.009679
0.009688 0.009688 0.009688
0.009696 0.009696 0.009696
0.009704 0.009704 0.009704
0.009712 0.009712 0.009712
0.009720 0.009720 0.009720
0.009728 0.009728 0.009728
0.009736 0.009736 0.009736
0.009744 0.009744 0.009744
0.009752 0.009752 0.009752
0.009760 0.009760 0.009760
0.009768 0.009768 0.009768
0.009776 0.009776 0.009776
0.009784 0.009784 0.009784
0.009792 0.009792 0.009792
0.009800 0.009800 0.009800
0.009808 0.009808 0.009808
0.009816 0.009816 0.009816
0.009823 0.009823 0.009823
0.009831 0.009831 0.009831
0.009839 0.009839 0.009839
0.009847 0.009847 0.009847
0.009855 0.009855 0.009855
0.009863 0.009863 0.009863
0.009871 0.009871 0.009871
0.009879 0.009879 0.009879
0.009886 0.009886 0.009886
0.009894 0.009894 0.009894
0.009902 0.009902 0.009902
0.009910 0.009910 0.009910
0.009918 0.009918 0.009918
0.009926 0.009926 0.009926
0.009933 0.009933 0.009933
0.009941 0.009941 0.009941
0.009949 0.009949 0.009949
0.009957 0.009957 0.009957
0.009964 0.009964 0.009964
0.009972 0.009972 0.009972
0.009980 0.009980 0.009980
0.009988 0.009988 0.009988
0.009995 0.009995 0.009995
0.010003 0.010003 0.010003
0.010011 0.010011 0.010011
0.010018 0.010018 0.010018
0.010026 0.010026 0.010026
0.010034 0.010034 0.010034
0.010042 0.010042 0.010042
0.010049 0.010049 0.010049
0.010057 0.010057 0.010057
0.010065 0.010065 0.010065
0.010072 0.010072 0.010072
0.010080 0.010080 0.010080
0.010087 0.010087 0.010087
0.010095 0.010095 0.010095
0.010103 0.010103 0.010103
0.010110 0.010110 0.010110
0.010118 0.010118 0.010118
0.010125 0.010125 0.010125
0.010133 0.010133 0.010133
0.010141 0.010141 0.010141
0.010148 0.010148 0.010148
0.010156 0.010156 0.010156
0.010163 0.010163 0.010163
0.010171 0.010171 0.010171
0.010178 0.010178 0.010178
0.010186 0.010186 0.010186
0.010193 0.010193 0.010193
0.010201 0.010201 0.010201
0.010208 0.010208 0.010208
0.010216 0.010216 0.010216
0.010223 0.010223 0.010223
0.010231 0.010231 0.010231
0.010238 0.010238 0.010238
0.010246 0.010246 0.010246
0.010253 0.010253 0.010253
0.010260 0.010260 0.010260
0.010268 0.010268 0.010268
0.010275 0.010275 0.010275
0.010283 0.010283 0.010283
0.010290 0.010290 0.010290
0.010298 0.010298 0.010298
0.010305 0.010305 0.010305
0.010312 0.010312 0.010312
0.010320 0.010320 0.010320
0.010327 0.010327 0.010327
0.010334 0.010334 0.010334
0.010342 0.010342 0.010342
0.010349 0.010349 0.010349
0.010356 0.010356 0.010356
0.010364 0.010364 0.010364
0.010371 0.010371 0.010371
0.010378 0.010378 0.010378
0.010386 0.010386 0.010386
0.010393 0.010393 0.010393
0.010400 0.010400 0.010400
0.010408 0.010408 0.010408
0.010415 0.010415 0.010415
0.010422 0.010422 0.010422
0.010429 0.010429 0.010429
0.010438 0.010438 0.010438
0.010473 0.010473 0.010473
0.010508 0.010508 0.010508
0.010543 0.010543 0.010543
0.010577 0.010577 0.010577
0.010612 0.010612 0.010612
0.010647 0.010647 0.010647
0.010683 0.010683 0.010683
0.010718 0.010718 0.010718
0.010753 0.010753 0.010753
0.010788 0.010788 0.010788
0.010823 0.010823 0.010823
0.010859 0.010859 0.010859
0.010894 0.010894 0.010894
0.010930 0.010930 0.010930
0.010965 0.010965 0.010965
0.011001 0.011001 0.011001
0.011036 0.011036 0.011036
0.011072 0.011072 0.011072
0.011108 0.011108 0.011108
0.011144 0.011144 0.011144
0.011180 0.011180 0.011180
0.011215 0.011215 0.011215
0.011251 0.011251 0.011251
0.011287 0.011287 0.011287
0.011324 0.011324 0.011324
0.011360 0.011360 0.011360
0.011396 0.011396 0.011396
0.011432 0.011432 0.011432
0.011469 0.011469 0.011469
0.011505 0.011505 0.011505
0.011541 0.011541 0.011541
0.011578 0.011578 0.011578
0.011614 0.011614 0.011614
0.011651 0.011651 0.011651
0.011688 0.011688 0.011688
0.011724 0.011724 0.011724
0.011761 0.011761 0.011761
0.011798 0.011798 0.011798
0.011835 0.011835 0.011835
0.011872 0.011872 0.011872
0.011909 0.011909 0.011909
0.011946 0.011946 0.011946
0.011983 0.011983 0.011983
0.012020 0.012020 0.012020
0.012057 0.012057 0.012057
0.012095 0.012095 0.012095
0.012132 0.012132 0.012132
0.012169 0.012169 0.012169
0.012207 0.012207 0.012207
0.012244 0.012244 0.012244
0.012282 0.012282 0.012282
0.012320 0.012320 0.012320
0.012357 0.012357 0.012357
0.012395 0.012395 0.012395
0.012433 0.012433 0.012433
0.012471 0.012471 0.012471
0.012509 0.012509 0.012509
0.012546 0.012546 0.012546
0.012584 0.012584 0.012584
0.012623 0.012623 0.012623
0.012661 0.012661 0.012661
0.012699 0.012699 0.012699
0.012737 0.012737 0.012737
0.012775 0.012775 0.012775
0.012814 0.012814 0.012814
0.012852 0.012852 0.012852
0.012891 0.012891 0.012891
0.012929 0.012929 0.012929
0.012968 0.012968 0.012968
0.013006 0.013006 0.013006
0.013045 0.013045 0.013045
0.013084 0.013084 0.013084
0.013123 0.013123 0.013123
0.013161 0.013161 0.013161
0.013200 0.013200 0.013200
0.013239 0.013239 0.013239
0.013278 0.013278 0.013278
0.013317 0.013317 0.013317
0.013357 0.013357 0.013357
0.013396 0.013396 0.013396
0.013435 0.013435 0.013435
0.013474 0.013474 0.013474
0.013514 0.013514 0.013514
0.013553 0.013553 0.013553
0.013593 0.013593 0.013593
0.013632 0.013632 0.013632
0.013672 0.013672 0.013672
0.013711 0.013711 0.013711
0.013751 0.013751 0.013751
0.013791 0.013791 0.013791
0.013831 0.013831 0.013831
0.013871 0.013871 0.013871
0.013911 0.013911 0.013911
0.013951 0.013951 0.013951
0.013991 0.013991 0.013991
0.014031 0.014031 0.014031
0.014071 0.014071 0.014071
0.014111 0.014111 0.014111
0.014151 0.014151 0.014151
0.014192 0.014192 0.014192
0.014232 0.014232 0.014232
0.014272 0.014272 0.014272
0.014313 0.014313 0.014313
0.014354 0.014354 0.014354
0.014394 0.014394 0.014394
0.014435 0.014435 0.014435
0.014475 0.014475 0.014475
0.014516 0.014516 0.014516
0.014557 0.014557 0.014557
0.014598 0.014598 0.014598
0.014639 0.014639 0.014639
0.014680 0.014680 0.014680
0.014721 0.014721 0.014721
0.014762 0.014762 0.014762
0.014803 0.014803 0.014803
0.014844 0.014844 0.014844
0.014886 0.014886 0.014886
0.014927 0.014927 0.014927
0.014969 0.014969 0.014969
0.015010 0.015010 0.015010
0.015051 0.015051 0.015051
0.015093 0.015093 0.015093
0.015135 0.015135 0.015135
0.015176 0.015176 0.015176
0.015218 0.015218 0.015218
0.015260 0.015260 0.015260
0.015302 0.015302 0.015302
0.015344 0.015344 0.015344
0.015386 0.015386 0.015386
0.015428 0.015428 0.015428
0.015470 0.015470 0.015470
0.015512 0.015512 0.015512
0.015554 0.015554 0.015554
0.015596 0.015596 0.015596
0.015638 0.015638 0.015638
0.015681 0.015681 0.015681
0.015723 0.015723 0.015723
0.015766 0.015766 0.015766
0.015808 0.015808 0.015808
0.015851 0.015851 0.015851
0.015893 0.015893 0.015893
0.015936 0.015936 0.015936
0.015979 0.015979 0.015979
0.016022 0.016022 0.016022
0.016064 0.016064 0.016064
0.016107 0.016107 0.016107
0.016150 0.016150 0.016150
0.016193 0.016193 0.016193
0.016236 0.016236 0.016236
0.016280 0.016280 0.016280
0.016323 0.016323 0.016323
0.016366 0.016366 0.016366
0.016409 0.016409 0.016409
0.016453 0.016453 0.016453
0.016496 0.016496 0.016496
0.016540 0.016540 0.016540
0.016583 0.016583 0.016583
0.016627 0.016627 0.016627
0.016670 0.016670 0.016670
0.016714 0.016714 0.016714
0.016758 0.016758 0.016758
0.016802 0.016802 0.016802
0.016845 0.016845 0.016845
0.016889 0.016889 0.016889
0.016933 0.016933 0.016933
0.016977 0.016977 0.016977
0.017021 0.017021 0.017021
0.017066 0.017066 0.017066
0.017110 0.017110 0.017110
0.017154 0.017154 0.017154
0.017198 0.017198 0.017198
0.017243 0.017243 0.017243
0.017287 0.017287 0.017287
0.017332 0.017332 0.017332
0.017376 0.017376 0.017376
0.017421 0.017421 0.017421
0.017465 0.017465 0.017465
0.017510 0.017510 0.017510
0.017555 0.017555 0.017555
0.017600 0.017600 0.017600
0.017645 0.017645 0.017645
0.017689 0.017689 0.017689
0.017734 0.017734 0.017734
0.017780 0.017780 0.017780
0.017825 0.017825 0.017825
0.017870 0.017870 0.017870
0.017915 0.017915 0.017915
0.017960 0.017960 0.017960
0.018006 0.018006 0.018006
0.018051 0.018051 0.018051
0.018096 0.018096 0.018096
0.018142 0.018142 0.018142
0.018187 0.018187 0.018187
0.018233 0.018233 0.018233
0.018279 0.018279 0.018279
0.018324 0.018324 0.018324
0.018370 0.018370 0.018370
0.018416 0.018416 0.018416
0.018462 0.018462 0.018462
0.018508 0.018508 0.018508
0.018554 0.018554 0.018554
0.018600 0.018600 0.018600
0.018646 0.018646 0.018646
0.018692 0.018692 0.018692
0.018738 0.018738 0.018738
0.018785 0.018785 0.018785
0.018831 0.018831 0.018831
0.018877 0.018877 0.018877
0.018924 0.018924 0.018924
0.018970 0.018970 0.018970
0.019017 0.019017 0.019017
0.019063 0.019063 0.019063
0.019110 0.019110 0.019110
0.019157 0.019157 0.019157
0.019204 0.019204 0.019204
0.019250 0.019250 0.019250
0.019297 0.019297 0.019297
0.019344 0.019344 0.019344
0.019391 0.019391 0.019391
0.019438 0.019438 0.019438
0.019485 0.019485 0.019485
0.019533 0.019533 0.019533
0.019580 0.019580 0.019580
0.019627 0.019627 0.019627
0.019674 0.019674 0.019674
0.019722 0.019722 0.019722
0.019769 0.019769 0.019769
0.019817 0.019817 0.019817
0.019864 0.019864 0.019864
0.019912 0.019912 0.019912
0.019960 0.019960 0.019960
0.020007 0.020007 0.020007
0.020055 0.020055 0.020055
0.020103 0.020103 0.020103
0.020151 0.020151 0.020151
0.020199 0.020199 0.020199
0.020247 0.020247 0.020247
0.020295 0.020295 0.020295
0.020343 0.020343 0.020343
0.020391 0.020391 0.020391
0.020439 0.020439 0.020439
0.020488 0.020488 0.020488
0.020536 0.020536 0.020536
0.020584 0.020584 0.020584
0.020633 0.020633 0.020633
0.020681 0.020681 0.020681
0.020730 0.020730 0.020730
0.020779 0.020779 0.020779
0.020827 0.020827 0.020827
0.020876 0.020876 0.020876
0.020925 0.020925 0.020925
0.020974 0.020974 0.020974
0.021022 0.021022 0.021022
0.021071 0.021071 0.021071
0.021120 0.021120 0.021120
0.021169 0.021169 0.021169
0.021219 0.021219 0.021219
0.021268 0.021268 0.021268
0.021317 0.021317 0.021317
0.021366 0.021366 0.021366
0.021416 0.021416 0.021416
0.021479 0.021479 0.021479
0.021558 0.021558 0.021558
0.021638 0.021638 0.021638
0.021717 0.021717 0.021717
0.021797 0.021797 0.021797
0.021876 0.021876 0.021876
0.021956 0.021956 0.021956
0.022036 0.022036 0.022036
0.022117 0.022117 0.022117
0.022197 0.022197 0.022197
0.022278 0.022278 0.022278
0.022359 0.022359 0.022359
0.022440 0.022440 0.022440
0.022521 0.022521 0.022521
0.022603 0.022603 0.022603
0.022685 0.022685 0.022685
0.022767 0.022767 0.022767
0.022849 0.022849 0.022849
0.022931 0.022931 0.022931
0.023014 0.023014 0.023014
0.023097 0.023097 0.023097
0.023180 0.023180 0.023180
0.023263 0.023263 0.023263
0.023346 0.023346 0.023346
0.023430 0.023430 0.023430
0.023513 0.023513 0.023513
0.023597 0.023597 0.023597
0.023682 0.023682 0.023682
0.023766 0.023766 0.023766
0.023851 0.023851 0.023851
0.023935 0.023935 0.023935
0.024020 0.024020 0.024020
0.024106 0.024106 0.024106
