config/curves/Ilford_MGFB_0.cube
# DiVERE Density Curve 1D LUT
LUT_1D_SIZE 65536
DOMAIN_MIN 0.0 0.0 0.0
DOMAIN_MAX 1.0 1.0 1.0

0.008340 0.008340 0.008340
0.008340 0.008340 0.008340
0.008340 0.008340 0.008340
0.008340 0.008340 0.008340
0.008340 0.008340 0.008340
0.008340 0.008340 0.008340
0.008340 0.008340 0.008340
0.008340 0.008340 0.008340
0.008340 0.008340 0.008340
0.008340 0.008340 0.008340
0.008340 0.008340 0.008340
0.008340 0.008340 0.008340
0.008340 0.008340 0.008340
0.008340 0.008340 0.008340
0.008340 0.008340 0.008340
0.008340 0.008340 0.008340
0.008340 0.008340 0.008340
0.008340 0.008340 0.008340
0.008340 0.008340 0.008340
0.008340 0.008340 0.008340
0.008340 0.008340 0.008340
0.008340 0.008340 0.008340
0.008340 0.008340 0.008340
0.008340 0.008340 0.008340
0.008340 0.008340 0.008340
0.008340 0.008340 0.008340
0.008340 0.008340 0.008340
0.008340 0.008340 0.008340
0.008340 0.008340 0.008340
0.008340 0.008340 0.008340
0.008340 0.008340 0.008340
0.008340 0.008340 0.008340
0.008340 0.008340 0.008340
0.008340 0.008340 0.008340
0.008340 0.008340 0.008340
0.008340 0.008340 0.008340
0.008340 0.008340 0.008340
0.008340 0.008340 0.008340
0.008347 0.008347 0.008347
0.008354 0.008354 0.008354
0.008360 0.008360 0.008360
0.008367 0.008367 0.008367
0.008373 0.008373 0.008373
0.008379 0.008379 0.008379
0.008385 0.008385 0.008385
0.008391 0.008391 0.008391
0.008397 0.008397 0.008397
0.008403 0.008403 0.008403
0.008408 0.008408 0.008408
0.008414 0.008414 0.008414
0.008419 0.008419 0.008419
0.008424 0.008424 0.008424
0.008429 0.008429 0.008429
0.008434 0.008434 0.008434
0.008439 0.008439 0.008439
0.008444 0.008444 0.008444
0.008449 0.008449 0.008449
0.008454 0.008454 0.008454
0.008458 0.008458 0.008458
0.008463 0.008463 0.008463
0.008467 0.008467 0.008467
0.008472 0.008472 0.008472
0.008476 0.008476 0.008476
0.008480 0.008480 0.008480
0.008484 0.008484 0.008484
0.008488 0.008488 0.008488
0.008492 0.008492 0.008492
0.008496 0.008496 0.008496
0.008500 0.008500 0.008500
0.008504 0.008504 0.008504
0.008508 0.008508 0.008508
0.008512 0.008512 0.008512
0.008516 0.008516 0.008516
0.008519 0.008519 0.008519
0.008523 0.008523 0.008523
0.008527 0.008527 0.008527
0.008530 0.008530 0.008530
0.008534 0.008534 0.008534
0.008537 0.008537 0.008537
0.008540 0.008540 0.008540
0.008545 0.008545 0.008545
0.008558 0.008558 0.008558
0.008571 0.008571 0.008571
0.008584 0.008584 0.008584
0.008597 0.008597 0.008597
0.008610 0.008610 0.008610
0.008622 0.008622 0.008622
0.008635 0.008635 0.008635
0.008647 0.008647 0.008647
0.008659 0.008659 0.008659
0.008671 0.008671 0.008671
0.008683 0.008683 0.008683
0.008695 0.008695 0.008695
0.008707 0.008707 0.008707
0.008718 0.008718 0.008718
0.008730 0.008730 0.008730
0.008741 0.008741 0.008741
0.008752 0.008752 0.008752
0.008764 0.008764 0.008764
0.008775 0.008775 0.008775
0.008786 0.008786 0.008786
0.008797 0.008797 0.008797
0.008807 0.008807 0.008807
0.008818 0.008818 0.008818
0.008829 0.008829 0.008829
0.008839 0.008839 0.008839
0.008850 0.008850 0.008850
0.008860 0.008860 0.008860
0.008870 0.008870 0.008870
0.008880 0.008880 0.008880
0.008891 0.008891 0.008891
0.008901 0.008901 0.008901
0.008911 0.008911 0.008911
0.008920 0.008920 0.008920
0.008930 0.008930 0.008930
0.008940 0.008940 0.008940
0.008950 0.008950 0.008950
0.008959 0.008959 0.008959
0.008969 0.008969 0.008969
0.008978 0.008978 0.008978
0.008987 0.008987 0.008987
0.008997 0.008997 0.008997
0.009006 0.009006 0.009006
0.009015 0.009015 0.009015
0.009024 0.009024 0.009024
0.009033 0.009033 0.009033
0.009042 0.009042 0.009042
0.009051 0.009051 0.009051
0.009060 0.009060 0.009060
0.009069 0.009069 0.009069
0.009077 0.009077 0.009077
0.009086 0.009086 0.009086
0.009095 0.009095 0.009095
0.009103 0.009103 0.009103
0.009112 0.009112 0.009112
0.009120 0.009120 0.009120
0.009129 0.009129 0.009129
0.009137 0.009137 0.009137
0.009145 0.009145 0.009145
0.009153 0.009153 0.009153
0.009162 0.009162 0.009162
0.009170 0.009170 0.009170
0.009178 0.009178 0.009178
0.009186 0.009186 0.009186
0.009194 0.009194 0.009194
0.009202 0.009202 0.009202
0.009210 0.009210 0.009210
0.009217 0.009217 0.009217
0.009225 0.009225 0.009225
0.009233 0.009233 0.009233
0.009241 0.009241 0.009241
0.009248 0.009248 0.009248
0.009256 0.009256 0.009256
0.009264 0.009264 0.009264
0.009271 0.009271 0.009271
0.009279 0.009279 0.009279
0.009299 0.009299 0.009299
0.009350 0.009350 0.009350
0.009401 0.009401 0.009401
0.009452 0.009452 0.009452
0.009503 0.009503 0.009503
0.009554 0.009554 0.009554
0.009605 0.009605 0.009605
0.009656 0.009656 0.009656
0.009707 0.009707 0.009707
0.009757 0.009757 0.009757
0.009808 0.009808 0.009808
0.009859 0.009859 0.009859
0.009909 0.009909 0.009909
0.009960 0.009960 0.009960
0.010010 0.010010 0.010010
0.010061 0.010061 0.010061
0.010111 0.010111 0.010111
0.010161 0.010161 0.010161
0.010212 0.010212 0.010212
0.010262 0.010262 0.010262
0.010312 0.010312 0.010312
0.010363 0.010363 0.010363
0.010413 0.010413 0.010413
0.010463 0.010463 0.010463
0.010513 0.010513 0.010513
0.010563 0.010563 0.010563
0.010613 0.010613 0.010613
0.010663 0.010663 0.010663
0.010713 0.010713 0.010713
0.010763 0.010763 0.010763
0.010813 0.010813 0.010813
0.010862 0.010862 0.010862
0.010912 0.010912 0.010912
0.010962 0.010962 0.010962
0.011012 0.011012 0.011012
0.011061 0.011061 0.011061
0.011111 0.011111 0.011111
0.011160 0.011160 0.011160
0.011210 0.011210 0.011210
0.011259 0.011259 0.011259
0.011309 0.011309 0.011309
0.011358 0.011358 0.011358
0.011408 0.011408 0.011408
0.011457 0.011457 0.011457
0.011507 0.011507 0.011507
0.011556 0.011556 0.011556
0.011605 0.011605 0.011605
0.011654 0.011654 0.011654
0.011703 0.011703 0.011703
0.011753 0.011753 0.011753
0.011802 0.011802 0.011802
0.011851 0.011851 0.011851
0.011900 0.011900 0.011900
0.011949 0.011949 0.011949
0.011998 0.011998 0.011998
0.012047 0.012047 0.012047
0.012096 0.012096 0.012096
0.012145 0.012145 0.012145
0.012194 0.012194 0.012194
0.012242 0.012242 0.012242
0.012291 0.012291 0.012291
0.012340 0.012340 0.012340
0.012389 0.012389 0.012389
0.012437 0.012437 0.012437
0.012486 0.012486 0.012486
0.012535 0.012535 0.012535
0.012583 0.012583 0.012583
0.012632 0.012632 0.012632
0.012680 0.012680 0.012680
0.012729 0.012729 0.012729
0.012777 0.012777 0.012777
0.012826 0.012826 0.012826
0.012874 0.012874 0.012874
0.012923 0.012923 0.012923
0.012971 0.012971 0.012971
0.013019 0.013019 0.013019
0.013068 0.013068 0.013068
0.013116 0.013116 0.013116
0.013164 0.013164 0.013164
0.013212 0.013212 0.013212
0.013260 0.013260 0.013260
0.013309 0.013309 0.013309
0.013357 0.013357 0.013357
0.013405 0.013405 0.013405
0.013453 0.013453 0.013453
0.013501 0.013501 0.013501
0.013549 0.013549 0.013549
0.013597 0.013597 0.013597
0.013645 0.013645 0.013645
0.013693 0.013693 0.013693
0.013741 0.013741 0.013741
0.013789 0.013789 0.013789
0.013836 0.013836 0.013836
0.013884 0.013884 0.013884
0.013932 0.013932 0.013932
0.013980 0.013980 0.013980
0.014027 0.014027 0.014027
0.014075 0.014075 0.014075
0.014123 0.014123 0.014123
0.014170 0.014170 0.014170
0.014218 0.014218 0.014218
0.014266 0.014266 0.014266
0.014313 0.014313 0.014313
0.014361 0.014361 0.014361
0.014408 0.014408 0.014408
0.014456 0.014456 0.014456
0.014503 0.014503 0.014503
0.014551 0.014551 0.014551
0.014598 0.014598 0.014598
0.014645 0.014645 0.014645
0.014693 0.014693 0.014693
0.014740 0.014740 0.014740
0.014787 0.014787 0.014787
0.014835 0.014835 0.014835
0.014882 0.014882 0.014882
0.014929 0.014929 0.014929
0.014976 0.014976 0.014976
0.015024 0.015024 0.015024
0.015071 0.015071 0.015071
0.015118 0.015118 0.015118
0.015165 0.015165 0.015165
0.015212 0.015212 0.015212
0.015280 0.015280 0.015280
0.015366 0.015366 0.015366
0.015452 0.015452 0.015452
0.015538 0.015538 0.015538
0.015624 0.015624 0.015624
0.015710 0.015710 0.015710
0.015797 0.015797 0.015797
0.015884 0.015884 0.015884
0.015971 0.015971 0.015971
0.016058 0.016058 0.016058
0.016145 0.016145 0.016145
0.016233 0.016233 0.016233
0.016320 0.016320 0.016320
0.016408 0.016408 0.016408
0.016496 0.016496 0.016496
0.016584 0.016584 0.016584
0.016672 0.016672 0.016672
0.016761 0.016761 0.016761
0.016849 0.016849 0.016849
0.016938 0.016938 0.016938
0.017027 0.017027 0.017027
0.017116 0.017116 0.017116
0.017206 0.017206 0.017206
0.017295 0.017295 0.017295
0.017385 0.017385 0.017385
0.017475 0.017475 0.017475
0.017565 0.017565 0.017565
0.017655 0.017655 0.017655
0.017745 0.017745 0.017745
0.017836 0.017836 0.017836
0.017926 0.017926 0.017926
0.018017 0.018017 0.018017
0.018108 0.018108 0.018108
0.018199 0.018199 0.018199
0.018290 0.018290 0.018290
0.018382 0.018382 0.018382
0.018473 0.018473 0.018473
0.018565 0.018565 0.018565
0.018657 0.018657 0.018657
0.018749 0.018749 0.018749
0.018841 0.018841 0.018841
0.018934 0.018934 0.018934
0.019027 0.019027 0.019027
0.019119 0.019119 0.019119
0.019212 0.019212 0.019212
0.019305 0.019305 0.019305
0.019398 0.019398 0.019398
0.019492 0.019492 0.019492
0.019585 0.019585 0.019585
0.019679 0.019679 0.019679
0.019773 0.019773 0.019773
0.019867 0.019867 0.019867
0.019961 0.019961 0.019961
0.020056 0.020056 0.020056
0.020150 0.020150 0.020150
0.020245 0.020245 0.020245
0.020340 0.020340 0.020340
0.020435 0.020435 0.020435
0.020530 0.020530 0.020530
0.020625 0.020625 0.020625
0.020721 0.020721 0.020721
0.020816 0.020816 0.020816
0.020912 0.020912 0.020912
0.021008 0.021008 0.021008
0.021104 0.021104 0.021104
0.021200 0.021200 0.021200
0.021297 0.021297 0.021297
0.021393 0.021393 0.021393
0.021490 0.021490 0.021490
0.021587 0.021587 0.021587
0.021684 0.021684 0.021684
0.021781 0.021781 0.021781
0.021879 0.021879 0.021879
0.021976 0.021976 0.021976
0.022074 0.022074 0.022074
0.022171 0.022171 0.022171
0.022269 0.022269 0.022269
0.022368 0.022368 0.022368
0.022466 0.022466 0.022466
0.022564 0.022564 0.022564
0.022663 0.022663 0.022663
0.022762 0.022762 0.022762
0.022861 0.022861 0.022861
0.022960 0.022960 0.022960
0.023059 0.023059 0.023059
0.023158 0.023158 0.023158
0.023258 0.023258 0.023258
0.023357 0.023357 0.023357
0.023457 0.023457 0.023457
0.023557 0.023557 0.023557
0.023657 0.023657 0.023657
0.023758 0.023758 0.023758
0.023858 0.023858 0.023858
0.023959 0.023959 0.023959
0.024059 0.024059 0.024059
0.024160 0.024160 0.024160
0.024261 0.024261 0.024261
0.024362 0.024362 0.024362
0.024464 0.024464 0.024464
0.024565 0.024565 0.024565
0.024667 0.024667 0.024667
0.024769 0.024769 0.024769
0.024871 0.024871 0.024871
0.024973 0.024973 0.024973
0.025075 0.025075 0.025075
0.025177 0.025177 0.025177
0.025280 0.025280 0.025280
0.025382 0.025382 0.025382
0.025485 0.025485 0.025485
0.025588 0.025588 0.025588
0.025691 0.025691 0.025691
0.025795 0.025795 0.025795
0.025898 0.025898 0.025898
0.026002 0.026002 0.026002
0.026105 0.026105 0.026105
0.026209 0.026209 0.026209
0.026313 0.026313 0.026313
0.026417 0.026417 0.026417
0.026522 0.026522 0.026522
0.026626 0.026626 0.026626
0.026731 0.026731 0.026731
0.026836 0.026836 0.026836
0.026940 0.026940 0.026940
0.027046 0.027046 0.027046
0.027151 0.027151 0.027151
0.027256 0.027256 0.027256
0.027362 0.027362 0.027362
0.027467 0.027467 0.027467
0.027573 0.027573 0.027573
0.027679 0.027679 0.027679
0.027785 0.027785 0.027785
0.027891 0.027891 0.027891
0.027998 0.027998 0.027998
0.028104 0.028104 0.028104
0.028211 0.028211 0.028211
0.028318 0.028318 0.028318
0.028424 0.028424 0.028424
0.028532 0.028532 0.028532
0.028639 0.028639 0.028639
0.028746 0.028746 0.028746
0.028854 0.028854 0.028854
0.028961 0.028961 0.028961
0.029069 0.029069 0.029069
0.029177 0.029177 0.029177
0.029285 0.029285 0.029285
0.029393 0.029393 0.029393
0.029502 0.029502 0.029502
0.029610 0.029610 0.029610
0.029719 0.029719 0.029719
0.029828 0.029828 0.029828
0.029937 0.029937 0.029937
0.030046 0.030046 0.030046
0.030155 0.030155 0.030155
0.030264 0.030264 0.030264
0.030374 0.030374 0.030374
0.030484 0.030484 0.030484
0.030593 0.030593 0.030593
0.030703 0.030703 0.030703
0.030813 0.030813 0.030813
0.030924 0.030924 0.030924
0.031034 0.031034 0.031034
0.031144 0.031144 0.031144
0.031255 0.031255 0.031255
0.031366 0.031366 0.031366
0.031477 0.031477 0.031477
0.031588 0.031588 0.031588
0.031699 0.031699 0.031699
0.031810 0.031810 0.031810
0.031922 0.031922 0.031922
0.032034 0.032034 0.032034
0.032145 0.032145 0.032145
0.032257 0.032257 0.032257
0.032369 0.032369 0.032369
0.032481 0.032481 0.032481
0.032594 0.032594 0.032594
0.032706 0.032706 0.032706
0.032819 0.032819 0.032819
0.032932 0.032932 0.032932
0.033044 0.033044 0.033044
0.033157 0.033157 0.033157
0.033270 0.033270 0.033270
0.033382 0.033382 0.033382
0.033494 0.033494 0.033494
0.033607 0.033607 0.033607
0.033719 0.033719 0.033719
0.033832 0.033832 0.033832
0.033944 0.033944 0.033944
0.034057 0.034057 0.034057
0.034170 0.034170 0.034170
0.034283 0.034283 0.034283
0.034396 0.034396 0.034396
0.034510 0.034510 0.034510
0.034623 0.034623 0.034623
0.034737 0.034737 0.034737
0.034850 0.034850 0.034850
0.034964 0.034964 0.034964
0.035078 0.035078 0.035078
0.035192 0.035192 0.035192
0.035307 0.035307 0.035307
0.035421 0.035421 0.035421
0.035535 0.035535 0.035535
0.035650 0.035650 0.035650
0.035765 0.035765 0.035765
0.035880 0.035880 0.035880
0.035995 0.035995 0.035995
0.036110 0.036110 0.036110
0.036225 0.036225 0.036225
0.036341 0.036341 0.036341
0.036456 0.036456 0.036456
0.036572 0.036572 0.036572
0.036688 0.036688 0.036688
0.036803 0.036803 0.036803
0.036920 0.036920 0.036920
0.037036 0.037036 0.037036
0.037152 0.037152 0.037152
0.037268 0.037268 0.037268
0.037385 0.037385 0.037385
0.037502 0.037502 0.037502
0.037619 0.037619 0.037619
0.037735 0.037735 0.037735
0.037853 0.037853 0.037853
0.037970 0.037970 0.037970
0.038087 0.038087 0.038087
0.038205 0.038205 0.038205
0.038322 0.038322 0.038322
0.038440 0.038440 0.038440
0.038558 0.038558 0.038558
0.038676 0.038676 0.038676
0.038794 0.038794 0.038794
0.038912 0.038912 0.038912
0.039030 0.039030 0.039030
0.039149 0.039149 0.039149
0.039267 0.039267 0.039267
0.039386 0.039386 0.039386
0.039505 0.039505 0.039505
0.039624 0.039624 0.039624
0.039743 0.039743 0.039743
0.039862 0.039862 0.039862
0.039982 0.039982 0.039982
0.040101 0.040101 0.040101
0.040221 0.040221 0.040221
0.040340 0.040340 0.040340
0.040460 0.040460 0.040460
0.040580 0.040580 0.040580
0.040700 0.040700 0.040700
0.040820 0.040820 0.040820
0.040941 0.040941 0.040941
0.041061 0.041061 0.041061
0.041182 0.041182 0.041182
0.041303 0.041303 0.041303
0.041423 0.041423 0.041423
0.041544 0.041544 0.041544
0.041665 0.041665 0.041665
0.041787 0.041787 0.041787
0.041908 0.041908 0.041908
0.042029 0.042029 0.042029
0.042151 0.042151 0.042151
0.042273 0.042273 0.042273
0.042395 0.042395 0.042395
0.042517 0.042517 0.042517
0.042639 0.042639 0.042639
0.042761 0.042761 0.042761
0.042883 0.042883 0.042883
0.043006 0.043006 0.043006
0.043128 0.043128 0.043128
0.043251 0.043251 0.043251
0.043374 0.043374 0.043374
0.043497 0.043497 0.043497
0.043620 0.043620 0.043620
0.043743 0.043743 0.043743
0.043866 0.043866 0.043866
0.043990 0.043990 0.043990
0.044113 0.044113 0.044113
0.044237 0.044237 0.044237
0.044361 0.044361 0.044361
0.044484 0.044484 0.044484
0.044608 0.044608 0.044608
0.044733 0.044733 0.044733
0.044857 0.044857 0.044857
0.044981 0.044981 0.044981
0.045106 0.045106 0.045106
0.045230 0.045230 0.045230
0.045355 0.045355 0.045355
0.045480 0.045480 0.045480
0.045605 0.045605 0.045605
0.045730 0.045730 0.045730
0.045855 0.045855 0.045855
0.045981 0.045981 0.045981
0.046106 0.046106 0.046106
0.046232 0.046232 0.046232
0.046358 0.046358 0.046358
0.046483 0.046483 0.046483
0.046609 0.046609 0.046609
0.046735 0.046735 0.046735
0.046862 0.046862 0.046862
0.046988 0.046988 0.046988
0.047114 0.047114 0.047114
0.047241 0.047241 0.047241
0.047368 0.047368 0.047368
0.047494 0.047494 0.047494
0.047621 0.047621 0.047621
0.047748 0.047748 0.047748
0.047876 0.047876 0.047876
0.048003 0.048003 0.048003
0.048130 0.048130 0.048130
0.048258 0.048258 0.048258
0.048385 0.048385 0.048385
0.048513 0.048513 0.048513
0.048641 0.048641 0.048641
0.048769 0.048769 0.048769
0.048897 0.048897 0.048897
0.049025 0.049025 0.049025
0.049154 0.049154 0.049154
0.049282 0.049282 0.049282
0.049411 0.049411 0.049411
0.049539 0.049539 0.049539
0.049668 0.049668 0.049668
0.049797 0.049797 0.049797
0.049926 0.049926 0.049926
0.050055 0.050055 0.050055
0.050184 0.050184 0.050184
0.050314 0.050314 0.050314
0.050443 0.050443 0.050443
0.050573 0.050573 0.050573
0.050703 0.050703 0.050703
0.050833 0.050833 0.050833
0.050962 0.050962 0.050962
0.051093 0.051093 0.051093
0.051223 0.051223 0.051223
0.051353 0.051353 0.051353
0.051484 0.051484 0.051484
0.051614 0.051614 0.051614
0.051745 0.051745 0.051745
0.051876 0.051876 0.051876
0.052006 0.052006 0.052006
0.052137 0.052137 0.052137
0.052269 0.052269 0.052269
0.052400 0.052400 0.052400
0.052531 0.052531 0.052531
0.052663 0.052663 0.052663
0.052794 0.052794 0.052794
0.052926 0.052926 0.052926
0.053058 0.053058 0.053058
0.053190 0.053190 0.053190
0.053322 0.053322 0.053322
0.053454 0.053454 0.053454
0.053586 0.053586 0.053586
0.053719 0.053719 0.053719
0.053851 0.053851 0.053851
0.053984 0.053984 0.053984
0.054117 0.054117 0.054117
0.054249 0.054249 0.054249
0.054382 0.054382 0.054382
0.054515 0.054515 0.054515
0.054649 0.054649 0.054649
0.054782 0.054782 0.054782
0.054915 0.054915 0.054915
0.055049 0.055049 0.055049
0.055183 0.055183 0.055183
0.055316 0.055316 0.055316
0.055450 0.055450 0.055450
0.055584 0.055584 0.055584
0.055718 0.055718 0.055718
0.055853 0.055853 0.055853
0.055987 0.055987 0.055987
0.056121 0.056121 0.056121
0.056256 0.056256 0.056256
0.056391 0.056391 0.056391
0.056525 0.056525 0.056525
0.056660 0.056660 0.056660
0.056795 0.056795 0.056795
0.056930 0.056930 0.056930
0.057066 0.057066 0.057066
0.057201 0.057201 0.057201
0.057337 0.057337 0.057337
0.057472 0.057472 0.057472
0.057608 0.057608 0.057608
0.057744 0.057744 0.057744
0.057880 0.057880 0.057880
0.058016 0.058016 0.058016
0.058152 0.058152 0.058152
0.058288 0.058288 0.058288
0.058424 0.058424 0.058424
0.058561 0.058561 0.058561
0.058697 0.058697 0.058697
0.058834 0.058834 0.058834
0.058971 0.058971 0.058971
0.059108 0.059108 0.059108
0.059245 0.059245 0.059245
0.059382 0.059382 0.059382
0.059519 0.059519 0.059519
0.059657 0.059657 0.059657
0.059794 0.059794 0.059794
0.059932 0.059932 0.059932
0.060069 0.060069 0.060069
0.060207 0.060207 0.060207
0.060345 0.060345 0.060345
0.060483 0.060483 0.060483
0.060621 0.060621 0.060621
0.060760 0.060760 0.060760
0.060898 0.060898 0.060898
0.061036 0.061036 0.061036
0.061175 0.061175 0.061175
0.061314 0.061314 0.061314
0.061452 0.061452 0.061452
0.061591 0.061591 0.061591
0.061730 0.061730 0.061730
0.061870 0.061870 0.061870
0.062009 0.062009 0.062009
0.062148 0.062148 0.062148
0.062288 0.062288 0.062288
0.062427 0.062427 0.062427
0.062567 0.062567 0.062567
0.062707 0.062707 0.062707
0.062847 0.062847 0.062847
0.062987 0.062987 0.062987
0.063127 0.063127 0.063127
0.063267 0.063267 0.063267
0.063407 0.063407 0.063407
0.063548 0.063548 0.063548
0.063688 0.063688 0.063688
0.063829 0.063829 0.063829
0.063970 0.063970 0.063970
0.064111 0.064111 0.064111
0.064252 0.064252 0.064252
0.064393 0.064393 0.064393
0.064534 0.064534 0.064534
0.064675 0.064675 0.064675
0.064813 0.064813 0.064813
0.064940 0.064940 0.064940
0.065067 0.065067 0.065067
0.065194 0.065194 0.065194
0.065321 0.065321 0.065321
0.065448 0.065448 0.065448
0.065575 0.065575 0.065575
0.065702 0.065702 0.065702
0.065830 0.065830 0.065830
0.065957 0.065957 0.065957
0.066085 0.066085 0.066085
0.066212 0.066212 0.066212
0.066340 0.066340 0.066340
0.066467 0.066467 0.066467
0.066595 0.066595 0.066595
0.066723 0.066723 0.066723
0.066851 0.066851 0.066851
0.066978 0.066978 0.066978
0.067106 0.067106 0.067106
0.067234 0.067234 0.067234
0.067363 0.067363 0.067363
0.067491 0.067491 0.067491
0.067619 0.067619 0.067619
0.067747 0.067747 0.067747
0.067876 0.067876 0.067876
0.068004 0.068004 0.068004
0.068133 0.068133 0.068133
0.068261 0.068261 0.068261
0.068390 0.068390 0.068390
0.068519 0.068519 0.068519
0.068647 0.068647 0.068647
0.068776 0.068776 0.068776
0.068905 0.068905 0.068905
0.069034 0.069034 0.069034
0.069163 0.069163 0.069163
0.069292 0.069292 0.069292
0.069422 0.069422 0.069422
0.069551 0.069551 0.069551
0.069680 0.069680 0.069680
0.069809 0.069809 0.069809
0.069939 0.069939 0.069939
0.070068 0.070068 0.070068
0.070198 0.070198 0.070198
0.070328 0.070328 0.070328
0.070457 0.070457 0.070457
0.070587 0.070587 0.070587
0.070717 0.070717 0.070717
0.070847 0.070847 0.070847
0.070977 0.070977 0.070977
0.071107 0.071107 0.071107
0.071237 0.071237 0.071237
0.071367 0.071367 0.071367
0.071497 0.071497 0.071497
0.071628 0.071628 0.071628
0.071758 0.071758 0.071758
0.071889 0.071889 0.071889
0.072019 0.072019 0.072019
0.072150 0.072150 0.072150
0.072280 0.072280 0.072280
0.072411 0.072411 0.072411
0.072542 0.072542 0.072542
0.072673 0.072673 0.072673
0.072803 0.072803 0.072803
0.072934 0.072934 0.072934
0.073065 0.073065 0.073065
0.073196 0.073196 0.073196
0.073328 0.073328 0.073328
0.073459 0.073459 0.073459
0.073590 0.073590 0.073590
0.073721 0.073721 0.073721
0.073853 0.073853 0.073853
0.073984 0.073984 0.073984
0.074116 0.074116 0.074116
0.074248 0.074248 0.074248
0.074379 0.074379 0.074379
0.074511 0.074511 0.074511
0.074643 0.074643 0.074643
0.074775 0.074775 0.074775
0.074906 0.074906 0.074906
0.075038 0.075038 0.075038
0.075171 0.075171 0.075171
0.075303 0.075303 0.075303
0.075435 0.075435 0.075435
0.075567 0.075567 0.075567
0.075699 0.075699 0.075699
0.075832 0.075832 0.075832
0.075964 0.075964 0.075964
0.076097 0.076097 0.076097
0.076229 0.076229 0.076229
0.076362 0.076362 0.076362
0.076495 0.076495 0.076495
0.076627 0.076627 0.076627
0.076760 0.076760 0.076760
0.076893 0.076893 0.076893
0.077026 0.077026 0.077026
0.077159 0.077159 0.077159
0.077292 0.077292 0.077292
0.077425 0.077425 0.077425
0.077558 0.077558 0.077558
0.077692 0.077692 0.077692
0.077825 0.077825 0.077825
0.077958 0.077958 0.077958
0.078092 0.078092 0.078092
0.078225 0.078225 0.078225
0.078359 0.078359 0.078359
0.078493 0.078493 0.078493
0.078626 0.078626 0.078626
0.078760 0.078760 0.078760
0.078894 0.078894 0.078894
0.079028 0.079028 0.079028
0.079162 0.079162 0.079162
0.079296 0.079296 0.079296
0.079430 0.079430 0.079430
0.079564 0.079564 0.079564
0.079698 0.079698 0.079698
0.079832 0.079832 0.079832
0.079967 0.079967 0.079967
0.080101 0.080101 0.080101
0.080236 0.080236 0.080236
0.080370 0.080370 0.080370
0.080505 0.080505 0.080505
0.080639 0.080639 0.080639
0.080774 0.080774 0.080774
0.080909 0.080909 0.080909
0.081044 0.081044 0.081044
0.081178 0.081178 0.081178
0.081313 0.081313 0.081313
0.081448 0.081448 0.081448
0.081583 0.081583 0.081583
0.081719 0.081719 0.081719
0.081854 0.081854 0.081854
0.081989 0.081989 0.081989
0.082124 0.082124 0.082124
0.082260 0.082260 0.082260
0.082395 0.082395 0.082395
0.082531 0.082531 0.082531
0.082666 0.082666 0.082666
0.082802 0.082802 0.082802
0.082938 0.082938 0.082938
0.083073 0.083073 0.083073
0.083209 0.083209 0.083209
0.083345 0.083345 0.083345
0.083481 0.083481 0.083481
0.083617 0.083617 0.083617
0.083753 0.083753 0.083753
0.083889 0.083889 0.083889
0.084025 0.084025 0.084025
0.084161 0.084161 0.084161
0.084298 0.084298 0.084298
0.084434 0.084434 0.084434
0.084571 0.084571 0.084571
0.084707 0.084707 0.084707
0.084844 0.084844 0.084844
0.084980 0.084980 0.084980
0.085117 0.085117 0.085117
0.085254 0.085254 0.085254
0.085390 0.085390 0.085390
0.085527 0.085527 0.085527
0.085664 0.085664 0.085664
0.085801 0.085801 0.085801
0.085938 0.085938 0.085938
0.086075 0.086075 0.086075
0.086212 0.086212 0.086212
0.086350 0.086350 0.086350
0.086487 0.086487 0.086487
0.086624 0.086624 0.086624
0.086762 0.086762 0.086762
0.086899 0.086899 0.086899
0.087036 0.087036 0.087036
0.087174 0.087174 0.087174
0.087312 0.087312 0.087312
0.087449 0.087449 0.087449
0.087587 0.087587 0.087587
0.087725 0.087725 0.087725
0.087863 0.087863 0.087863
0.088001 0.088001 0.088001
0.088139 0.088139 0.088139
0.088277 0.088277 0.088277
0.088415 0.088415 0.088415
