config/curves/Ilford_MGFB_4.cube
# DiVERE Density Curve 1D LUT
LUT_1D_SIZE 65536
DOMAIN_MIN 0.0 0.0 0.0
DOMAIN_MAX 1.0 1.0 1.0

0.008132 0.008132 0.008132
0.008132 0.008132 0.008132
0.008132 0.008132 0.008132
0.008132 0.008132 0.008132
0.008132 0.008132 0.008132
0.008132 0.008132 0.008132
0.008132 0.008132 0.008132
0.008132 0.008132 0.008132
0.008132 0.008132 0.008132
0.008132 0.008132 0.008132
0.008132 0.008132 0.008132
0.008132 0.008132 0.008132
0.008132 0.008132 0.008132
0.008132 0.008132 0.008132
0.008132 0.008132 0.008132
0.008132 0.008132 0.008132
0.008132 0.008132 0.008132
0.008132 0.008132 0.008132
0.008132 0.008132 0.008132
0.008132 0.008132 0.008132
0.008132 0.008132 0.008132
0.008132 0.008132 0.008132
0.008132 0.008132 0.008132
0.008132 0.008132 0.008132
0.008132 0.008132 0.008132
0.008132 0.008132 0.008132
0.008132 0.008132 0.008132
0.008132 0.008132 0.008132
0.008132 0.008132 0.008132
0.008132 0.008132 0.008132
0.008132 0.008132 0.008132
0.008132 0.008132 0.008132
0.008132 0.008132 0.008132
0.008132 0.008132 0.008132
0.008132 0.008132 0.008132
0.008132 0.008132 0.008132
0.008132 0.008132 0.008132
0.008131 0.008131 0.008131
0.008111 0.008111 0.008111
0.008092 0.008092 0.008092
0.008072 0.008072 0.008072
0.008054 0.008054 0.008054
0.008036 0.008036 0.008036
0.008018 0.008018 0.008018
0.008001 0.008001 0.008001
0.007984 0.007984 0.007984
0.007968 0.007968 0.007968
0.007952 0.007952 0.007952
0.007936 0.007936 0.007936
0.007921 0.007921 0.007921
0.007906 0.007906 0.007906
0.007892 0.007892 0.007892
0.007877 0.007877 0.007877
0.007863 0.007863 0.007863
0.007850 0.007850 0.007850
0.007836 0.007836 0.007836
0.007823 0.007823 0.007823
0.007810 0.007810 0.007810
0.007797 0.007797 0.007797
0.007785 0.007785 0.007785
0.007773 0.007773 0.007773
0.007761 0.007761 0.007761
0.007749 0.007749 0.007749
0.007738 0.007738 0.007738
0.007726 0.007726 0.007726
0.007715 0.007715 0.007715
0.007704 0.007704 0.007704
0.007693 0.007693 0.007693
0.007683 0.007683 0.007683
0.007672 0.007672 0.007672
0.007662 0.007662 0.007662
0.007652 0.007652 0.007652
0.007642 0.007642 0.007642
0.007632 0.007632 0.007632
0.007622 0.007622 0.007622
0.007613 0.007613 0.007613
0.007603 0.007603 0.007603
0.007594 0.007594 0.007594
0.007585 0.007585 0.007585
0.007576 0.007576 0.007576
0.007567 0.007567 0.007567
0.007558 0.007558 0.007558
0.007550 0.007550 0.007550
0.007541 0.007541 0.007541
0.007533 0.007533 0.007533
0.007524 0.007524 0.007524
0.007516 0.007516 0.007516
0.007508 0.007508 0.007508
0.007500 0.007500 0.007500
0.007492 0.007492 0.007492
0.007484 0.007484 0.007484
0.007477 0.007477 0.007477
0.007469 0.007469 0.007469
0.007461 0.007461 0.007461
0.007454 0.007454 0.007454
0.007447 0.007447 0.007447
0.007439 0.007439 0.007439
0.007432 0.007432 0.007432
0.007425 0.007425 0.007425
0.007418 0.007418 0.007418
0.007411 0.007411 0.007411
0.007404 0.007404 0.007404
0.007397 0.007397 0.007397
0.007391 0.007391 0.007391
0.007384 0.007384 0.007384
0.007377 0.007377 0.007377
0.007371 0.007371 0.007371
0.007364 0.007364 0.007364
0.007358 0.007358 0.007358
0.007352 0.007352 0.007352
0.007345 0.007345 0.007345
0.007339 0.007339 0.007339
0.007333 0.007333 0.007333
0.007327 0.007327 0.007327
0.007321 0.007321 0.007321
0.007315 0.007315 0.007315
0.007309 0.007309 0.007309
0.007303 0.007303 0.007303
0.007298 0.007298 0.007298
0.007292 0.007292 0.007292
0.007286 0.007286 0.007286
0.007280 0.007280 0.007280
0.007275 0.007275 0.007275
0.007269 0.007269 0.007269
0.007264 0.007264 0.007264
0.007258 0.007258 0.007258
0.007253 0.007253 0.007253
0.007248 0.007248 0.007248
0.007242 0.007242 0.007242
0.007237 0.007237 0.007237
0.007232 0.007232 0.007232
0.007227 0.007227 0.007227
0.007223 0.007223 0.007223
0.007231 0.007231 0.007231
0.007238 0.007238 0.007238
0.007245 0.007245 0.007245
0.007253 0.007253 0.007253
0.007260 0.007260 0.007260
0.007267 0.007267 0.007267
0.007274 0.007274 0.007274
0.007281 0.007281 0.007281
0.007288 0.007288 0.007288
0.007295 0.007295 0.007295
0.007302 0.007302 0.007302
0.007309 0.007309 0.007309
0.007316 0.007316 0.007316
0.007323 0.007323 0.007323
0.007330 0.007330 0.007330
0.007337 0.007337 0.007337
0.007343 0.007343 0.007343
0.007350 0.007350 0.007350
0.007357 0.007357 0.007357
0.007363 0.007363 0.007363
0.007370 0.007370 0.007370
0.007377 0.007377 0.007377
0.007383 0.007383 0.007383
0.007390 0.007390 0.007390
0.007396 0.007396 0.007396
0.007402 0.007402 0.007402
0.007409 0.007409 0.007409
0.007415 0.007415 0.007415
0.007421 0.007421 0.007421
0.007428 0.007428 0.007428
0.007434 0.007434 0.007434
0.007440 0.007440 0.007440
0.007446 0.007446 0.007446
0.007452 0.007452 0.007452
0.007459 0.007459 0.007459
0.007465 0.007465 0.007465
0.007471 0.007471 0.007471
0.007477 0.007477 0.007477
0.007483 0.007483 0.007483
0.007489 0.007489 0.007489
0.007495 0.007495 0.007495
0.007500 0.007500 0.007500
0.007506 0.007506 0.007506
0.007512 0.007512 0.007512
0.007518 0.007518 0.007518
0.007524 0.007524 0.007524
0.007529 0.007529 0.007529
0.007535 0.007535 0.007535
0.007541 0.007541 0.007541
0.007547 0.007547 0.007547
0.007552 0.007552 0.007552
0.007558 0.007558 0.007558
0.007563 0.007563 0.007563
0.007569 0.007569 0.007569
0.007575 0.007575 0.007575
0.007580 0.007580 0.007580
0.007586 0.007586 0.007586
0.007591 0.007591 0.007591
0.007596 0.007596 0.007596
0.007602 0.007602 0.007602
0.007607 0.007607 0.007607
0.007613 0.007613 0.007613
0.007618 0.007618 0.007618
0.007623 0.007623 0.007623
0.007629 0.007629 0.007629
0.007634 0.007634 0.007634
0.007639 0.007639 0.007639
0.007644 0.007644 0.007644
0.007649 0.007649 0.007649
0.007655 0.007655 0.007655
0.007660 0.007660 0.007660
0.007665 0.007665 0.007665
0.007670 0.007670 0.007670
0.007675 0.007675 0.007675
0.007680 0.007680 0.007680
0.007685 0.007685 0.007685
0.007690 0.007690 0.007690
0.007695 0.007695 0.007695
0.007700 0.007700 0.007700
0.007705 0.007705 0.007705
0.007710 0.007710 0.007710
0.007715 0.007715 0.007715
0.007720 0.007720 0.007720
0.007725 0.007725 0.007725
0.007730 0.007730 0.007730
0.007735 0.007735 0.007735
0.007739 0.007739 0.007739
0.007744 0.007744 0.007744
0.007749 0.007749 0.007749
0.007754 0.007754 0.007754
0.007759 0.007759 0.007759
0.007763 0.007763 0.007763
0.007768 0.007768 0.007768
0.007773 0.007773 0.007773
0.007777 0.007777 0.007777
0.007782 0.007782 0.007782
0.007787 0.007787 0.007787
0.007791 0.007791 0.007791
0.007796 0.007796 0.007796
0.007801 0.007801 0.007801
0.007805 0.007805 0.007805
0.007810 0.007810 0.007810
0.007814 0.007814 0.007814
0.007819 0.007819 0.007819
0.007823 0.007823 0.007823
0.007828 0.007828 0.007828
0.007832 0.007832 0.007832
0.007837 0.007837 0.007837
0.007841 0.007841 0.007841
0.007846 0.007846 0.007846
0.007850 0.007850 0.007850
0.007854 0.007854 0.007854
0.007859 0.007859 0.007859
0.007863 0.007863 0.007863
0.007868 0.007868 0.007868
0.007872 0.007872 0.007872
0.007876 0.007876 0.007876
0.007880 0.007880 0.007880
0.007885 0.007885 0.007885
0.007889 0.007889 0.007889
0.007893 0.007893 0.007893
0.007898 0.007898 0.007898
0.007902 0.007902 0.007902
0.007906 0.007906 0.007906
0.007910 0.007910 0.007910
0.007914 0.007914 0.007914
0.007919 0.007919 0.007919
0.007923 0.007923 0.007923
0.007927 0.007927 0.007927
0.007931 0.007931 0.007931
0.007935 0.007935 0.007935
0.007939 0.007939 0.007939
0.007943 0.007943 0.007943
0.007947 0.007947 0.007947
0.007952 0.007952 0.007952
0.007956 0.007956 0.007956
0.007960 0.007960 0.007960
0.007964 0.007964 0.007964
0.007968 0.007968 0.007968
0.007972 0.007972 0.007972
0.007976 0.007976 0.007976
0.007980 0.007980 0.007980
0.007984 0.007984 0.007984
0.007988 0.007988 0.007988
0.007991 0.007991 0.007991
0.007995 0.007995 0.007995
0.007999 0.007999 0.007999
0.008003 0.008003 0.008003
0.008007 0.008007 0.008007
0.008011 0.008011 0.008011
0.008015 0.008015 0.008015
0.008019 0.008019 0.008019
0.008023 0.008023 0.008023
0.008026 0.008026 0.008026
0.008030 0.008030 0.008030
0.008034 0.008034 0.008034
0.008038 0.008038 0.008038
0.008042 0.008042 0.008042
0.008045 0.008045 0.008045
0.008049 0.008049 0.008049
0.008053 0.008053 0.008053
0.008057 0.008057 0.008057
0.008060 0.008060 0.008060
0.008064 0.008064 0.008064
0.008068 0.008068 0.008068
0.008072 0.008072 0.008072
0.008075 0.008075 0.008075
0.008079 0.008079 0.008079
0.008083 0.008083 0.008083
0.008086 0.008086 0.008086
0.008090 0.008090 0.008090
0.008094 0.008094 0.008094
0.008097 0.008097 0.008097
0.008101 0.008101 0.008101
0.008104 0.008104 0.008104
0.008108 0.008108 0.008108
0.008112 0.008112 0.008112
0.008115 0.008115 0.008115
0.008119 0.008119 0.008119
0.008122 0.008122 0.008122
0.008126 0.008126 0.008126
0.008129 0.008129 0.008129
0.008133 0.008133 0.008133
0.008136 0.008136 0.008136
0.008140 0.008140 0.008140
0.008143 0.008143 0.008143
0.008147 0.008147 0.008147
0.008150 0.008150 0.008150
0.008154 0.008154 0.008154
0.008157 0.008157 0.008157
0.008161 0.008161 0.008161
0.008164 0.008164 0.008164
0.008168 0.008168 0.008168
0.008171 0.008171 0.008171
0.008174 0.008174 0.008174
0.008178 0.008178 0.008178
0.008181 0.008181 0.008181
0.008185 0.008185 0.008185
0.008188 0.008188 0.008188
0.008191 0.008191 0.008191
0.008195 0.008195 0.008195
0.008198 0.008198 0.008198
0.008201 0.008201 0.008201
0.008205 0.008205 0.008205
0.008208 0.008208 0.008208
0.008211 0.008211 0.008211
0.008215 0.008215 0.008215
0.008218 0.008218 0.008218
0.008221 0.008221 0.008221
0.008225 0.008225 0.008225
0.008228 0.008228 0.008228
0.008231 0.008231 0.008231
0.008234 0.008234 0.008234
0.008238 0.008238 0.008238
0.008241 0.008241 0.008241
0.008244 0.008244 0.008244
0.008247 0.008247 0.008247
0.008251 0.008251 0.008251
0.008254 0.008254 0.008254
0.008257 0.008257 0.008257
0.008260 0.008260 0.008260
0.008263 0.008263 0.008263
0.008267 0.008267 0.008267
0.008289 0.008289 0.008289
0.008312 0.008312 0.008312
0.008335 0.008335 0.008335
0.008358 0.008358 0.008358
0.008382 0.008382 0.008382
0.008405 0.008405 0.008405
0.008428 0.008428 0.008428
0.008451 0.008451 0.008451
0.008475 0.008475 0.008475
0.008498 0.008498 0.008498
0.008521 0.008521 0.008521
0.008545 0.008545 0.008545
0.008568 0.008568 0.008568
0.008591 0.008591 0.008591
0.008614 0.008614 0.008614
0.008638 0.008638 0.008638
0.008661 0.008661 0.008661
0.008684 0.008684 0.008684
0.008707 0.008707 0.008707
0.008731 0.008731 0.008731
0.008754 0.008754 0.008754
0.008777 0.008777 0.008777
0.008800 0.008800 0.008800
0.008824 0.008824 0.008824
0.008847 0.008847 0.008847
0.008870 0.008870 0.008870
0.008894 0.008894 0.008894
0.008917 0.008917 0.008917
0.008940 0.008940 0.008940
0.008963 0.008963 0.008963
0.008987 0.008987 0.008987
0.009010 0.009010 0.009010
0.009033 0.009033 0.009033
0.009056 0.009056 0.009056
0.009080 0.009080 0.009080
0.009103 0.009103 0.009103
0.009126 0.009126 0.009126
0.009150 0.009150 0.009150
0.009173 0.009173 0.009173
0.009196 0.009196 0.009196
0.009219 0.009219 0.009219
0.009243 0.009243 0.009243
0.009266 0.009266 0.009266
0.009289 0.009289 0.009289
0.009312 0.009312 0.009312
0.009336 0.009336 0.009336
0.009359 0.009359 0.009359
0.009382 0.009382 0.009382
0.009405 0.009405 0.009405
0.009429 0.009429 0.009429
0.009452 0.009452 0.009452
0.009475 0.009475 0.009475
0.009499 0.009499 0.009499
0.009522 0.009522 0.009522
0.009545 0.009545 0.009545
0.009568 0.009568 0.009568
0.009592 0.009592 0.009592
0.009615 0.009615 0.009615
0.009638 0.009638 0.009638
0.009661 0.009661 0.009661
0.009685 0.009685 0.009685
0.009708 0.009708 0.009708
0.009731 0.009731 0.009731
0.009755 0.009755 0.009755
0.009778 0.009778 0.009778
0.009801 0.009801 0.009801
0.009824 0.009824 0.009824
0.009848 0.009848 0.009848
0.009871 0.009871 0.009871
0.009894 0.009894 0.009894
0.009917 0.009917 0.009917
0.009941 0.009941 0.009941
0.009964 0.009964 0.009964
0.009987 0.009987 0.009987
0.010010 0.010010 0.010010
0.010034 0.010034 0.010034
0.010057 0.010057 0.010057
0.010080 0.010080 0.010080
0.010104 0.010104 0.010104
0.010127 0.010127 0.010127
0.010150 0.010150 0.010150
0.010173 0.010173 0.010173
0.010197 0.010197 0.010197
0.010220 0.010220 0.010220
0.010243 0.010243 0.010243
0.010266 0.010266 0.010266
0.010290 0.010290 0.010290
0.010313 0.010313 0.010313
0.010336 0.010336 0.010336
0.010359 0.010359 0.010359
0.010383 0.010383 0.010383
0.010406 0.010406 0.010406
0.010429 0.010429 0.010429
0.010453 0.010453 0.010453
0.010476 0.010476 0.010476
0.010499 0.010499 0.010499
0.010522 0.010522 0.010522
0.010546 0.010546 0.010546
0.010569 0.010569 0.010569
0.010592 0.010592 0.010592
0.010615 0.010615 0.010615
0.010639 0.010639 0.010639
0.010662 0.010662 0.010662
0.010685 0.010685 0.010685
0.010708 0.010708 0.010708
0.010732 0.010732 0.010732
0.010755 0.010755 0.010755
0.010778 0.010778 0.010778
0.010802 0.010802 0.010802
0.010825 0.010825 0.010825
0.010848 0.010848 0.010848
0.010871 0.010871 0.010871
0.010895 0.010895 0.010895
0.010918 0.010918 0.010918
0.010941 0.010941 0.010941
0.010964 0.010964 0.010964
0.010988 0.010988 0.010988
0.011011 0.011011 0.011011
0.011034 0.011034 0.011034
0.011057 0.011057 0.011057
0.011081 0.011081 0.011081
0.011104 0.011104 0.011104
0.011127 0.011127 0.011127
0.011151 0.011151 0.011151
0.011174 0.011174 0.011174
0.011197 0.011197 0.011197
0.011220 0.011220 0.011220
0.011244 0.011244 0.011244
0.011267 0.011267 0.011267
0.011290 0.011290 0.011290
0.011313 0.011313 0.011313
0.011337 0.011337 0.011337
0.011360 0.011360 0.011360
0.011383 0.011383 0.011383
0.011406 0.011406 0.011406
0.011430 0.011430 0.011430
0.011453 0.011453 0.011453
0.011476 0.011476 0.011476
0.011500 0.011500 0.011500
0.011523 0.011523 0.011523
0.011546 0.011546 0.011546
0.011569 0.011569 0.011569
0.011593 0.011593 0.011593
0.011616 0.011616 0.011616
0.011639 0.011639 0.011639
0.011662 0.011662 0.011662
0.011686 0.011686 0.011686
0.011709 0.011709 0.011709
0.011732 0.011732 0.011732
0.011755 0.011755 0.011755
0.011779 0.011779 0.011779
0.011802 0.011802 0.011802
0.011825 0.011825 0.011825
0.011849 0.011849 0.011849
0.011872 0.011872 0.011872
0.011895 0.011895 0.011895
0.011918 0.011918 0.011918
0.011942 0.011942 0.011942
0.011965 0.011965 0.011965
0.011988 0.011988 0.011988
0.012011 0.012011 0.012011
0.012035 0.012035 0.012035
0.012058 0.012058 0.012058
0.012081 0.012081 0.012081
0.012104 0.012104 0.012104
0.012128 0.012128 0.012128
0.012151 0.012151 0.012151
0.012174 0.012174 0.012174
0.012198 0.012198 0.012198
0.012221 0.012221 0.012221
0.012244 0.012244 0.012244
0.012267 0.012267 0.012267
0.012291 0.012291 0.012291
0.012314 0.012314 0.012314
0.012337 0.012337 0.012337
0.012360 0.012360 0.012360
0.012384 0.012384 0.012384
0.012407 0.012407 0.012407
0.012430 0.012430 0.012430
0.012453 0.012453 0.012453
0.012477 0.012477 0.012477
0.012500 0.012500 0.012500
0.012523 0.012523 0.012523
0.012546 0.012546 0.012546
0.012570 0.012570 0.012570
0.012593 0.012593 0.012593
0.012616 0.012616 0.012616
0.012640 0.012640 0.012640
0.012663 0.012663 0.012663
0.012686 0.012686 0.012686
0.012709 0.012709 0.012709
0.012733 0.012733 0.012733
0.012756 0.012756 0.012756
0.012779 0.012779 0.012779
0.012802 0.012802 0.012802
0.012826 0.012826 0.012826
0.012849 0.012849 0.012849
0.012872 0.012872 0.012872
0.012895 0.012895 0.012895
0.012919 0.012919 0.012919
0.012942 0.012942 0.012942
0.012965 0.012965 0.012965
0.012989 0.012989 0.012989
0.013012 0.013012 0.013012
0.013035 0.013035 0.013035
0.013058 0.013058 0.013058
0.013082 0.013082 0.013082
0.013105 0.013105 0.013105
0.013128 0.013128 0.013128
0.013151 0.013151 0.013151
0.013175 0.013175 0.013175
0.013198 0.013198 0.013198
0.013221 0.013221 0.013221
0.013244 0.013244 0.013244
0.013268 0.013268 0.013268
0.013291 0.013291 0.013291
0.013314 0.013314 0.013314
0.013337 0.013337 0.013337
0.013361 0.013361 0.013361
0.013384 0.013384 0.013384
0.013407 0.013407 0.013407
0.013431 0.013431 0.013431
0.013454 0.013454 0.013454
0.013477 0.013477 0.013477
0.013500 0.013500 0.013500
0.013524 0.013524 0.013524
0.013547 0.013547 0.013547
0.013570 0.013570 0.013570
0.013593 0.013593 0.013593
0.013617 0.013617 0.013617
0.013640 0.013640 0.013640
0.013663 0.013663 0.013663
0.013686 0.013686 0.013686
0.013710 0.013710 0.013710
0.013733 0.013733 0.013733
0.013756 0.013756 0.013756
0.013780 0.013780 0.013780
0.013803 0.013803 0.013803
0.013826 0.013826 0.013826
0.013849 0.013849 0.013849
0.013873 0.013873 0.013873
0.013896 0.013896 0.013896
0.013919 0.013919 0.013919
0.013942 0.013942 0.013942
0.013966 0.013966 0.013966
0.013989 0.013989 0.013989
0.014012 0.014012 0.014012
0.014035 0.014035 0.014035
0.014059 0.014059 0.014059
0.014082 0.014082 0.014082
0.014105 0.014105 0.014105
0.014128 0.014128 0.014128
0.014152 0.014152 0.014152
0.014175 0.014175 0.014175
0.014198 0.014198 0.014198
0.014222 0.014222 0.014222
0.014245 0.014245 0.014245
0.014268 0.014268 0.014268
0.014291 0.014291 0.014291
0.014315 0.014315 0.014315
0.014338 0.014338 0.014338
0.014361 0.014361 0.014361
0.014384 0.014384 0.014384
0.014408 0.014408 0.014408
0.014431 0.014431 0.014431
0.014454 0.014454 0.014454
0.014477 0.014477 0.014477
0.014501 0.014501 0.014501
0.014524 0.014524 0.014524
0.014547 0.014547 0.014547
0.014570 0.014570 0.014570
0.014594 0.014594 0.014594
0.014617 0.014617 0.014617
0.014640 0.014640 0.014640
0.014664 0.014664 0.014664
0.014687 0.014687 0.014687
0.014710 0.014710 0.014710
0.014733 0.014733 0.014733
0.014757 0.014757 0.014757
0.014780 0.014780 0.014780
0.014803 0.014803 0.014803
0.014826 0.014826 0.014826
0.014850 0.014850 0.014850
0.014873 0.014873 0.014873
0.014896 0.014896 0.014896
0.014919 0.014919 0.014919
0.014943 0.014943 0.014943
0.014966 0.014966 0.014966
0.014989 0.014989 0.014989
0.015012 0.015012 0.015012
0.015036 0.015036 0.015036
0.015059 0.015059 0.015059
0.015082 0.015082 0.015082
0.015106 0.015106 0.015106
0.015129 0.015129 0.015129
0.015152 0.015152 0.015152
0.015175 0.015175 0.015175
0.015199 0.015199 0.015199
0.015222 0.015222 0.015222
0.015245 0.015245 0.015245
0.015268 0.015268 0.015268
0.015292 0.015292 0.015292
0.015315 0.015315 0.015315
0.015338 0.015338 0.015338
0.015361 0.015361 0.015361
0.015385 0.015385 0.015385
0.015408 0.015408 0.015408
0.015431 0.015431 0.015431
0.015454 0.015454 0.015454
0.015478 0.015478 0.015478
0.015501 0.015501 0.015501
0.015524 0.015524 0.015524
0.015548 0.015548 0.015548
0.015571 0.015571 0.015571
0.015594 0.015594 0.015594
0.015617 0.015617 0.015617
0.015641 0.015641 0.015641
0.015664 0.015664 0.015664
0.015687 0.015687 0.015687
0.015710 0.015710 0.015710
0.015734 0.015734 0.015734
0.015757 0.015757 0.015757
0.015780 0.015780 0.015780
0.015803 0.015803 0.015803
0.015827 0.015827 0.015827
0.015850 0.015850 0.015850
0.015873 0.015873 0.015873
0.015896 0.015896 0.015896
0.015920 0.015920 0.015920
0.015943 0.015943 0.015943
0.015966 0.015966 0.015966
0.015989 0.015989 0.015989
0.016013 0.016013 0.016013
0.016036 0.016036 0.016036
0.016059 0.016059 0.016059
0.016083 0.016083 0.016083
0.016106 0.016106 0.016106
0.016129 0.016129 0.016129
0.016152 0.016152 0.016152
0.016176 0.016176 0.016176
0.016199 0.016199 0.016199
0.016222 0.016222 0.016222
0.016245 0.016245 0.016245
0.016269 0.016269 0.016269
0.016292 0.016292 0.016292
0.016315 0.016315 0.016315
0.016338 0.016338 0.016338
0.016362 0.016362 0.016362
0.016385 0.016385 0.016385
0.016408 0.016408 0.016408
0.016431 0.016431 0.016431
0.016455 0.016455 0.016455
0.016478 0.016478 0.016478
0.016501 0.016501 0.016501
0.016525 0.016525 0.016525
0.016548 0.016548 0.016548
0.016571 0.016571 0.016571
0.016594 0.016594 0.016594
0.016618 0.016618 0.016618
0.016641 0.016641 0.016641
0.016664 0.016664 0.016664
0.016687 0.016687 0.016687
0.016711 0.016711 0.016711
0.016734 0.016734 0.016734
0.016757 0.016757 0.016757
0.016780 0.016780 0.016780
0.016804 0.016804 0.016804
0.016827 0.016827 0.016827
0.016850 0.016850 0.016850
0.016873 0.016873 0.016873
0.016897 0.016897 0.016897
0.016920 0.016920 0.016920
0.016943 0.016943 0.016943
0.016966 0.016966 0.016966
0.016990 0.016990 0.016990
0.017013 0.017013 0.017013
0.017036 0.017036 0.017036
0.017060 0.017060 0.017060
0.017083 0.017083 0.017083
0.017106 0.017106 0.017106
0.017129 0.017129 0.017129
0.017153 0.017153 0.017153
0.017176 0.017176 0.017176
0.017199 0.017199 0.017199
0.017222 0.017222 0.017222
0.017246 0.017246 0.017246
0.017269 0.017269 0.017269
0.017292 0.017292 0.017292
0.017315 0.017315 0.017315
0.017339 0.017339 0.017339
0.017362 0.017362 0.017362
0.017385 0.017385 0.017385
0.017408 0.017408 0.017408
0.017432 0.017432 0.017432
0.017455 0.017455 0.017455
0.017478 0.017478 0.017478
0.017501 0.017501 0.017501
0.017525 0.017525 0.017525
0.017548 0.017548 0.017548
0.017571 0.017571 0.017571
0.017595 0.017595 0.017595
0.017618 0.017618 0.017618
0.017641 0.017641 0.017641
0.017664 0.017664 0.017664
0.017688 0.017688 0.017688
0.017711 0.017711 0.017711
0.017734 0.017734 0.017734
0.017757 0.017757 0.017757
0.017781 0.017781 0.017781
0.017804 0.017804 0.017804
0.017827 0.017827 0.017827
0.017850 0.017850 0.017850
0.017889 0.017889 0.017889
0.017988 0.017988 0.017988
0.018088 0.018088 0.018088
0.018188 0.018188 0.018188
0.018288 0.018288 0.018288
0.018389 0.018389 0.018389
0.018490 0.018490 0.018490
0.018592 0.018592 0.018592
0.018694 0.018694 0.018694
0.018796 0.018796 0.018796
0.018899 0.018899 0.018899
0.019002 0.019002 0.019002
0.019106 0.019106 0.019106
0.019211 0.019211 0.019211
0.019315 0.019315 0.019315
0.019420 0.019420 0.019420
0.019526 0.019526 0.019526
0.019632 0.019632 0.019632
0.019738 0.019738 0.019738
0.019845 0.019845 0.019845
0.019952 0.019952 0.019952
0.020060 0.020060 0.020060
0.020168 0.020168 0.020168
0.020277 0.020277 0.020277
0.020386 0.020386 0.020386
0.020495 0.020495 0.020495
0.020605 0.020605 0.020605
0.020716 0.020716 0.020716
0.020827 0.020827 0.020827
0.020938 0.020938 0.020938
0.021050 0.021050 0.021050
0.021162 0.021162 0.021162
0.021275 0.021275 0.021275
0.021388 0.021388 0.021388
0.021501 0.021501 0.021501
0.021616 0.021616 0.021616
0.021730 0.021730 0.021730
0.021845 0.021845 0.021845
0.021961 0.021961 0.021961
0.022076 0.022076 0.022076
0.022193 0.022193 0.022193
0.022310 0.022310 0.022310
0.022427 0.022427 0.022427
0.022545 0.022545 0.022545
0.022663 0.022663 0.022663
0.022782 0.022782 0.022782
0.022901 0.022901 0.022901
0.023021 0.023021 0.023021
0.023141 0.023141 0.023141
0.023262 0.023262 0.023262
0.023383 0.023383 0.023383
0.023504 0.023504 0.023504
0.023626 0.023626 0.023626
0.023749 0.023749 0.023749
0.023872 0.023872 0.023872
0.023996 0.023996 0.023996
0.024120 0.024120 0.024120
0.024244 0.024244 0.024244
0.024369 0.024369 0.024369
0.024495 0.024495 0.024495
0.024621 0.024621 0.024621
0.024747 0.024747 0.024747
0.024874 0.024874 0.024874
0.025002 0.025002 0.025002
0.025130 0.025130 0.025130
0.025258 0.025258 0.025258
0.025387 0.025387 0.025387
0.025517 0.025517 0.025517
0.025647 0.025647 0.025647
0.025777 0.025777 0.025777
0.025908 0.025908 0.025908
0.026040 0.026040 0.026040
0.026172 0.026172 0.026172
0.026304 0.026304 0.026304
0.026438 0.026438 0.026438
0.026571 0.026571 0.026571
0.026705 0.026705 0.026705
0.026840 0.026840 0.026840
0.026975 0.026975 0.026975
0.027111 0.027111 0.027111
0.027247 0.027247 0.027247
0.027383 0.027383 0.027383
0.027521 0.027521 0.027521
0.027658 0.027658 0.027658
0.027797 0.027797 0.027797
0.027935 0.027935 0.027935
0.028075 0.028075 0.028075
0.028215 0.028215 0.028215
0.028355 0.028355 0.028355
0.028496 0.028496 0.028496
0.028637 0.028637 0.028637
0.028779 0.028779 0.028779
0.028922 0.028922 0.028922
0.029065 0.029065 0.029065
0.029209 0.029209 0.029209
0.029353 0.029353 0.029353
0.029497 0.029497 0.029497
0.029643 0.029643 0.029643
0.029788 0.029788 0.029788
0.029935 0.029935 0.029935
0.030082 0.030082 0.030082
0.030229 0.030229 0.030229
0.030377 0.030377 0.030377
0.030526 0.030526 0.030526
0.030675 0.030675 0.030675
0.030824 0.030824 0.030824
0.030975 0.030975 0.030975
0.031125 0.031125 0.031125
0.031277 0.031277 0.031277
0.031429 0.031429 0.031429
0.031581 0.031581 0.031581
0.031734 0.031734 0.031734
0.031888 0.031888 0.031888
0.032042 0.032042 0.032042
0.032196 0.032196 0.032196
0.032352 0.032352 0.032352
0.032508 0.032508 0.032508
