config/curves/Ilford_MGFB_00.cube
# DiVERE Density Curve 1D LUT
LUT_1D_SIZE 65536
DOMAIN_MIN 0.0 0.0 0.0
DOMAIN_MAX 1.0 1.0 1.0

0.008340 0.008340 0.008340
0.008340 0.008340 0.008340
0.008340 0.008340 0.008340
0.008340 0.008340 0.008340
0.008340 0.008340 0.008340
0.008340 0.008340 0.008340
0.008340 0.008340 0.008340
0.008340 0.008340 0.008340
0.008340 0.008340 0.008340
0.008340 0.008340 0.008340
0.008340 0.008340 0.008340
0.008340 0.008340 0.008340
0.008340 0.008340 0.008340
0.008340 0.008340 0.008340
0.008340 0.008340 0.008340
0.008340 0.008340 0.008340
0.008340 0.008340 0.008340
0.008340 0.008340 0.008340
0.008340 0.008340 0.008340
0.008340 0.008340 0.008340
0.008340 0.008340 0.008340
0.008340 0.008340 0.008340
0.008340 0.008340 0.008340
0.008340 0.008340 0.008340
0.008340 0.008340 0.008340
0.008340 0.008340 0.008340
0.008340 0.008340 0.008340
0.008340 0.008340 0.008340
0.008340 0.008340 0.008340
0.008340 0.008340 0.008340
0.008340 0.008340 0.008340
0.008340 0.008340 0.008340
0.008340 0.008340 0.008340
0.008340 0.008340 0.008340
0.008340 0.008340 0.008340
0.008340 0.008340 0.008340
0.008340 0.008340 0.008340
0.008380 0.008380 0.008380
0.008458 0.008458 0.008458
0.008535 0.008535 0.008535
0.008611 0.008611 0.008611
0.008685 0.008685 0.008685
0.008759 0.008759 0.008759
0.008831 0.008831 0.008831
0.008902 0.008902 0.008902
0.008972 0.008972 0.008972
0.009041 0.009041 0.009041
0.009110 0.009110 0.009110
0.009177 0.009177 0.009177
0.009243 0.009243 0.009243
0.009309 0.009309 0.009309
0.009373 0.009373 0.009373
0.009437 0.009437 0.009437
0.009500 0.009500 0.009500
0.009562 0.009562 0.009562
0.009624 0.009624 0.009624
0.009684 0.009684 0.009684
0.009744 0.009744 0.009744
0.009804 0.009804 0.009804
0.009862 0.009862 0.009862
0.009920 0.009920 0.009920
0.009978 0.009978 0.009978
0.010035 0.010035 0.010035
0.010091 0.010091 0.010091
0.010146 0.010146 0.010146
0.010202 0.010202 0.010202
0.010256 0.010256 0.010256
0.010310 0.010310 0.010310
0.010364 0.010364 0.010364
0.010417 0.010417 0.010417
0.010469 0.010469 0.010469
0.010521 0.010521 0.010521
0.010572 0.010572 0.010572
0.010624 0.010624 0.010624
0.010674 0.010674 0.010674
0.010724 0.010724 0.010724
0.010774 0.010774 0.010774
0.010823 0.010823 0.010823
0.010872 0.010872 0.010872
0.010921 0.010921 0.010921
0.010969 0.010969 0.010969
0.011016 0.011016 0.011016
0.011064 0.011064 0.011064
0.011111 0.011111 0.011111
0.011157 0.011157 0.011157
0.011203 0.011203 0.011203
0.011249 0.011249 0.011249
0.011295 0.011295 0.011295
0.011340 0.011340 0.011340
0.011385 0.011385 0.011385
0.011429 0.011429 0.011429
0.011473 0.011473 0.011473
0.011517 0.011517 0.011517
0.011561 0.011561 0.011561
0.011604 0.011604 0.011604
0.011647 0.011647 0.011647
0.011690 0.011690 0.011690
0.011732 0.011732 0.011732
0.011774 0.011774 0.011774
0.011816 0.011816 0.011816
0.011858 0.011858 0.011858
0.011899 0.011899 0.011899
0.011940 0.011940 0.011940
0.011981 0.011981 0.011981
0.012021 0.012021 0.012021
0.012061 0.012061 0.012061
0.012101 0.012101 0.012101
0.012141 0.012141 0.012141
0.012180 0.012180 0.012180
0.012220 0.012220 0.012220
0.012259 0.012259 0.012259
0.012298 0.012298 0.012298
0.012336 0.012336 0.012336
0.012374 0.012374 0.012374
0.012413 0.012413 0.012413
0.012451 0.012451 0.012451
0.012490 0.012490 0.012490
0.012590 0.012590 0.012590
0.012689 0.012689 0.012689
0.012789 0.012789 0.012789
0.012889 0.012889 0.012889
0.012988 0.012988 0.012988
0.013088 0.013088 0.013088
0.013187 0.013187 0.013187
0.013287 0.013287 0.013287
0.013386 0.013386 0.013386
0.013485 0.013485 0.013485
0.013585 0.013585 0.013585
0.013684 0.013684 0.013684
0.013783 0.013783 0.013783
0.013882 0.013882 0.013882
0.013981 0.013981 0.013981
0.014080 0.014080 0.014080
0.014179 0.014179 0.014179
0.014278 0.014278 0.014278
0.014377 0.014377 0.014377
0.014475 0.014475 0.014475
0.014574 0.014574 0.014574
0.014673 0.014673 0.014673
0.014771 0.014771 0.014771
0.014870 0.014870 0.014870
0.014968 0.014968 0.014968
0.015067 0.015067 0.015067
0.015165 0.015165 0.015165
0.015264 0.015264 0.015264
0.015362 0.015362 0.015362
0.015460 0.015460 0.015460
0.015558 0.015558 0.015558
0.015657 0.015657 0.015657
0.015755 0.015755 0.015755
0.015853 0.015853 0.015853
0.015951 0.015951 0.015951
0.016049 0.016049 0.016049
0.016147 0.016147 0.016147
0.016245 0.016245 0.016245
0.016342 0.016342 0.016342
0.016440 0.016440 0.016440
0.016538 0.016538 0.016538
0.016636 0.016636 0.016636
0.016733 0.016733 0.016733
0.016831 0.016831 0.016831
0.016928 0.016928 0.016928
0.017026 0.017026 0.017026
0.017123 0.017123 0.017123
0.017221 0.017221 0.017221
0.017318 0.017318 0.017318
0.017415 0.017415 0.017415
0.017513 0.017513 0.017513
0.017610 0.017610 0.017610
0.017707 0.017707 0.017707
0.017804 0.017804 0.017804
0.017902 0.017902 0.017902
0.017999 0.017999 0.017999
0.018096 0.018096 0.018096
0.018193 0.018193 0.018193
0.018290 0.018290 0.018290
0.018387 0.018387 0.018387
0.018483 0.018483 0.018483
0.018580 0.018580 0.018580
0.018677 0.018677 0.018677
0.018774 0.018774 0.018774
0.018871 0.018871 0.018871
0.018967 0.018967 0.018967
0.019064 0.019064 0.019064
0.019161 0.019161 0.019161
0.019257 0.019257 0.019257
0.019354 0.019354 0.019354
0.019450 0.019450 0.019450
0.019547 0.019547 0.019547
0.019643 0.019643 0.019643
0.019739 0.019739 0.019739
0.019836 0.019836 0.019836
0.019932 0.019932 0.019932
0.020028 0.020028 0.020028
0.020125 0.020125 0.020125
0.020221 0.020221 0.020221
0.020317 0.020317 0.020317
0.020413 0.020413 0.020413
0.020509 0.020509 0.020509
0.020605 0.020605 0.020605
0.020701 0.020701 0.020701
0.020797 0.020797 0.020797
0.020893 0.020893 0.020893
0.020989 0.020989 0.020989
0.021085 0.021085 0.021085
0.021181 0.021181 0.021181
0.021277 0.021277 0.021277
0.021373 0.021373 0.021373
0.021468 0.021468 0.021468
0.021564 0.021564 0.021564
0.021660 0.021660 0.021660
0.021755 0.021755 0.021755
0.021851 0.021851 0.021851
0.021947 0.021947 0.021947
0.022042 0.022042 0.022042
0.022138 0.022138 0.022138
0.022233 0.022233 0.022233
0.022329 0.022329 0.022329
0.022424 0.022424 0.022424
0.022520 0.022520 0.022520
0.022615 0.022615 0.022615
0.022710 0.022710 0.022710
0.022806 0.022806 0.022806
0.022901 0.022901 0.022901
0.022996 0.022996 0.022996
0.023091 0.023091 0.023091
0.023186 0.023186 0.023186
0.023282 0.023282 0.023282
0.023377 0.023377 0.023377
0.023472 0.023472 0.023472
0.023567 0.023567 0.023567
0.023662 0.023662 0.023662
0.023757 0.023757 0.023757
0.023852 0.023852 0.023852
0.023947 0.023947 0.023947
0.024042 0.024042 0.024042
0.024137 0.024137 0.024137
0.024231 0.024231 0.024231
0.024326 0.024326 0.024326
0.024421 0.024421 0.024421
0.024516 0.024516 0.024516
0.024611 0.024611 0.024611
0.024705 0.024705 0.024705
0.024800 0.024800 0.024800
0.024895 0.024895 0.024895
0.024989 0.024989 0.024989
0.025084 0.025084 0.025084
0.025178 0.025178 0.025178
0.025273 0.025273 0.025273
0.025368 0.025368 0.025368
0.025462 0.025462 0.025462
0.025556 0.025556 0.025556
0.025651 0.025651 0.025651
0.025745 0.025745 0.025745
0.025840 0.025840 0.025840
0.025934 0.025934 0.025934
0.026028 0.026028 0.026028
0.026123 0.026123 0.026123
0.026217 0.026217 0.026217
0.026311 0.026311 0.026311
0.026405 0.026405 0.026405
0.026500 0.026500 0.026500
0.026594 0.026594 0.026594
0.026688 0.026688 0.026688
0.026782 0.026782 0.026782
0.026876 0.026876 0.026876
0.026970 0.026970 0.026970
0.027064 0.027064 0.027064
0.027158 0.027158 0.027158
0.027252 0.027252 0.027252
0.027346 0.027346 0.027346
0.027440 0.027440 0.027440
0.027534 0.027534 0.027534
0.027628 0.027628 0.027628
0.027722 0.027722 0.027722
0.027816 0.027816 0.027816
0.027909 0.027909 0.027909
0.028003 0.028003 0.028003
0.028097 0.028097 0.028097
0.028191 0.028191 0.028191
0.028284 0.028284 0.028284
0.028378 0.028378 0.028378
0.028472 0.028472 0.028472
0.028565 0.028565 0.028565
0.028659 0.028659 0.028659
0.028753 0.028753 0.028753
0.028846 0.028846 0.028846
0.028940 0.028940 0.028940
0.029033 0.029033 0.029033
0.029127 0.029127 0.029127
0.029220 0.029220 0.029220
0.029314 0.029314 0.029314
0.029407 0.029407 0.029407
0.029509 0.029509 0.029509
0.029613 0.029613 0.029613
0.029716 0.029716 0.029716
0.029820 0.029820 0.029820
0.029924 0.029924 0.029924
0.030028 0.030028 0.030028
0.030131 0.030131 0.030131
0.030235 0.030235 0.030235
0.030339 0.030339 0.030339
0.030443 0.030443 0.030443
0.030547 0.030547 0.030547
0.030651 0.030651 0.030651
0.030755 0.030755 0.030755
0.030858 0.030858 0.030858
0.030962 0.030962 0.030962
0.031066 0.031066 0.031066
0.031170 0.031170 0.031170
0.031274 0.031274 0.031274
0.031378 0.031378 0.031378
0.031482 0.031482 0.031482
0.031586 0.031586 0.031586
0.031690 0.031690 0.031690
0.031794 0.031794 0.031794
0.031898 0.031898 0.031898
0.032002 0.032002 0.032002
0.032106 0.032106 0.032106
0.032210 0.032210 0.032210
0.032314 0.032314 0.032314
0.032418 0.032418 0.032418
0.032522 0.032522 0.032522
0.032626 0.032626 0.032626
0.032730 0.032730 0.032730
0.032834 0.032834 0.032834
0.032938 0.032938 0.032938
0.033042 0.033042 0.033042
0.033147 0.033147 0.033147
0.033251 0.033251 0.033251
0.033355 0.033355 0.033355
0.033459 0.033459 0.033459
0.033563 0.033563 0.033563
0.033667 0.033667 0.033667
0.033771 0.033771 0.033771
0.033876 0.033876 0.033876
0.033980 0.033980 0.033980
0.034084 0.034084 0.034084
0.034188 0.034188 0.034188
0.034292 0.034292 0.034292
0.034397 0.034397 0.034397
0.034501 0.034501 0.034501
0.034605 0.034605 0.034605
0.034709 0.034709 0.034709
0.034814 0.034814 0.034814
0.034918 0.034918 0.034918
0.035022 0.035022 0.035022
0.035126 0.035126 0.035126
0.035231 0.035231 0.035231
0.035335 0.035335 0.035335
0.035439 0.035439 0.035439
0.035544 0.035544 0.035544
0.035648 0.035648 0.035648
0.035752 0.035752 0.035752
0.035857 0.035857 0.035857
0.035961 0.035961 0.035961
0.036065 0.036065 0.036065
0.036170 0.036170 0.036170
0.036274 0.036274 0.036274
0.036378 0.036378 0.036378
0.036483 0.036483 0.036483
0.036587 0.036587 0.036587
0.036692 0.036692 0.036692
0.036796 0.036796 0.036796
0.036901 0.036901 0.036901
0.037005 0.037005 0.037005
0.037109 0.037109 0.037109
0.037214 0.037214 0.037214
0.037318 0.037318 0.037318
0.037423 0.037423 0.037423
0.037527 0.037527 0.037527
0.037632 0.037632 0.037632
0.037736 0.037736 0.037736
0.037841 0.037841 0.037841
0.037945 0.037945 0.037945
0.038050 0.038050 0.038050
0.038154 0.038154 0.038154
0.038259 0.038259 0.038259
0.038364 0.038364 0.038364
0.038468 0.038468 0.038468
0.038573 0.038573 0.038573
0.038677 0.038677 0.038677
0.038782 0.038782 0.038782
0.038886 0.038886 0.038886
0.038991 0.038991 0.038991
0.039096 0.039096 0.039096
0.039200 0.039200 0.039200
0.039305 0.039305 0.039305
0.039410 0.039410 0.039410
0.039514 0.039514 0.039514
0.039619 0.039619 0.039619
0.039723 0.039723 0.039723
0.039828 0.039828 0.039828
0.039933 0.039933 0.039933
0.040038 0.040038 0.040038
0.040142 0.040142 0.040142
0.040247 0.040247 0.040247
0.040352 0.040352 0.040352
0.040456 0.040456 0.040456
0.040561 0.040561 0.040561
0.040666 0.040666 0.040666
0.040771 0.040771 0.040771
0.040875 0.040875 0.040875
0.040980 0.040980 0.040980
0.041085 0.041085 0.041085
0.041190 0.041190 0.041190
0.041294 0.041294 0.041294
0.041399 0.041399 0.041399
0.041504 0.041504 0.041504
0.041609 0.041609 0.041609
0.041714 0.041714 0.041714
0.041818 0.041818 0.041818
0.041923 0.041923 0.041923
0.042028 0.042028 0.042028
0.042133 0.042133 0.042133
0.042238 0.042238 0.042238
0.042343 0.042343 0.042343
0.042447 0.042447 0.042447
0.042552 0.042552 0.042552
0.042657 0.042657 0.042657
0.042762 0.042762 0.042762
0.042867 0.042867 0.042867
0.042972 0.042972 0.042972
0.043077 0.043077 0.043077
0.043182 0.043182 0.043182
0.043287 0.043287 0.043287
0.043392 0.043392 0.043392
0.043497 0.043497 0.043497
0.043601 0.043601 0.043601
0.043706 0.043706 0.043706
0.043811 0.043811 0.043811
0.043916 0.043916 0.043916
0.044021 0.044021 0.044021
0.044126 0.044126 0.044126
0.044231 0.044231 0.044231
0.044336 0.044336 0.044336
0.044441 0.044441 0.044441
0.044546 0.044546 0.044546
0.044651 0.044651 0.044651
0.044756 0.044756 0.044756
0.044861 0.044861 0.044861
0.044966 0.044966 0.044966
0.045072 0.045072 0.045072
0.045177 0.045177 0.045177
0.045282 0.045282 0.045282
0.045387 0.045387 0.045387
0.045492 0.045492 0.045492
0.045597 0.045597 0.045597
0.045702 0.045702 0.045702
0.045807 0.045807 0.045807
0.045912 0.045912 0.045912
0.046017 0.046017 0.046017
0.046122 0.046122 0.046122
0.046228 0.046228 0.046228
0.046333 0.046333 0.046333
0.046438 0.046438 0.046438
0.046543 0.046543 0.046543
0.046648 0.046648 0.046648
0.046753 0.046753 0.046753
0.046858 0.046858 0.046858
0.046964 0.046964 0.046964
0.047069 0.047069 0.047069
0.047174 0.047174 0.047174
0.047279 0.047279 0.047279
0.047384 0.047384 0.047384
0.047490 0.047490 0.047490
0.047595 0.047595 0.047595
0.047700 0.047700 0.047700
0.047805 0.047805 0.047805
0.047911 0.047911 0.047911
0.048016 0.048016 0.048016
0.048121 0.048121 0.048121
0.048226 0.048226 0.048226
0.048332 0.048332 0.048332
0.048437 0.048437 0.048437
0.048542 0.048542 0.048542
0.048647 0.048647 0.048647
0.048753 0.048753 0.048753
0.048858 0.048858 0.048858
0.048963 0.048963 0.048963
0.049069 0.049069 0.049069
0.049174 0.049174 0.049174
0.049279 0.049279 0.049279
0.049385 0.049385 0.049385
0.049490 0.049490 0.049490
0.049595 0.049595 0.049595
0.049701 0.049701 0.049701
0.049806 0.049806 0.049806
0.049911 0.049911 0.049911
0.050017 0.050017 0.050017
0.050122 0.050122 0.050122
0.050228 0.050228 0.050228
0.050333 0.050333 0.050333
0.050438 0.050438 0.050438
0.050544 0.050544 0.050544
0.050649 0.050649 0.050649
0.050755 0.050755 0.050755
0.050860 0.050860 0.050860
0.050965 0.050965 0.050965
0.051071 0.051071 0.051071
0.051176 0.051176 0.051176
0.051282 0.051282 0.051282
0.051387 0.051387 0.051387
0.051493 0.051493 0.051493
0.051598 0.051598 0.051598
0.051704 0.051704 0.051704
0.051809 0.051809 0.051809
0.051915 0.051915 0.051915
0.052020 0.052020 0.052020
0.052126 0.052126 0.052126
0.052231 0.052231 0.052231
0.052337 0.052337 0.052337
0.052442 0.052442 0.052442
0.052548 0.052548 0.052548
0.052653 0.052653 0.052653
0.052759 0.052759 0.052759
0.052864 0.052864 0.052864
0.052970 0.052970 0.052970
0.053075 0.053075 0.053075
0.053181 0.053181 0.053181
0.053286 0.053286 0.053286
0.053392 0.053392 0.053392
0.053498 0.053498 0.053498
0.053603 0.053603 0.053603
0.053709 0.053709 0.053709
0.053814 0.053814 0.053814
0.053920 0.053920 0.053920
0.054026 0.054026 0.054026
0.054131 0.054131 0.054131
0.054237 0.054237 0.054237
0.054342 0.054342 0.054342
0.054448 0.054448 0.054448
0.054554 0.054554 0.054554
0.054659 0.054659 0.054659
0.054765 0.054765 0.054765
0.054871 0.054871 0.054871
0.054976 0.054976 0.054976
0.055082 0.055082 0.055082
0.055188 0.055188 0.055188
0.055293 0.055293 0.055293
0.055399 0.055399 0.055399
0.055505 0.055505 0.055505
0.055610 0.055610 0.055610
0.055716 0.055716 0.055716
0.055822 0.055822 0.055822
0.055928 0.055928 0.055928
0.056033 0.056033 0.056033
0.056139 0.056139 0.056139
0.056245 0.056245 0.056245
0.056351 0.056351 0.056351
0.056456 0.056456 0.056456
0.056562 0.056562 0.056562
0.056668 0.056668 0.056668
0.056774 0.056774 0.056774
0.056879 0.056879 0.056879
0.056985 0.056985 0.056985
0.057091 0.057091 0.057091
0.057197 0.057197 0.057197
0.057302 0.057302 0.057302
0.057408 0.057408 0.057408
0.057514 0.057514 0.057514
0.057620 0.057620 0.057620
0.057726 0.057726 0.057726
0.057832 0.057832 0.057832
0.057937 0.057937 0.057937
0.058043 0.058043 0.058043
0.058149 0.058149 0.058149
0.058255 0.058255 0.058255
0.058361 0.058361 0.058361
0.058467 0.058467 0.058467
0.058572 0.058572 0.058572
0.058678 0.058678 0.058678
0.058784 0.058784 0.058784
0.058890 0.058890 0.058890
0.058996 0.058996 0.058996
0.059102 0.059102 0.059102
0.059208 0.059208 0.059208
0.059314 0.059314 0.059314
0.059420 0.059420 0.059420
0.059525 0.059525 0.059525
0.059631 0.059631 0.059631
0.059737 0.059737 0.059737
0.059843 0.059843 0.059843
0.059949 0.059949 0.059949
0.060055 0.060055 0.060055
0.060161 0.060161 0.060161
0.060267 0.060267 0.060267
0.060373 0.060373 0.060373
0.060479 0.060479 0.060479
0.060585 0.060585 0.060585
0.060691 0.060691 0.060691
0.060797 0.060797 0.060797
0.060903 0.060903 0.060903
0.061009 0.061009 0.061009
0.061115 0.061115 0.061115
0.061221 0.061221 0.061221
0.061327 0.061327 0.061327
0.061433 0.061433 0.061433
0.061539 0.061539 0.061539
0.061645 0.061645 0.061645
0.061751 0.061751 0.061751
0.061857 0.061857 0.061857
0.061963 0.061963 0.061963
0.062069 0.062069 0.062069
0.062175 0.062175 0.062175
0.062281 0.062281 0.062281
0.062387 0.062387 0.062387
0.062493 0.062493 0.062493
0.062599 0.062599 0.062599
0.062705 0.062705 0.062705
0.062811 0.062811 0.062811
0.062918 0.062918 0.062918
0.063028 0.063028 0.063028
0.063146 0.063146 0.063146
0.063263 0.063263 0.063263
0.063381 0.063381 0.063381
0.063499 0.063499 0.063499
0.063616 0.063616 0.063616
0.063734 0.063734 0.063734
0.063852 0.063852 0.063852
0.063969 0.063969 0.063969
0.064087 0.064087 0.064087
0.064205 0.064205 0.064205
0.064323 0.064323 0.064323
0.064441 0.064441 0.064441
0.064559 0.064559 0.064559
0.064677 0.064677 0.064677
0.064794 0.064794 0.064794
0.064912 0.064912 0.064912
0.065030 0.065030 0.065030
0.065148 0.065148 0.065148
0.065267 0.065267 0.065267
0.065385 0.065385 0.065385
0.065503 0.065503 0.065503
0.065621 0.065621 0.065621
0.065739 0.065739 0.065739
0.065857 0.065857 0.065857
0.065975 0.065975 0.065975
0.066094 0.066094 0.066094
0.066212 0.066212 0.066212
0.066330 0.066330 0.066330
0.066448 0.066448 0.066448
0.066567 0.066567 0.066567
0.066685 0.066685 0.066685
0.066803 0.066803 0.066803
0.066922 0.066922 0.066922
0.067040 0.067040 0.067040
0.067159 0.067159 0.067159
0.067277 0.067277 0.067277
0.067396 0.067396 0.067396
0.067514 0.067514 0.067514
0.067633 0.067633 0.067633
0.067752 0.067752 0.067752
0.067870 0.067870 0.067870
0.067989 0.067989 0.067989
0.068107 0.068107 0.068107
0.068226 0.068226 0.068226
0.068345 0.068345 0.068345
0.068464 0.068464 0.068464
0.068582 0.068582 0.068582
0.068701 0.068701 0.068701
0.068820 0.068820 0.068820
0.068939 0.068939 0.068939
0.069058 0.069058 0.069058
0.069177 0.069177 0.069177
0.069296 0.069296 0.069296
0.069415 0.069415 0.069415
0.069534 0.069534 0.069534
0.069653 0.069653 0.069653
0.069772 0.069772 0.069772
0.069891 0.069891 0.069891
0.070010 0.070010 0.070010
0.070129 0.070129 0.070129
0.070248 0.070248 0.070248
0.070367 0.070367 0.070367
0.070486 0.070486 0.070486
0.070605 0.070605 0.070605
0.070725 0.070725 0.070725
0.070844 0.070844 0.070844
0.070963 0.070963 0.070963
0.071082 0.071082 0.071082
0.071202 0.071202 0.071202
0.071321 0.071321 0.071321
0.071441 0.071441 0.071441
0.071560 0.071560 0.071560
0.071679 0.071679 0.071679
0.071799 0.071799 0.071799
0.071918 0.071918 0.071918
0.072038 0.072038 0.072038
0.072157 0.072157 0.072157
0.072277 0.072277 0.072277
0.072396 0.072396 0.072396
0.072516 0.072516 0.072516
0.072636 0.072636 0.072636
0.072755 0.072755 0.072755
0.072875 0.072875 0.072875
0.072995 0.072995 0.072995
0.073114 0.073114 0.073114
0.073234 0.073234 0.073234
0.073354 0.073354 0.073354
0.073474 0.073474 0.073474
0.073594 0.073594 0.073594
0.073713 0.073713 0.073713
0.073833 0.073833 0.073833
0.073953 0.073953 0.073953
0.074073 0.074073 0.074073
0.074193 0.074193 0.074193
0.074313 0.074313 0.074313
0.074433 0.074433 0.074433
0.074553 0.074553 0.074553
0.074673 0.074673 0.074673
0.074793 0.074793 0.074793
0.074913 0.074913 0.074913
0.075033 0.075033 0.075033
0.075153 0.075153 0.075153
0.075273 0.075273 0.075273
0.075394 0.075394 0.075394
0.075514 0.075514 0.075514
0.075634 0.075634 0.075634
0.075754 0.075754 0.075754
0.075875 0.075875 0.075875
0.075995 0.075995 0.075995
0.076115 0.076115 0.076115
0.076236 0.076236 0.076236
0.076356 0.076356 0.076356
0.076476 0.076476 0.076476
0.076597 0.076597 0.076597
0.076717 0.076717 0.076717
0.076838 0.076838 0.076838
0.076958 0.076958 0.076958
0.077079 0.077079 0.077079
0.077199 0.077199 0.077199
0.077320 0.077320 0.077320
0.077440 0.077440 0.077440
0.077561 0.077561 0.077561
0.077681 0.077681 0.077681
0.077802 0.077802 0.077802
0.077923 0.077923 0.077923
0.078043 0.078043 0.078043
0.078164 0.078164 0.078164
0.078285 0.078285 0.078285
0.078406 0.078406 0.078406
0.078526 0.078526 0.078526
0.078647 0.078647 0.078647
0.078768 0.078768 0.078768
0.078889 0.078889 0.078889
0.079010 0.079010 0.079010
0.079131 0.079131 0.079131
0.079252 0.079252 0.079252
0.079373 0.079373 0.079373
0.079494 0.079494 0.079494
0.079615 0.079615 0.079615
0.079736 0.079736 0.079736
0.079857 0.079857 0.079857
0.079978 0.079978 0.079978
0.080099 0.080099 0.080099
0.080220 0.080220 0.080220
0.080341 0.080341 0.080341
0.080462 0.080462 0.080462
0.080583 0.080583 0.080583
0.080705 0.080705 0.080705
0.080826 0.080826 0.080826
0.080947 0.080947 0.080947
0.081068 0.081068 0.081068
0.081190 0.081190 0.081190
0.081311 0.081311 0.081311
0.081432 0.081432 0.081432
0.081554 0.081554 0.081554
0.081675 0.081675 0.081675
0.081796 0.081796 0.081796
0.081918 0.081918 0.081918
0.082039 0.082039 0.082039
0.082161 0.082161 0.082161
0.082282 0.082282 0.082282
0.082404 0.082404 0.082404
0.082525 0.082525 0.082525
0.082647 0.082647 0.082647
0.082768 0.082768 0.082768
0.082890 0.082890 0.082890
0.083011 0.083011 0.083011
0.083133 0.083133 0.083133
0.083255 0.083255 0.083255
0.083376 0.083376 0.083376
0.083498 0.083498 0.083498
0.083620 0.083620 0.083620
0.083742 0.083742 0.083742
0.083863 0.083863 0.083863
0.083985 0.083985 0.083985
0.084107 0.084107 0.084107
0.084229 0.084229 0.084229
0.084351 0.084351 0.084351
0.084473 0.084473 0.084473
0.084595 0.084595 0.084595
0.084716 0.084716 0.084716
0.084838 0.084838 0.084838
0.084960 0.084960 0.084960
0.085082 0.085082 0.085082
0.085204 0.085204 0.085204
0.085326 0.085326 0.085326
0.085448 0.085448 0.085448
0.085571 0.085571 0.085571
0.085693 0.085693 0.085693
0.085815 0.085815 0.085815
0.085937 0.085937 0.085937
0.086059 0.086059 0.086059
0.086181 0.086181 0.086181
0.086303 0.086303 0.086303
0.086426 0.086426 0.086426
0.086548 0.086548 0.086548
0.086670 0.086670 0.086670
0.086793 0.086793 0.086793
0.086915 0.086915 0.086915
0.087037 0.087037 0.087037
0.087160 0.087160 0.087160
0.087282 0.087282 0.087282
0.087404 0.087404 0.087404
0.087527 0.087527 0.087527
0.087649 0.087649 0.087649
0.087772 0.087772 0.087772
0.087894 0.087894 0.087894
0.088017 0.088017 0.088017
0.088139 0.088139 0.088139
0.088262 0.088262 0.088262
0.088384 0.088384 0.088384
0.088507 0.088507 0.088507
0.088629 0.088629 0.088629
0.088752 0.088752 0.088752
0.088875 0.088875 0.088875
0.088997 0.088997 0.088997
0.089120 0.089120 0.089120
0.089243 0.089243 0.089243
0.089366 0.089366 0.089366
0.089488 0.089488 0.089488
0.089611 0.089611 0.089611
0.089734 0.089734 0.089734
0.089857 0.089857 0.089857
0.089980 0.089980 0.089980
0.090102 0.090102 0.090102
0.090225 0.090225 0.090225
0.090348 0.090348 0.090348
0.090471 0.090471 0.090471
0.090594 0.090594 0.090594
0.090717 0.090717 0.090717
0.090840 0.090840 0.090840
0.090963 0.090963 0.090963
0.091086 0.091086 0.091086
0.091209 0.091209 0.091209
0.091332 0.091332 0.091332
0.091455 0.091455 0.091455
0.091578 0.091578 0.091578
0.091701 0.091701 0.091701
0.091825 0.091825 0.091825
0.091948 0.091948 0.091948
0.092071 0.092071 0.092071
0.092194 0.092194 0.092194
0.092317 0.092317 0.092317
0.092441 0.092441 0.092441
0.092564 0.092564 0.092564
0.092687 0.092687 0.092687
0.092811 0.092811 0.092811
0.092934 0.092934 0.092934
0.093057 0.093057 0.093057
0.093181 0.093181 0.093181
0.093304 0.093304 0.093304
0.093427 0.093427 0.093427
0.093551 0.093551 0.093551
0.093674 0.093674 0.093674
0.093798 0.093798 0.093798
0.093921 0.093921 0.093921
0.094045 0.094045 0.094045
0.094168 0.094168 0.094168
0.094292 0.094292 0.094292
0.094415 0.094415 0.094415
0.094539 0.094539 0.094539
0.094663 0.094663 0.094663
0.094786 0.094786 0.094786
0.094910 0.094910 0.094910
0.095034 0.095034 0.095034
0.095157 0.095157 0.095157
0.095281 0.095281 0.095281
0.095405 0.095405 0.095405
0.095529 0.095529 0.095529
0.095652 0.095652 0.095652
0.095776 0.095776 0.095776
0.095900 0.095900 0.095900
