config/curves/Ilford_MGFB_3.cube
# DiVERE Density Curve 1D LUT
LUT_1D_SIZE 65536
DOMAIN_MIN 0.0 0.0 0.0
DOMAIN_MAX 1.0 1.0 1.0

0.007880 0.007880 0.007880
0.007880 0.007880 0.007880
0.007880 0.007880 0.007880
0.007880 0.007880 0.007880
0.007880 0.007880 0.007880
0.007880 0.007880 0.007880
0.007880 0.007880 0.007880
0.007880 0.007880 0.007880
0.007880 0.007880 0.007880
0.007880 0.007880 0.007880
0.007880 0.007880 0.007880
0.007880 0.007880 0.007880
0.007880 0.007880 0.007880
0.007880 0.007880 0.007880
0.007880 0.007880 0.007880
0.007880 0.007880 0.007880
0.007880 0.007880 0.007880
0.007880 0.007880 0.007880
0.007880 0.007880 0.007880
0.007880 0.007880 0.007880
0.007880 0.007880 0.007880
0.007880 0.007880 0.007880
0.007880 0.007880 0.007880
0.007880 0.007880 0.007880
0.007880 0.007880 0.007880
0.007880 0.007880 0.007880
0.007880 0.007880 0.007880
0.007880 0.007880 0.007880
0.007880 0.007880 0.007880
0.007880 0.007880 0.007880
0.007880 0.007880 0.007880
0.007880 0.007880 0.007880
0.007880 0.007880 0.007880
0.007880 0.007880 0.007880
0.007880 0.007880 0.007880
0.007880 0.007880 0.007880
0.007880 0.007880 0.007880
0.007884 0.007884 0.007884
0.007892 0.007892 0.007892
0.007900 0.007900 0.007900
0.007908 0.007908 0.007908
0.007916 0.007916 0.007916
0.007923 0.007923 0.007923
0.007930 0.007930 0.007930
0.007937 0.007937 0.007937
0.007944 0.007944 0.007944
0.007951 0.007951 0.007951
0.007958 0.007958 0.007958
0.007964 0.007964 0.007964
0.007971 0.007971 0.007971
0.007977 0.007977 0.007977
0.007983 0.007983 0.007983
0.007989 0.007989 0.007989
0.007995 0.007995 0.007995
0.008001 0.008001 0.008001
0.008007 0.008007 0.008007
0.008012 0.008012 0.008012
0.008018 0.008018 0.008018
0.008023 0.008023 0.008023
0.008029 0.008029 0.008029
0.008034 0.008034 0.008034
0.008039 0.008039 0.008039
0.008044 0.008044 0.008044
0.008049 0.008049 0.008049
0.008054 0.008054 0.008054
0.008059 0.008059 0.008059
0.008064 0.008064 0.008064
0.008069 0.008069 0.008069
0.008073 0.008073 0.008073
0.008078 0.008078 0.008078
0.008082 0.008082 0.008082
0.008087 0.008087 0.008087
0.008091 0.008091 0.008091
0.008096 0.008096 0.008096
0.008100 0.008100 0.008100
0.008104 0.008104 0.008104
0.008108 0.008108 0.008108
0.008112 0.008112 0.008112
0.008117 0.008117 0.008117
0.008121 0.008121 0.008121
0.008125 0.008125 0.008125
0.008129 0.008129 0.008129
0.008132 0.008132 0.008132
0.008136 0.008136 0.008136
0.008140 0.008140 0.008140
0.008144 0.008144 0.008144
0.008148 0.008148 0.008148
0.008151 0.008151 0.008151
0.008155 0.008155 0.008155
0.008158 0.008158 0.008158
0.008162 0.008162 0.008162
0.008165 0.008165 0.008165
0.008169 0.008169 0.008169
0.008172 0.008172 0.008172
0.008176 0.008176 0.008176
0.008179 0.008179 0.008179
0.008183 0.008183 0.008183
0.008186 0.008186 0.008186
0.008189 0.008189 0.008189
0.008192 0.008192 0.008192
0.008196 0.008196 0.008196
0.008199 0.008199 0.008199
0.008202 0.008202 0.008202
0.008205 0.008205 0.008205
0.008208 0.008208 0.008208
0.008211 0.008211 0.008211
0.008214 0.008214 0.008214
0.008217 0.008217 0.008217
0.008220 0.008220 0.008220
0.008223 0.008223 0.008223
0.008226 0.008226 0.008226
0.008229 0.008229 0.008229
0.008232 0.008232 0.008232
0.008235 0.008235 0.008235
0.008238 0.008238 0.008238
0.008240 0.008240 0.008240
0.008243 0.008243 0.008243
0.008246 0.008246 0.008246
0.008249 0.008249 0.008249
0.008251 0.008251 0.008251
0.008254 0.008254 0.008254
0.008257 0.008257 0.008257
0.008259 0.008259 0.008259
0.008263 0.008263 0.008263
0.008266 0.008266 0.008266
0.008269 0.008269 0.008269
0.008272 0.008272 0.008272
0.008276 0.008276 0.008276
0.008279 0.008279 0.008279
0.008282 0.008282 0.008282
0.008285 0.008285 0.008285
0.008288 0.008288 0.008288
0.008291 0.008291 0.008291
0.008294 0.008294 0.008294
0.008298 0.008298 0.008298
0.008301 0.008301 0.008301
0.008304 0.008304 0.008304
0.008307 0.008307 0.008307
0.008310 0.008310 0.008310
0.008313 0.008313 0.008313
0.008315 0.008315 0.008315
0.008318 0.008318 0.008318
0.008321 0.008321 0.008321
0.008324 0.008324 0.008324
0.008327 0.008327 0.008327
0.008330 0.008330 0.008330
0.008333 0.008333 0.008333
0.008335 0.008335 0.008335
0.008338 0.008338 0.008338
0.008341 0.008341 0.008341
0.008344 0.008344 0.008344
0.008347 0.008347 0.008347
0.008349 0.008349 0.008349
0.008352 0.008352 0.008352
0.008355 0.008355 0.008355
0.008357 0.008357 0.008357
0.008360 0.008360 0.008360
0.008363 0.008363 0.008363
0.008365 0.008365 0.008365
0.008368 0.008368 0.008368
0.008370 0.008370 0.008370
0.008373 0.008373 0.008373
0.008376 0.008376 0.008376
0.008378 0.008378 0.008378
0.008381 0.008381 0.008381
0.008383 0.008383 0.008383
0.008386 0.008386 0.008386
0.008388 0.008388 0.008388
0.008391 0.008391 0.008391
0.008393 0.008393 0.008393
0.008395 0.008395 0.008395
0.008398 0.008398 0.008398
0.008400 0.008400 0.008400
0.008403 0.008403 0.008403
0.008405 0.008405 0.008405
0.008408 0.008408 0.008408
0.008410 0.008410 0.008410
0.008412 0.008412 0.008412
0.008415 0.008415 0.008415
0.008417 0.008417 0.008417
0.008419 0.008419 0.008419
0.008422 0.008422 0.008422
0.008424 0.008424 0.008424
0.008426 0.008426 0.008426
0.008428 0.008428 0.008428
0.008431 0.008431 0.008431
0.008433 0.008433 0.008433
0.008435 0.008435 0.008435
0.008437 0.008437 0.008437
0.008440 0.008440 0.008440
0.008442 0.008442 0.008442
0.008444 0.008444 0.008444
0.008446 0.008446 0.008446
0.008448 0.008448 0.008448
0.008450 0.008450 0.008450
0.008453 0.008453 0.008453
0.008455 0.008455 0.008455
0.008457 0.008457 0.008457
0.008459 0.008459 0.008459
0.008461 0.008461 0.008461
0.008463 0.008463 0.008463
0.008465 0.008465 0.008465
0.008467 0.008467 0.008467
0.008469 0.008469 0.008469
0.008471 0.008471 0.008471
0.008473 0.008473 0.008473
0.008475 0.008475 0.008475
0.008477 0.008477 0.008477
0.008479 0.008479 0.008479
0.008481 0.008481 0.008481
0.008483 0.008483 0.008483
0.008485 0.008485 0.008485
0.008487 0.008487 0.008487
0.008489 0.008489 0.008489
0.008491 0.008491 0.008491
0.008493 0.008493 0.008493
0.008495 0.008495 0.008495
0.008497 0.008497 0.008497
0.008499 0.008499 0.008499
0.008501 0.008501 0.008501
0.008503 0.008503 0.008503
0.008505 0.008505 0.008505
0.008507 0.008507 0.008507
0.008509 0.008509 0.008509
0.008511 0.008511 0.008511
0.008512 0.008512 0.008512
0.008514 0.008514 0.008514
0.008516 0.008516 0.008516
0.008518 0.008518 0.008518
0.008520 0.008520 0.008520
0.008522 0.008522 0.008522
0.008523 0.008523 0.008523
0.008525 0.008525 0.008525
0.008527 0.008527 0.008527
0.008529 0.008529 0.008529
0.008531 0.008531 0.008531
0.008532 0.008532 0.008532
0.008534 0.008534 0.008534
0.008536 0.008536 0.008536
0.008538 0.008538 0.008538
0.008540 0.008540 0.008540
0.008541 0.008541 0.008541
0.008543 0.008543 0.008543
0.008545 0.008545 0.008545
0.008547 0.008547 0.008547
0.008548 0.008548 0.008548
0.008550 0.008550 0.008550
0.008552 0.008552 0.008552
0.008553 0.008553 0.008553
0.008555 0.008555 0.008555
0.008557 0.008557 0.008557
0.008558 0.008558 0.008558
0.008560 0.008560 0.008560
0.008562 0.008562 0.008562
0.008563 0.008563 0.008563
0.008565 0.008565 0.008565
0.008567 0.008567 0.008567
0.008568 0.008568 0.008568
0.008570 0.008570 0.008570
0.008572 0.008572 0.008572
0.008573 0.008573 0.008573
0.008575 0.008575 0.008575
0.008577 0.008577 0.008577
0.008578 0.008578 0.008578
0.008580 0.008580 0.008580
0.008581 0.008581 0.008581
0.008583 0.008583 0.008583
0.008585 0.008585 0.008585
0.008586 0.008586 0.008586
0.008588 0.008588 0.008588
0.008589 0.008589 0.008589
0.008591 0.008591 0.008591
0.008592 0.008592 0.008592
0.008594 0.008594 0.008594
0.008596 0.008596 0.008596
0.008597 0.008597 0.008597
0.008599 0.008599 0.008599
0.008600 0.008600 0.008600
0.008602 0.008602 0.008602
0.008603 0.008603 0.008603
0.008605 0.008605 0.008605
0.008606 0.008606 0.008606
0.008608 0.008608 0.008608
0.008609 0.008609 0.008609
0.008611 0.008611 0.008611
0.008612 0.008612 0.008612
0.008614 0.008614 0.008614
0.008615 0.008615 0.008615
0.008617 0.008617 0.008617
0.008618 0.008618 0.008618
0.008620 0.008620 0.008620
0.008621 0.008621 0.008621
0.008623 0.008623 0.008623
0.008624 0.008624 0.008624
0.008626 0.008626 0.008626
0.008627 0.008627 0.008627
0.008628 0.008628 0.008628
0.008630 0.008630 0.008630
0.008631 0.008631 0.008631
0.008633 0.008633 0.008633
0.008634 0.008634 0.008634
0.008636 0.008636 0.008636
0.008637 0.008637 0.008637
0.008638 0.008638 0.008638
0.008640 0.008640 0.008640
0.008641 0.008641 0.008641
0.008643 0.008643 0.008643
0.008644 0.008644 0.008644
0.008645 0.008645 0.008645
0.008647 0.008647 0.008647
0.008648 0.008648 0.008648
0.008649 0.008649 0.008649
0.008651 0.008651 0.008651
0.008652 0.008652 0.008652
0.008654 0.008654 0.008654
0.008655 0.008655 0.008655
0.008656 0.008656 0.008656
0.008658 0.008658 0.008658
0.008659 0.008659 0.008659
0.008662 0.008662 0.008662
0.008665 0.008665 0.008665
0.008668 0.008668 0.008668
0.008671 0.008671 0.008671
0.008674 0.008674 0.008674
0.008677 0.008677 0.008677
0.008679 0.008679 0.008679
0.008682 0.008682 0.008682
0.008685 0.008685 0.008685
0.008688 0.008688 0.008688
0.008691 0.008691 0.008691
0.008693 0.008693 0.008693
0.008696 0.008696 0.008696
0.008699 0.008699 0.008699
0.008702 0.008702 0.008702
0.008704 0.008704 0.008704
0.008707 0.008707 0.008707
0.008710 0.008710 0.008710
0.008713 0.008713 0.008713
0.008715 0.008715 0.008715
0.008718 0.008718 0.008718
0.008721 0.008721 0.008721
0.008724 0.008724 0.008724
0.008726 0.008726 0.008726
0.008729 0.008729 0.008729
0.008732 0.008732 0.008732
0.008734 0.008734 0.008734
0.008737 0.008737 0.008737
0.008740 0.008740 0.008740
0.008742 0.008742 0.008742
0.008745 0.008745 0.008745
0.008748 0.008748 0.008748
0.008750 0.008750 0.008750
0.008753 0.008753 0.008753
0.008756 0.008756 0.008756
0.008758 0.008758 0.008758
0.008761 0.008761 0.008761
0.008763 0.008763 0.008763
0.008766 0.008766 0.008766
0.008769 0.008769 0.008769
0.008771 0.008771 0.008771
0.008774 0.008774 0.008774
0.008776 0.008776 0.008776
0.008779 0.008779 0.008779
0.008781 0.008781 0.008781
0.008784 0.008784 0.008784
0.008786 0.008786 0.008786
0.008789 0.008789 0.008789
0.008792 0.008792 0.008792
0.008794 0.008794 0.008794
0.008797 0.008797 0.008797
0.008799 0.008799 0.008799
0.008802 0.008802 0.008802
0.008804 0.008804 0.008804
0.008807 0.008807 0.008807
0.008809 0.008809 0.008809
0.008812 0.008812 0.008812
0.008814 0.008814 0.008814
0.008817 0.008817 0.008817
0.008819 0.008819 0.008819
0.008821 0.008821 0.008821
0.008824 0.008824 0.008824
0.008826 0.008826 0.008826
0.008829 0.008829 0.008829
0.008831 0.008831 0.008831
0.008834 0.008834 0.008834
0.008836 0.008836 0.008836
0.008839 0.008839 0.008839
0.008841 0.008841 0.008841
0.008843 0.008843 0.008843
0.008846 0.008846 0.008846
0.008848 0.008848 0.008848
0.008851 0.008851 0.008851
0.008853 0.008853 0.008853
0.008855 0.008855 0.008855
0.008858 0.008858 0.008858
0.008860 0.008860 0.008860
0.008862 0.008862 0.008862
0.008865 0.008865 0.008865
0.008867 0.008867 0.008867
0.008870 0.008870 0.008870
0.008872 0.008872 0.008872
0.008874 0.008874 0.008874
0.008877 0.008877 0.008877
0.008879 0.008879 0.008879
0.008881 0.008881 0.008881
0.008884 0.008884 0.008884
0.008886 0.008886 0.008886
0.008888 0.008888 0.008888
0.008890 0.008890 0.008890
0.008893 0.008893 0.008893
0.008895 0.008895 0.008895
0.008897 0.008897 0.008897
0.008900 0.008900 0.008900
0.008902 0.008902 0.008902
0.008904 0.008904 0.008904
0.008906 0.008906 0.008906
0.008909 0.008909 0.008909
0.008911 0.008911 0.008911
0.008913 0.008913 0.008913
0.008915 0.008915 0.008915
0.008918 0.008918 0.008918
0.008920 0.008920 0.008920
0.008922 0.008922 0.008922
0.008924 0.008924 0.008924
0.008927 0.008927 0.008927
0.008929 0.008929 0.008929
0.008931 0.008931 0.008931
0.008933 0.008933 0.008933
0.008936 0.008936 0.008936
0.008938 0.008938 0.008938
0.008940 0.008940 0.008940
0.008942 0.008942 0.008942
0.008944 0.008944 0.008944
0.008946 0.008946 0.008946
0.008949 0.008949 0.008949
0.008951 0.008951 0.008951
0.008953 0.008953 0.008953
0.008955 0.008955 0.008955
0.008957 0.008957 0.008957
0.008959 0.008959 0.008959
0.008962 0.008962 0.008962
0.008964 0.008964 0.008964
0.008966 0.008966 0.008966
0.008968 0.008968 0.008968
0.008970 0.008970 0.008970
0.008972 0.008972 0.008972
0.008974 0.008974 0.008974
0.008977 0.008977 0.008977
0.008979 0.008979 0.008979
0.008981 0.008981 0.008981
0.008983 0.008983 0.008983
0.008985 0.008985 0.008985
0.008987 0.008987 0.008987
0.008989 0.008989 0.008989
0.008991 0.008991 0.008991
0.008993 0.008993 0.008993
0.008996 0.008996 0.008996
0.008998 0.008998 0.008998
0.009000 0.009000 0.009000
0.009002 0.009002 0.009002
0.009004 0.009004 0.009004
0.009006 0.009006 0.009006
0.009008 0.009008 0.009008
0.009010 0.009010 0.009010
0.009012 0.009012 0.009012
0.009014 0.009014 0.009014
0.009016 0.009016 0.009016
0.009018 0.009018 0.009018
0.009020 0.009020 0.009020
0.009022 0.009022 0.009022
0.009024 0.009024 0.009024
0.009026 0.009026 0.009026
0.009028 0.009028 0.009028
0.009030 0.009030 0.009030
0.009032 0.009032 0.009032
0.009034 0.009034 0.009034
0.009036 0.009036 0.009036
0.009038 0.009038 0.009038
0.009040 0.009040 0.009040
0.009042 0.009042 0.009042
0.009044 0.009044 0.009044
0.009046 0.009046 0.009046
0.009048 0.009048 0.009048
0.009050 0.009050 0.009050
0.009052 0.009052 0.009052
0.009054 0.009054 0.009054
0.009056 0.009056 0.009056
0.009058 0.009058 0.009058
0.009060 0.009060 0.009060
0.009062 0.009062 0.009062
0.009064 0.009064 0.009064
0.009066 0.009066 0.009066
0.009068 0.009068 0.009068
0.009070 0.009070 0.009070
0.009072 0.009072 0.009072
0.009074 0.009074 0.009074
0.009076 0.009076 0.009076
0.009078 0.009078 0.009078
0.009080 0.009080 0.009080
0.009082 0.009082 0.009082
0.009083 0.009083 0.009083
0.009085 0.009085 0.009085
0.009087 0.009087 0.009087
0.009089 0.009089 0.009089
0.009091 0.009091 0.009091
0.009093 0.009093 0.009093
0.009095 0.009095 0.009095
0.009097 0.009097 0.009097
0.009099 0.009099 0.009099
0.009101 0.009101 0.009101
0.009103 0.009103 0.009103
0.009104 0.009104 0.009104
0.009106 0.009106 0.009106
0.009108 0.009108 0.009108
0.009110 0.009110 0.009110
0.009112 0.009112 0.009112
0.009114 0.009114 0.009114
0.009116 0.009116 0.009116
0.009117 0.009117 0.009117
0.009119 0.009119 0.009119
0.009121 0.009121 0.009121
0.009123 0.009123 0.009123
0.009125 0.009125 0.009125
0.009127 0.009127 0.009127
0.009129 0.009129 0.009129
0.009130 0.009130 0.009130
0.009132 0.009132 0.009132
0.009134 0.009134 0.009134
0.009136 0.009136 0.009136
0.009138 0.009138 0.009138
0.009140 0.009140 0.009140
0.009141 0.009141 0.009141
0.009143 0.009143 0.009143
0.009145 0.009145 0.009145
0.009147 0.009147 0.009147
0.009149 0.009149 0.009149
0.009150 0.009150 0.009150
0.009152 0.009152 0.009152
0.009154 0.009154 0.009154
0.009156 0.009156 0.009156
0.009158 0.009158 0.009158
0.009159 0.009159 0.009159
0.009161 0.009161 0.009161
0.009163 0.009163 0.009163
0.009165 0.009165 0.009165
0.009167 0.009167 0.009167
0.009168 0.009168 0.009168
0.009170 0.009170 0.009170
0.009172 0.009172 0.009172
0.009174 0.009174 0.009174
0.009175 0.009175 0.009175
0.009177 0.009177 0.009177
0.009179 0.009179 0.009179
0.009181 0.009181 0.009181
0.009182 0.009182 0.009182
0.009184 0.009184 0.009184
0.009186 0.009186 0.009186
0.009188 0.009188 0.009188
0.009189 0.009189 0.009189
0.009191 0.009191 0.009191
0.009193 0.009193 0.009193
0.009195 0.009195 0.009195
0.009196 0.009196 0.009196
0.009198 0.009198 0.009198
0.009200 0.009200 0.009200
0.009202 0.009202 0.009202
0.009203 0.009203 0.009203
0.009205 0.009205 0.009205
0.009207 0.009207 0.009207
0.009208 0.009208 0.009208
0.009210 0.009210 0.009210
0.009212 0.009212 0.009212
0.009213 0.009213 0.009213
0.009215 0.009215 0.009215
0.009217 0.009217 0.009217
0.009219 0.009219 0.009219
0.009220 0.009220 0.009220
0.009222 0.009222 0.009222
0.009224 0.009224 0.009224
0.009225 0.009225 0.009225
0.009227 0.009227 0.009227
0.009229 0.009229 0.009229
0.009230 0.009230 0.009230
0.009232 0.009232 0.009232
0.009234 0.009234 0.009234
0.009235 0.009235 0.009235
0.009237 0.009237 0.009237
0.009239 0.009239 0.009239
0.009240 0.009240 0.009240
0.009242 0.009242 0.009242
0.009244 0.009244 0.009244
0.009245 0.009245 0.009245
0.009247 0.009247 0.009247
0.009249 0.009249 0.009249
0.009250 0.009250 0.009250
0.009252 0.009252 0.009252
0.009254 0.009254 0.009254
0.009255 0.009255 0.009255
0.009257 0.009257 0.009257
0.009258 0.009258 0.009258
0.009260 0.009260 0.009260
0.009262 0.009262 0.009262
0.009263 0.009263 0.009263
0.009265 0.009265 0.009265
0.009267 0.009267 0.009267
0.009268 0.009268 0.009268
0.009270 0.009270 0.009270
0.009271 0.009271 0.009271
0.009273 0.009273 0.009273
0.009275 0.009275 0.009275
0.009276 0.009276 0.009276
0.009278 0.009278 0.009278
0.009280 0.009280 0.009280
0.009281 0.009281 0.009281
0.009283 0.009283 0.009283
0.009284 0.009284 0.009284
0.009286 0.009286 0.009286
0.009287 0.009287 0.009287
0.009289 0.009289 0.009289
0.009291 0.009291 0.009291
0.009292 0.009292 0.009292
0.009294 0.009294 0.009294
0.009295 0.009295 0.009295
0.009297 0.009297 0.009297
0.009299 0.009299 0.009299
0.009300 0.009300 0.009300
0.009302 0.009302 0.009302
0.009303 0.009303 0.009303
0.009305 0.009305 0.009305
0.009306 0.009306 0.009306
0.009308 0.009308 0.009308
0.009310 0.009310 0.009310
0.009311 0.009311 0.009311
0.009313 0.009313 0.009313
0.009314 0.009314 0.009314
0.009316 0.009316 0.009316
0.009317 0.009317 0.009317
0.009319 0.009319 0.009319
0.009320 0.009320 0.009320
0.009322 0.009322 0.009322
0.009323 0.009323 0.009323
0.009325 0.009325 0.009325
0.009327 0.009327 0.009327
0.009328 0.009328 0.009328
0.009330 0.009330 0.009330
0.009331 0.009331 0.009331
0.009333 0.009333 0.009333
0.009334 0.009334 0.009334
0.009336 0.009336 0.009336
0.009337 0.009337 0.009337
0.009339 0.009339 0.009339
0.009340 0.009340 0.009340
0.009342 0.009342 0.009342
0.009343 0.009343 0.009343
0.009345 0.009345 0.009345
0.009346 0.009346 0.009346
0.009348 0.009348 0.009348
0.009349 0.009349 0.009349
0.009351 0.009351 0.009351
0.009352 0.009352 0.009352
0.009354 0.009354 0.009354
0.009355 0.009355 0.009355
0.009357 0.009357 0.009357
0.009358 0.009358 0.009358
0.009360 0.009360 0.009360
0.009361 0.009361 0.009361
0.009363 0.009363 0.009363
0.009364 0.009364 0.009364
0.009366 0.009366 0.009366
0.009367 0.009367 0.009367
0.009369 0.009369 0.009369
0.009370 0.009370 0.009370
0.009372 0.009372 0.009372
0.009373 0.009373 0.009373
0.009375 0.009375 0.009375
0.009376 0.009376 0.009376
0.009384 0.009384 0.009384
0.009406 0.009406 0.009406
0.009427 0.009427 0.009427
0.009449 0.009449 0.009449
0.009470 0.009470 0.009470
0.009492 0.009492 0.009492
0.009513 0.009513 0.009513
0.009535 0.009535 0.009535
0.009557 0.009557 0.009557
0.009578 0.009578 0.009578
0.009600 0.009600 0.009600
0.009622 0.009622 0.009622
0.009643 0.009643 0.009643
0.009665 0.009665 0.009665
0.009687 0.009687 0.009687
0.009709 0.009709 0.009709
0.009730 0.009730 0.009730
0.009752 0.009752 0.009752
0.009774 0.009774 0.009774
0.009796 0.009796 0.009796
0.009818 0.009818 0.009818
0.009840 0.009840 0.009840
0.009861 0.009861 0.009861
0.009883 0.009883 0.009883
0.009905 0.009905 0.009905
0.009927 0.009927 0.009927
0.009949 0.009949 0.009949
0.009971 0.009971 0.009971
0.009993 0.009993 0.009993
0.010015 0.010015 0.010015
0.010037 0.010037 0.010037
0.010059 0.010059 0.010059
0.010081 0.010081 0.010081
0.010103 0.010103 0.010103
0.010125 0.010125 0.010125
0.010148 0.010148 0.010148
0.010170 0.010170 0.010170
0.010192 0.010192 0.010192
0.010214 0.010214 0.010214
0.010236 0.010236 0.010236
0.010258 0.010258 0.010258
0.010281 0.010281 0.010281
0.010303 0.010303 0.010303
0.010325 0.010325 0.010325
0.010347 0.010347 0.010347
0.010370 0.010370 0.010370
0.010392 0.010392 0.010392
0.010414 0.010414 0.010414
0.010436 0.010436 0.010436
0.010459 0.010459 0.010459
0.010481 0.010481 0.010481
0.010504 0.010504 0.010504
0.010526 0.010526 0.010526
0.010548 0.010548 0.010548
0.010571 0.010571 0.010571
0.010593 0.010593 0.010593
0.010616 0.010616 0.010616
0.010638 0.010638 0.010638
0.010661 0.010661 0.010661
0.010683 0.010683 0.010683
0.010706 0.010706 0.010706
0.010728 0.010728 0.010728
0.010751 0.010751 0.010751
0.010773 0.010773 0.010773
0.010796 0.010796 0.010796
0.010819 0.010819 0.010819
0.010841 0.010841 0.010841
0.010864 0.010864 0.010864
0.010887 0.010887 0.010887
0.010909 0.010909 0.010909
0.010932 0.010932 0.010932
0.010955 0.010955 0.010955
0.010977 0.010977 0.010977
0.011000 0.011000 0.011000
0.011023 0.011023 0.011023
0.011046 0.011046 0.011046
0.011069 0.011069 0.011069
0.011091 0.011091 0.011091
0.011114 0.011114 0.011114
0.011137 0.011137 0.011137
0.011160 0.011160 0.011160
0.011183 0.011183 0.011183
0.011206 0.011206 0.011206
0.011229 0.011229 0.011229
0.011252 0.011252 0.011252
0.011274 0.011274 0.011274
0.011297 0.011297 0.011297
0.011320 0.011320 0.011320
0.011343 0.011343 0.011343
0.011366 0.011366 0.011366
0.011389 0.011389 0.011389
0.011413 0.011413 0.011413
0.011436 0.011436 0.011436
0.011459 0.011459 0.011459
0.011482 0.011482 0.011482
0.011505 0.011505 0.011505
0.011528 0.011528 0.011528
0.011551 0.011551 0.011551
0.011574 0.011574 0.011574
0.011598 0.011598 0.011598
0.011621 0.011621 0.011621
0.011644 0.011644 0.011644
0.011667 0.011667 0.011667
0.011690 0.011690 0.011690
0.011714 0.011714 0.011714
0.011737 0.011737 0.011737
0.011760 0.011760 0.011760
0.011784 0.011784 0.011784
0.011807 0.011807 0.011807
0.011830 0.011830 0.011830
0.011854 0.011854 0.011854
0.011877 0.011877 0.011877
0.011900 0.011900 0.011900
0.011924 0.011924 0.011924
0.011947 0.011947 0.011947
0.011971 0.011971 0.011971
0.011994 0.011994 0.011994
0.012018 0.012018 0.012018
0.012041 0.012041 0.012041
0.012065 0.012065 0.012065
0.012088 0.012088 0.012088
0.012112 0.012112 0.012112
0.012135 0.012135 0.012135
0.012159 0.012159 0.012159
0.012182 0.012182 0.012182
0.012206 0.012206 0.012206
0.012230 0.012230 0.012230
0.012253 0.012253 0.012253
0.012277 0.012277 0.012277
0.012301 0.012301 0.012301
0.012324 0.012324 0.012324
0.012348 0.012348 0.012348
0.012372 0.012372 0.012372
0.012395 0.012395 0.012395
0.012419 0.012419 0.012419
0.012443 0.012443 0.012443
0.012467 0.012467 0.012467
0.012490 0.012490 0.012490
0.012514 0.012514 0.012514
0.012538 0.012538 0.012538
0.012562 0.012562 0.012562
0.012586 0.012586 0.012586
0.012610 0.012610 0.012610
0.012634 0.012634 0.012634
0.012658 0.012658 0.012658
0.012681 0.012681 0.012681
0.012705 0.012705 0.012705
0.012729 0.012729 0.012729
0.012753 0.012753 0.012753
0.012777 0.012777 0.012777
0.012801 0.012801 0.012801
0.012825 0.012825 0.012825
0.012849 0.012849 0.012849
0.012873 0.012873 0.012873
0.012898 0.012898 0.012898
0.012922 0.012922 0.012922
0.012946 0.012946 0.012946
0.012970 0.012970 0.012970
0.012994 0.012994 0.012994
0.013018 0.013018 0.013018
0.013042 0.013042 0.013042
0.013066 0.013066 0.013066
0.013091 0.013091 0.013091
0.013115 0.013115 0.013115
0.013139 0.013139 0.013139
0.013163 0.013163 0.013163
0.013188 0.013188 0.013188
0.013212 0.013212 0.013212
0.013236 0.013236 0.013236
0.013260 0.013260 0.013260
0.013285 0.013285 0.013285
0.013309 0.013309 0.013309
0.013334 0.013334 0.013334
0.013358 0.013358 0.013358
0.013382 0.013382 0.013382
0.013407 0.013407 0.013407
0.013431 0.013431 0.013431
0.013456 0.013456 0.013456
0.013480 0.013480 0.013480
0.013504 0.013504 0.013504
0.013529 0.013529 0.013529
0.013553 0.013553 0.013553
0.013578 0.013578 0.013578
0.013602 0.013602 0.013602
0.013627 0.013627 0.013627
0.013652 0.013652 0.013652
0.013676 0.013676 0.013676
0.013701 0.013701 0.013701
0.013725 0.013725 0.013725
0.013750 0.013750 0.013750
0.013775 0.013775 0.013775
0.013799 0.013799 0.013799
0.013824 0.013824 0.013824
0.013849 0.013849 0.013849
0.013873 0.013873 0.013873
0.013898 0.013898 0.013898
0.013923 0.013923 0.013923
0.013948 0.013948 0.013948
0.013972 0.013972 0.013972
0.013997 0.013997 0.013997
0.014022 0.014022 0.014022
0.014047 0.014047 0.014047
0.014072 0.014072 0.014072
0.014096 0.014096 0.014096
0.014121 0.014121 0.014121
0.014146 0.014146 0.014146
0.014171 0.014171 0.014171
0.014196 0.014196 0.014196
0.014221 0.014221 0.014221
