config/curves/Ilford_MGFB_5.cube
# DiVERE Density Curve 1D LUT
LUT_1D_SIZE 65536
DOMAIN_MIN 0.0 0.0 0.0
DOMAIN_MAX 1.0 1.0 1.0

0.007930 0.007930 0.007930
0.007930 0.007930 0.007930
0.007930 0.007930 0.007930
0.007930 0.007930 0.007930
0.007930 0.007930 0.007930
0.007930 0.007930 0.007930
0.007930 0.007930 0.007930
0.007930 0.007930 0.007930
0.007930 0.007930 0.007930
0.007930 0.007930 0.007930
0.007930 0.007930 0.007930
0.007930 0.007930 0.007930
0.007930 0.007930 0.007930
0.007930 0.007930 0.007930
0.007930 0.007930 0.007930
0.007930 0.007930 0.007930
0.007930 0.007930 0.007930
0.007930 0.007930 0.007930
0.007930 0.007930 0.007930
0.007930 0.007930 0.007930
0.007930 0.007930 0.007930
0.007930 0.007930 0.007930
0.007930 0.007930 0.007930
0.007930 0.007930 0.007930
0.007930 0.007930 0.007930
0.007930 0.007930 0.007930
0.007930 0.007930 0.007930
0.007930 0.007930 0.007930
0.007930 0.007930 0.007930
0.007930 0.007930 0.007930
0.007930 0.007930 0.007930
0.007930 0.007930 0.007930
0.007930 0.007930 0.007930
0.007930 0.007930 0.007930
0.007930 0.007930 0.007930
0.007930 0.007930 0.007930
0.007930 0.007930 0.007930
0.007930 0.007930 0.007930
0.007928 0.007928 0.007928
0.007925 0.007925 0.007925
0.007923 0.007923 0.007923
0.007920 0.007920 0.007920
0.007917 0.007917 0.007917
0.007915 0.007915 0.007915
0.007912 0.007912 0.007912
0.007910 0.007910 0.007910
0.007907 0.007907 0.007907
0.007905 0.007905 0.007905
0.007903 0.007903 0.007903
0.007901 0.007901 0.007901
0.007898 0.007898 0.007898
0.007896 0.007896 0.007896
0.007894 0.007894 0.007894
0.007892 0.007892 0.007892
0.007890 0.007890 0.007890
0.007888 0.007888 0.007888
0.007886 0.007886 0.007886
0.007884 0.007884 0.007884
0.007882 0.007882 0.007882
0.007880 0.007880 0.007880
0.007879 0.007879 0.007879
0.007877 0.007877 0.007877
0.007875 0.007875 0.007875
0.007873 0.007873 0.007873
0.007871 0.007871 0.007871
0.007870 0.007870 0.007870
0.007868 0.007868 0.007868
0.007867 0.007867 0.007867
0.007865 0.007865 0.007865
0.007863 0.007863 0.007863
0.007862 0.007862 0.007862
0.007860 0.007860 0.007860
0.007859 0.007859 0.007859
0.007857 0.007857 0.007857
0.007856 0.007856 0.007856
0.007854 0.007854 0.007854
0.007853 0.007853 0.007853
0.007851 0.007851 0.007851
0.007850 0.007850 0.007850
0.007849 0.007849 0.007849
0.007847 0.007847 0.007847
0.007846 0.007846 0.007846
0.007845 0.007845 0.007845
0.007843 0.007843 0.007843
0.007842 0.007842 0.007842
0.007841 0.007841 0.007841
0.007839 0.007839 0.007839
0.007838 0.007838 0.007838
0.007837 0.007837 0.007837
0.007836 0.007836 0.007836
0.007835 0.007835 0.007835
0.007833 0.007833 0.007833
0.007832 0.007832 0.007832
0.007831 0.007831 0.007831
0.007830 0.007830 0.007830
0.007829 0.007829 0.007829
0.007828 0.007828 0.007828
0.007826 0.007826 0.007826
0.007825 0.007825 0.007825
0.007824 0.007824 0.007824
0.007823 0.007823 0.007823
0.007822 0.007822 0.007822
0.007821 0.007821 0.007821
0.007820 0.007820 0.007820
0.007819 0.007819 0.007819
0.007818 0.007818 0.007818
0.007817 0.007817 0.007817
0.007816 0.007816 0.007816
0.007815 0.007815 0.007815
0.007814 0.007814 0.007814
0.007813 0.007813 0.007813
0.007812 0.007812 0.007812
0.007811 0.007811 0.007811
0.007810 0.007810 0.007810
0.007809 0.007809 0.007809
0.007808 0.007808 0.007808
0.007807 0.007807 0.007807
0.007806 0.007806 0.007806
0.007805 0.007805 0.007805
0.007807 0.007807 0.007807
0.007812 0.007812 0.007812
0.007816 0.007816 0.007816
0.007821 0.007821 0.007821
0.007825 0.007825 0.007825
0.007830 0.007830 0.007830
0.007834 0.007834 0.007834
0.007839 0.007839 0.007839
0.007843 0.007843 0.007843
0.007848 0.007848 0.007848
0.007852 0.007852 0.007852
0.007856 0.007856 0.007856
0.007861 0.007861 0.007861
0.007865 0.007865 0.007865
0.007869 0.007869 0.007869
0.007873 0.007873 0.007873
0.007877 0.007877 0.007877
0.007882 0.007882 0.007882
0.007886 0.007886 0.007886
0.007890 0.007890 0.007890
0.007894 0.007894 0.007894
0.007898 0.007898 0.007898
0.007902 0.007902 0.007902
0.007906 0.007906 0.007906
0.007910 0.007910 0.007910
0.007914 0.007914 0.007914
0.007918 0.007918 0.007918
0.007921 0.007921 0.007921
0.007925 0.007925 0.007925
0.007929 0.007929 0.007929
0.007933 0.007933 0.007933
0.007937 0.007937 0.007937
0.007940 0.007940 0.007940
0.007944 0.007944 0.007944
0.007948 0.007948 0.007948
0.007952 0.007952 0.007952
0.007955 0.007955 0.007955
0.007959 0.007959 0.007959
0.007962 0.007962 0.007962
0.007966 0.007966 0.007966
0.007970 0.007970 0.007970
0.007973 0.007973 0.007973
0.007977 0.007977 0.007977
0.007980 0.007980 0.007980
0.007984 0.007984 0.007984
0.007987 0.007987 0.007987
0.007991 0.007991 0.007991
0.007994 0.007994 0.007994
0.007998 0.007998 0.007998
0.008001 0.008001 0.008001
0.008004 0.008004 0.008004
0.008008 0.008008 0.008008
0.008011 0.008011 0.008011
0.008014 0.008014 0.008014
0.008018 0.008018 0.008018
0.008021 0.008021 0.008021
0.008024 0.008024 0.008024
0.008027 0.008027 0.008027
0.008031 0.008031 0.008031
0.008034 0.008034 0.008034
0.008037 0.008037 0.008037
0.008040 0.008040 0.008040
0.008043 0.008043 0.008043
0.008047 0.008047 0.008047
0.008050 0.008050 0.008050
0.008053 0.008053 0.008053
0.008056 0.008056 0.008056
0.008059 0.008059 0.008059
0.008062 0.008062 0.008062
0.008065 0.008065 0.008065
0.008068 0.008068 0.008068
0.008071 0.008071 0.008071
0.008074 0.008074 0.008074
0.008077 0.008077 0.008077
0.008080 0.008080 0.008080
0.008083 0.008083 0.008083
0.008086 0.008086 0.008086
0.008089 0.008089 0.008089
0.008092 0.008092 0.008092
0.008095 0.008095 0.008095
0.008098 0.008098 0.008098
0.008101 0.008101 0.008101
0.008104 0.008104 0.008104
0.008106 0.008106 0.008106
0.008109 0.008109 0.008109
0.008112 0.008112 0.008112
0.008115 0.008115 0.008115
0.008118 0.008118 0.008118
0.008121 0.008121 0.008121
0.008123 0.008123 0.008123
0.008126 0.008126 0.008126
0.008129 0.008129 0.008129
0.008132 0.008132 0.008132
0.008134 0.008134 0.008134
0.008137 0.008137 0.008137
0.008140 0.008140 0.008140
0.008143 0.008143 0.008143
0.008145 0.008145 0.008145
0.008148 0.008148 0.008148
0.008151 0.008151 0.008151
0.008153 0.008153 0.008153
0.008156 0.008156 0.008156
0.008159 0.008159 0.008159
0.008161 0.008161 0.008161
0.008164 0.008164 0.008164
0.008166 0.008166 0.008166
0.008169 0.008169 0.008169
0.008171 0.008171 0.008171
0.008174 0.008174 0.008174
0.008177 0.008177 0.008177
0.008179 0.008179 0.008179
0.008182 0.008182 0.008182
0.008184 0.008184 0.008184
0.008187 0.008187 0.008187
0.008189 0.008189 0.008189
0.008192 0.008192 0.008192
0.008194 0.008194 0.008194
0.008197 0.008197 0.008197
0.008199 0.008199 0.008199
0.008202 0.008202 0.008202
0.008204 0.008204 0.008204
0.008207 0.008207 0.008207
0.008209 0.008209 0.008209
0.008211 0.008211 0.008211
0.008214 0.008214 0.008214
0.008216 0.008216 0.008216
0.008219 0.008219 0.008219
0.008221 0.008221 0.008221
0.008223 0.008223 0.008223
0.008226 0.008226 0.008226
0.008228 0.008228 0.008228
0.008230 0.008230 0.008230
0.008233 0.008233 0.008233
0.008235 0.008235 0.008235
0.008237 0.008237 0.008237
0.008240 0.008240 0.008240
0.008242 0.008242 0.008242
0.008244 0.008244 0.008244
0.008247 0.008247 0.008247
0.008249 0.008249 0.008249
0.008251 0.008251 0.008251
0.008253 0.008253 0.008253
0.008256 0.008256 0.008256
0.008258 0.008258 0.008258
0.008260 0.008260 0.008260
0.008262 0.008262 0.008262
0.008265 0.008265 0.008265
0.008267 0.008267 0.008267
0.008269 0.008269 0.008269
0.008271 0.008271 0.008271
0.008273 0.008273 0.008273
0.008276 0.008276 0.008276
0.008278 0.008278 0.008278
0.008280 0.008280 0.008280
0.008282 0.008282 0.008282
0.008284 0.008284 0.008284
0.008286 0.008286 0.008286
0.008289 0.008289 0.008289
0.008291 0.008291 0.008291
0.008293 0.008293 0.008293
0.008295 0.008295 0.008295
0.008297 0.008297 0.008297
0.008299 0.008299 0.008299
0.008301 0.008301 0.008301
0.008303 0.008303 0.008303
0.008305 0.008305 0.008305
0.008307 0.008307 0.008307
0.008310 0.008310 0.008310
0.008312 0.008312 0.008312
0.008314 0.008314 0.008314
0.008316 0.008316 0.008316
0.008318 0.008318 0.008318
0.008320 0.008320 0.008320
0.008322 0.008322 0.008322
0.008324 0.008324 0.008324
0.008326 0.008326 0.008326
0.008328 0.008328 0.008328
0.008330 0.008330 0.008330
0.008332 0.008332 0.008332
0.008344 0.008344 0.008344
0.008357 0.008357 0.008357
0.008370 0.008370 0.008370
0.008383 0.008383 0.008383
0.008395 0.008395 0.008395
0.008408 0.008408 0.008408
0.008421 0.008421 0.008421
0.008434 0.008434 0.008434
0.008446 0.008446 0.008446
0.008459 0.008459 0.008459
0.008472 0.008472 0.008472
0.008484 0.008484 0.008484
0.008497 0.008497 0.008497
0.008509 0.008509 0.008509
0.008522 0.008522 0.008522
0.008535 0.008535 0.008535
0.008547 0.008547 0.008547
0.008560 0.008560 0.008560
0.008572 0.008572 0.008572
0.008584 0.008584 0.008584
0.008597 0.008597 0.008597
0.008609 0.008609 0.008609
0.008622 0.008622 0.008622
0.008634 0.008634 0.008634
0.008646 0.008646 0.008646
0.008659 0.008659 0.008659
0.008671 0.008671 0.008671
0.008683 0.008683 0.008683
0.008696 0.008696 0.008696
0.008708 0.008708 0.008708
0.008720 0.008720 0.008720
0.008732 0.008732 0.008732
0.008744 0.008744 0.008744
0.008757 0.008757 0.008757
0.008769 0.008769 0.008769
0.008781 0.008781 0.008781
0.008793 0.008793 0.008793
0.008805 0.008805 0.008805
0.008817 0.008817 0.008817
0.008829 0.008829 0.008829
0.008841 0.008841 0.008841
0.008853 0.008853 0.008853
0.008865 0.008865 0.008865
0.008877 0.008877 0.008877
0.008889 0.008889 0.008889
0.008901 0.008901 0.008901
0.008913 0.008913 0.008913
0.008925 0.008925 0.008925
0.008937 0.008937 0.008937
0.008949 0.008949 0.008949
0.008961 0.008961 0.008961
0.008972 0.008972 0.008972
0.008984 0.008984 0.008984
0.008996 0.008996 0.008996
0.009008 0.009008 0.009008
0.009019 0.009019 0.009019
0.009031 0.009031 0.009031
0.009043 0.009043 0.009043
0.009055 0.009055 0.009055
0.009066 0.009066 0.009066
0.009078 0.009078 0.009078
0.009090 0.009090 0.009090
0.009101 0.009101 0.009101
0.009113 0.009113 0.009113
0.009124 0.009124 0.009124
0.009136 0.009136 0.009136
0.009148 0.009148 0.009148
0.009159 0.009159 0.009159
0.009171 0.009171 0.009171
0.009182 0.009182 0.009182
0.009194 0.009194 0.009194
0.009205 0.009205 0.009205
0.009217 0.009217 0.009217
0.009228 0.009228 0.009228
0.009239 0.009239 0.009239
0.009251 0.009251 0.009251
0.009262 0.009262 0.009262
0.009274 0.009274 0.009274
0.009285 0.009285 0.009285
0.009296 0.009296 0.009296
0.009308 0.009308 0.009308
0.009319 0.009319 0.009319
0.009330 0.009330 0.009330
0.009341 0.009341 0.009341
0.009353 0.009353 0.009353
0.009364 0.009364 0.009364
0.009375 0.009375 0.009375
0.009386 0.009386 0.009386
0.009398 0.009398 0.009398
0.009409 0.009409 0.009409
0.009420 0.009420 0.009420
0.009431 0.009431 0.009431
0.009442 0.009442 0.009442
0.009453 0.009453 0.009453
0.009464 0.009464 0.009464
0.009476 0.009476 0.009476
0.009487 0.009487 0.009487
0.009498 0.009498 0.009498
0.009509 0.009509 0.009509
0.009520 0.009520 0.009520
0.009531 0.009531 0.009531
0.009542 0.009542 0.009542
0.009553 0.009553 0.009553
0.009564 0.009564 0.009564
0.009575 0.009575 0.009575
0.009586 0.009586 0.009586
0.009596 0.009596 0.009596
0.009607 0.009607 0.009607
0.009618 0.009618 0.009618
0.009629 0.009629 0.009629
0.009640 0.009640 0.009640
0.009651 0.009651 0.009651
0.009662 0.009662 0.009662
0.009673 0.009673 0.009673
0.009683 0.009683 0.009683
0.009694 0.009694 0.009694
0.009705 0.009705 0.009705
0.009716 0.009716 0.009716
0.009726 0.009726 0.009726
0.009737 0.009737 0.009737
0.009748 0.009748 0.009748
0.009759 0.009759 0.009759
0.009769 0.009769 0.009769
0.009780 0.009780 0.009780
0.009791 0.009791 0.009791
0.009801 0.009801 0.009801
0.009812 0.009812 0.009812
0.009823 0.009823 0.009823
0.009833 0.009833 0.009833
0.009844 0.009844 0.009844
0.009854 0.009854 0.009854
0.009865 0.009865 0.009865
0.009876 0.009876 0.009876
0.009886 0.009886 0.009886
0.009897 0.009897 0.009897
0.009907 0.009907 0.009907
0.009918 0.009918 0.009918
0.009928 0.009928 0.009928
0.009939 0.009939 0.009939
0.009949 0.009949 0.009949
0.009960 0.009960 0.009960
0.009970 0.009970 0.009970
0.009980 0.009980 0.009980
0.009991 0.009991 0.009991
0.010001 0.010001 0.010001
0.010012 0.010012 0.010012
0.010022 0.010022 0.010022
0.010032 0.010032 0.010032
0.010043 0.010043 0.010043
0.010053 0.010053 0.010053
0.010063 0.010063 0.010063
0.010074 0.010074 0.010074
0.010084 0.010084 0.010084
0.010094 0.010094 0.010094
0.010105 0.010105 0.010105
0.010115 0.010115 0.010115
0.010125 0.010125 0.010125
0.010135 0.010135 0.010135
0.010146 0.010146 0.010146
0.010156 0.010156 0.010156
0.010166 0.010166 0.010166
0.010176 0.010176 0.010176
0.010186 0.010186 0.010186
0.010197 0.010197 0.010197
0.010207 0.010207 0.010207
0.010217 0.010217 0.010217
0.010227 0.010227 0.010227
0.010237 0.010237 0.010237
0.010247 0.010247 0.010247
0.010257 0.010257 0.010257
0.010267 0.010267 0.010267
0.010277 0.010277 0.010277
0.010288 0.010288 0.010288
0.010298 0.010298 0.010298
0.010308 0.010308 0.010308
0.010318 0.010318 0.010318
0.010328 0.010328 0.010328
0.010338 0.010338 0.010338
0.010348 0.010348 0.010348
0.010358 0.010358 0.010358
0.010368 0.010368 0.010368
0.010378 0.010378 0.010378
0.010388 0.010388 0.010388
0.010397 0.010397 0.010397
0.010407 0.010407 0.010407
0.010417 0.010417 0.010417
0.010427 0.010427 0.010427
0.010437 0.010437 0.010437
0.010447 0.010447 0.010447
0.010457 0.010457 0.010457
0.010467 0.010467 0.010467
0.010477 0.010477 0.010477
0.010486 0.010486 0.010486
0.010496 0.010496 0.010496
0.010506 0.010506 0.010506
0.010516 0.010516 0.010516
0.010526 0.010526 0.010526
0.010535 0.010535 0.010535
0.010545 0.010545 0.010545
0.010555 0.010555 0.010555
0.010565 0.010565 0.010565
0.010574 0.010574 0.010574
0.010584 0.010584 0.010584
0.010594 0.010594 0.010594
0.010604 0.010604 0.010604
0.010613 0.010613 0.010613
0.010623 0.010623 0.010623
0.010633 0.010633 0.010633
0.010642 0.010642 0.010642
0.010652 0.010652 0.010652
0.010662 0.010662 0.010662
0.010671 0.010671 0.010671
0.010681 0.010681 0.010681
0.010691 0.010691 0.010691
0.010700 0.010700 0.010700
0.010710 0.010710 0.010710
0.010719 0.010719 0.010719
0.010729 0.010729 0.010729
0.010739 0.010739 0.010739
0.010748 0.010748 0.010748
0.010758 0.010758 0.010758
0.010767 0.010767 0.010767
0.010777 0.010777 0.010777
0.010786 0.010786 0.010786
0.010796 0.010796 0.010796
0.010805 0.010805 0.010805
0.010815 0.010815 0.010815
0.010824 0.010824 0.010824
0.010834 0.010834 0.010834
0.010843 0.010843 0.010843
0.010853 0.010853 0.010853
0.010862 0.010862 0.010862
0.010871 0.010871 0.010871
0.010881 0.010881 0.010881
0.010890 0.010890 0.010890
0.010900 0.010900 0.010900
0.010909 0.010909 0.010909
0.010918 0.010918 0.010918
0.010928 0.010928 0.010928
0.010937 0.010937 0.010937
0.010947 0.010947 0.010947
0.010956 0.010956 0.010956
0.010965 0.010965 0.010965
0.010975 0.010975 0.010975
0.010984 0.010984 0.010984
0.010993 0.010993 0.010993
0.011002 0.011002 0.011002
0.011012 0.011012 0.011012
0.011021 0.011021 0.011021
0.011030 0.011030 0.011030
0.011040 0.011040 0.011040
0.011049 0.011049 0.011049
0.011058 0.011058 0.011058
0.011067 0.011067 0.011067
0.011077 0.011077 0.011077
0.011086 0.011086 0.011086
0.011095 0.011095 0.011095
0.011104 0.011104 0.011104
0.011113 0.011113 0.011113
0.011123 0.011123 0.011123
0.011132 0.011132 0.011132
0.011141 0.011141 0.011141
0.011150 0.011150 0.011150
0.011159 0.011159 0.011159
0.011168 0.011168 0.011168
0.011177 0.011177 0.011177
0.011187 0.011187 0.011187
0.011196 0.011196 0.011196
0.011205 0.011205 0.011205
0.011214 0.011214 0.011214
0.011223 0.011223 0.011223
0.011232 0.011232 0.011232
0.011241 0.011241 0.011241
0.011250 0.011250 0.011250
0.011259 0.011259 0.011259
0.011268 0.011268 0.011268
0.011277 0.011277 0.011277
0.011286 0.011286 0.011286
0.011295 0.011295 0.011295
0.011304 0.011304 0.011304
0.011313 0.011313 0.011313
0.011322 0.011322 0.011322
0.011331 0.011331 0.011331
0.011340 0.011340 0.011340
0.011349 0.011349 0.011349
0.011358 0.011358 0.011358
0.011367 0.011367 0.011367
0.011376 0.011376 0.011376
0.011385 0.011385 0.011385
0.011394 0.011394 0.011394
0.011403 0.011403 0.011403
0.011412 0.011412 0.011412
0.011421 0.011421 0.011421
0.011430 0.011430 0.011430
0.011438 0.011438 0.011438
0.011447 0.011447 0.011447
0.011456 0.011456 0.011456
0.011465 0.011465 0.011465
0.011474 0.011474 0.011474
0.011483 0.011483 0.011483
0.011492 0.011492 0.011492
0.011500 0.011500 0.011500
0.011509 0.011509 0.011509
0.011518 0.011518 0.011518
0.011527 0.011527 0.011527
0.011536 0.011536 0.011536
0.011544 0.011544 0.011544
0.011553 0.011553 0.011553
0.011562 0.011562 0.011562
0.011571 0.011571 0.011571
0.011579 0.011579 0.011579
0.011588 0.011588 0.011588
0.011597 0.011597 0.011597
0.011606 0.011606 0.011606
0.011614 0.011614 0.011614
0.011623 0.011623 0.011623
0.011632 0.011632 0.011632
0.011641 0.011641 0.011641
0.011649 0.011649 0.011649
0.011658 0.011658 0.011658
0.011667 0.011667 0.011667
0.011675 0.011675 0.011675
0.011732 0.011732 0.011732
0.011804 0.011804 0.011804
0.011875 0.011875 0.011875
0.011947 0.011947 0.011947
0.012020 0.012020 0.012020
0.012092 0.012092 0.012092
0.012166 0.012166 0.012166
0.012239 0.012239 0.012239
0.012312 0.012312 0.012312
0.012386 0.012386 0.012386
0.012461 0.012461 0.012461
0.012535 0.012535 0.012535
0.012610 0.012610 0.012610
0.012686 0.012686 0.012686
0.012761 0.012761 0.012761
0.012837 0.012837 0.012837
0.012914 0.012914 0.012914
0.012990 0.012990 0.012990
0.013067 0.013067 0.013067
0.013144 0.013144 0.013144
0.013222 0.013222 0.013222
0.013300 0.013300 0.013300
0.013378 0.013378 0.013378
0.013457 0.013457 0.013457
0.013536 0.013536 0.013536
0.013615 0.013615 0.013615
0.013695 0.013695 0.013695
0.013775 0.013775 0.013775
0.013855 0.013855 0.013855
0.013936 0.013936 0.013936
0.014017 0.014017 0.014017
0.014098 0.014098 0.014098
0.014180 0.014180 0.014180
0.014262 0.014262 0.014262
0.014344 0.014344 0.014344
0.014427 0.014427 0.014427
0.014510 0.014510 0.014510
0.014594 0.014594 0.014594
0.014678 0.014678 0.014678
0.014762 0.014762 0.014762
0.014846 0.014846 0.014846
0.014931 0.014931 0.014931
0.015016 0.015016 0.015016
0.015102 0.015102 0.015102
0.015188 0.015188 0.015188
0.015274 0.015274 0.015274
0.015361 0.015361 0.015361
0.015448 0.015448 0.015448
0.015535 0.015535 0.015535
0.015623 0.015623 0.015623
0.015711 0.015711 0.015711
0.015800 0.015800 0.015800
0.015888 0.015888 0.015888
0.015978 0.015978 0.015978
0.016067 0.016067 0.016067
0.016157 0.016157 0.016157
0.016247 0.016247 0.016247
0.016338 0.016338 0.016338
0.016429 0.016429 0.016429
0.016521 0.016521 0.016521
0.016612 0.016612 0.016612
0.016705 0.016705 0.016705
0.016797 0.016797 0.016797
0.016890 0.016890 0.016890
0.016983 0.016983 0.016983
0.017077 0.017077 0.017077
0.017171 0.017171 0.017171
0.017265 0.017265 0.017265
0.017360 0.017360 0.017360
0.017456 0.017456 0.017456
0.017551 0.017551 0.017551
0.017647 0.017647 0.017647
0.017743 0.017743 0.017743
0.017840 0.017840 0.017840
0.017937 0.017937 0.017937
0.018035 0.018035 0.018035
0.018133 0.018133 0.018133
0.018231 0.018231 0.018231
0.018330 0.018330 0.018330
0.018429 0.018429 0.018429
0.018528 0.018528 0.018528
0.018628 0.018628 0.018628
0.018728 0.018728 0.018728
0.018829 0.018829 0.018829
0.018930 0.018930 0.018930
0.019031 0.019031 0.019031
0.019133 0.019133 0.019133
0.019236 0.019236 0.019236
0.019338 0.019338 0.019338
0.019441 0.019441 0.019441
0.019545 0.019545 0.019545
0.019649 0.019649 0.019649
0.019753 0.019753 0.019753
0.019857 0.019857 0.019857
0.019962 0.019962 0.019962
0.020068 0.020068 0.020068
0.020174 0.020174 0.020174
0.020280 0.020280 0.020280
0.020387 0.020387 0.020387
0.020494 0.020494 0.020494
0.020601 0.020601 0.020601
0.020709 0.020709 0.020709
0.020818 0.020818 0.020818
0.020927 0.020927 0.020927
0.021036 0.021036 0.021036
0.021145 0.021145 0.021145
0.021255 0.021255 0.021255
0.021366 0.021366 0.021366
0.021477 0.021477 0.021477
0.021588 0.021588 0.021588
0.021700 0.021700 0.021700
0.021812 0.021812 0.021812
0.021924 0.021924 0.021924
0.022037 0.022037 0.022037
0.022151 0.022151 0.022151
0.022265 0.022265 0.022265
0.022379 0.022379 0.022379
0.022494 0.022494 0.022494
0.022609 0.022609 0.022609
0.022724 0.022724 0.022724
0.022840 0.022840 0.022840
0.022957 0.022957 0.022957
0.023074 0.023074 0.023074
0.023191 0.023191 0.023191
0.023309 0.023309 0.023309
0.023427 0.023427 0.023427
0.023545 0.023545 0.023545
0.023665 0.023665 0.023665
0.023784 0.023784 0.023784
0.023904 0.023904 0.023904
0.024024 0.024024 0.024024
0.024145 0.024145 0.024145
0.024266 0.024266 0.024266
0.024388 0.024388 0.024388
0.024510 0.024510 0.024510
0.024633 0.024633 0.024633
0.024756 0.024756 0.024756
0.024880 0.024880 0.024880
0.025004 0.025004 0.025004
0.025128 0.025128 0.025128
0.025253 0.025253 0.025253
0.025378 0.025378 0.025378
0.025504 0.025504 0.025504
0.025630 0.025630 0.025630
0.025757 0.025757 0.025757
0.025884 0.025884 0.025884
0.026012 0.026012 0.026012
0.026140 0.026140 0.026140
0.026268 0.026268 0.026268
0.026397 0.026397 0.026397
0.026527 0.026527 0.026527
0.026657 0.026657 0.026657
0.026787 0.026787 0.026787
0.026918 0.026918 0.026918
0.027049 0.027049 0.027049
0.027181 0.027181 0.027181
0.027314 0.027314 0.027314
0.027446 0.027446 0.027446
0.027580 0.027580 0.027580
0.027713 0.027713 0.027713
0.027847 0.027847 0.027847
0.027982 0.027982 0.027982
0.028117 0.028117 0.028117
0.028253 0.028253 0.028253
0.028389 0.028389 0.028389
0.028526 0.028526 0.028526
0.028663 0.028663 0.028663
0.028800 0.028800 0.028800
0.028938 0.028938 0.028938
0.029077 0.029077 0.029077
0.029216 0.029216 0.029216
0.029355 0.029355 0.029355
0.029495 0.029495 0.029495
0.029636 0.029636 0.029636
0.029777 0.029777 0.029777
0.029918 0.029918 0.029918
0.030060 0.030060 0.030060
0.030202 0.030202 0.030202
0.030345 0.030345 0.030345
0.030489 0.030489 0.030489
0.030633 0.030633 0.030633
0.030777 0.030777 0.030777
0.030922 0.030922 0.030922
0.031068 0.031068 0.031068
0.031213 0.031213 0.031213
0.031360 0.031360 0.031360
0.031507 0.031507 0.031507
0.031654 0.031654 0.031654
0.031802 0.031802 0.031802
0.031951 0.031951 0.031951
0.032100 0.032100 0.032100
0.032249 0.032249 0.032249
0.032399 0.032399 0.032399
0.032550 0.032550 0.032550
0.032701 0.032701 0.032701
0.032852 0.032852 0.032852
0.033004 0.033004 0.033004
0.033157 0.033157 0.033157
0.033310 0.033310 0.033310
0.033463 0.033463 0.033463
0.033617 0.033617 0.033617
0.033772 0.033772 0.033772
0.033927 0.033927 0.033927
0.034083 0.034083 0.034083
0.034239 0.034239 0.034239
0.034396 0.034396 0.034396
0.034553 0.034553 0.034553
0.034711 0.034711 0.034711
0.034869 0.034869 0.034869
0.035028 0.035028 0.035028
0.035187 0.035187 0.035187
0.035347 0.035347 0.035347
0.035508 0.035508 0.035508
0.035669 0.035669 0.035669
0.035830 0.035830 0.035830
0.035992 0.035992 0.035992
0.036155 0.036155 0.036155
0.036318 0.036318 0.036318
0.036481 0.036481 0.036481
0.036646 0.036646 0.036646
0.036810 0.036810 0.036810
0.036976 0.036976 0.036976
0.037141 0.037141 0.037141
0.037308 0.037308 0.037308
0.037475 0.037475 0.037475
0.037642 0.037642 0.037642
0.037810 0.037810 0.037810
0.037979 0.037979 0.037979
0.038148 0.038148 0.038148
0.038317 0.038317 0.038317
0.038488 0.038488 0.038488
0.038658 0.038658 0.038658
0.038830 0.038830 0.038830
0.039002 0.039002 0.039002
0.039174 0.039174 0.039174
0.039347 0.039347 0.039347
0.039521 0.039521 0.039521
0.039695 0.039695 0.039695
0.039869 0.039869 0.039869
0.040045 0.040045 0.040045
0.040220 0.040220 0.040220
0.040397 0.040397 0.040397
0.040574 0.040574 0.040574
0.040751 0.040751 0.040751
0.040929 0.040929 0.040929
0.041108 0.041108 0.041108
0.041287 0.041287 0.041287
0.041467 0.041467 0.041467
0.041647 0.041647 0.041647
0.041828 0.041828 0.041828
0.042010 0.042010 0.042010
0.042192 0.042192 0.042192
0.042375 0.042375 0.042375
0.042558 0.042558 0.042558
0.042742 0.042742 0.042742
0.042926 0.042926 0.042926
0.043111 0.043111 0.043111
0.043297 0.043297 0.043297
0.043483 0.043483 0.043483
0.043670 0.043670 0.043670
0.043857 0.043857 0.043857
0.044045 0.044045 0.044045
0.044234 0.044234 0.044234
0.044423 0.044423 0.044423
0.044612 0.044612 0.044612
