config/curves/Kodak_2383.cube
# DiVERE Density Curve 1D LUT
LUT_1D_SIZE 65536
DOMAIN_MIN 0.0 0.0 0.0
DOMAIN_MAX 1.0 1.0 1.0

0.000083 0.000086 0.000096
0.000083 0.000086 0.000096
0.000083 0.000086 0.000096
0.000083 0.000086 0.000096
0.000083 0.000086 0.000096
0.000083 0.000086 0.000096
0.000083 0.000086 0.000096
0.000083 0.000086 0.000096
0.000083 0.000086 0.000096
0.000083 0.000086 0.000096
0.000083 0.000086 0.000096
0.000083 0.000086 0.000096
0.000083 0.000086 0.000096
0.000083 0.000086 0.000096
0.000083 0.000086 0.000096
0.000083 0.000086 0.000096
0.000083 0.000086 0.000096
0.000083 0.000086 0.000096
0.000083 0.000086 0.000096
0.000083 0.000086 0.000096
0.000083 0.000086 0.000096
0.000083 0.000086 0.000096
0.000083 0.000086 0.000096
0.000083 0.000086 0.000096
0.000083 0.000086 0.000096
0.000084 0.000086 0.000096
0.000084 0.000086 0.000096
0.000084 0.000086 0.000096
0.000084 0.000086 0.000096
0.000084 0.000086 0.000096
0.000084 0.000086 0.000096
0.000085 0.000086 0.000096
0.000085 0.000086 0.000096
0.000085 0.000086 0.000096
0.000085 0.000086 0.000096
0.000085 0.000086 0.000096
0.000086 0.000086 0.000096
0.000087 0.000086 0.000096
0.000087 0.000086 0.000096
0.000088 0.000087 0.000096
0.000088 0.000087 0.000096
0.000089 0.000087 0.000096
0.000090 0.000087 0.000096
0.000090 0.000087 0.000096
0.000091 0.000087 0.000096
0.000091 0.000087 0.000096
0.000092 0.000087 0.000096
0.000093 0.000087 0.000096
0.000093 0.000087 0.000096
0.000094 0.000087 0.000096
0.000094 0.000088 0.000096
0.000095 0.000088 0.000096
0.000096 0.000088 0.000096
0.000097 0.000088 0.000096
0.000098 0.000088 0.000096
0.000099 0.000088 0.000096
0.000101 0.000089 0.000096
0.000102 0.000089 0.000096
0.000103 0.000089 0.000096
0.000104 0.000089 0.000096
0.000105 0.000089 0.000096
0.000106 0.000089 0.000096
0.000107 0.000089 0.000096
0.000108 0.000089 0.000096
0.000109 0.000090 0.000096
0.000110 0.000090 0.000096
0.000110 0.000090 0.000096
0.000111 0.000090 0.000096
0.000112 0.000090 0.000096
0.000113 0.000090 0.000096
0.000114 0.000091 0.000096
0.000115 0.000091 0.000097
0.000117 0.000091 0.000097
0.000118 0.000092 0.000097
0.000120 0.000092 0.000097
0.000122 0.000092 0.000097
0.000124 0.000093 0.000097
0.000125 0.000093 0.000097
0.000127 0.000093 0.000097
0.000129 0.000094 0.000097
0.000131 0.000094 0.000097
0.000133 0.000094 0.000097
0.000134 0.000095 0.000098
0.000136 0.000095 0.000098
0.000138 0.000095 0.000098
0.000140 0.000095 0.000098
0.000141 0.000096 0.000098
0.000143 0.000096 0.000098
0.000145 0.000096 0.000098
0.000147 0.000097 0.000098
0.000149 0.000097 0.000098
0.000150 0.000097 0.000098
0.000152 0.000097 0.000098
0.000154 0.000098 0.000099
0.000156 0.000098 0.000099
0.000158 0.000098 0.000099
0.000159 0.000099 0.000099
0.000161 0.000099 0.000099
0.000163 0.000099 0.000099
0.000165 0.000100 0.000099
0.000167 0.000100 0.000099
0.000168 0.000101 0.000099
0.000170 0.000101 0.000100
0.000173 0.000102 0.000100
0.000176 0.000103 0.000100
0.000179 0.000103 0.000100
0.000182 0.000104 0.000100
0.000186 0.000105 0.000100
0.000189 0.000105 0.000100
0.000192 0.000106 0.000100
0.000196 0.000106 0.000101
0.000199 0.000107 0.000101
0.000202 0.000108 0.000101
0.000206 0.000108 0.000101
0.000209 0.000109 0.000101
0.000213 0.000109 0.000101
0.000216 0.000110 0.000101
0.000220 0.000111 0.000101
0.000223 0.000111 0.000102
0.000227 0.000112 0.000102
0.000230 0.000112 0.000102
0.000234 0.000113 0.000102
0.000237 0.000114 0.000102
0.000241 0.000114 0.000102
0.000245 0.000115 0.000102
0.000249 0.000115 0.000102
0.000252 0.000116 0.000102
0.000256 0.000117 0.000103
0.000260 0.000117 0.000103
0.000264 0.000118 0.000103
0.000267 0.000118 0.000103
0.000271 0.000119 0.000103
0.000275 0.000119 0.000103
0.000279 0.000120 0.000103
0.000283 0.000121 0.000103
0.000287 0.000121 0.000103
0.000291 0.000122 0.000104
0.000295 0.000122 0.000104
0.000299 0.000123 0.000104
0.000303 0.000123 0.000104
0.000307 0.000124 0.000104
0.000312 0.000125 0.000104
0.000316 0.000126 0.000105
0.000320 0.000127 0.000105
0.000324 0.000128 0.000105
0.000328 0.000129 0.000105
0.000333 0.000130 0.000105
0.000338 0.000131 0.000105
0.000345 0.000132 0.000105
0.000351 0.000133 0.000106
0.000358 0.000134 0.000106
0.000366 0.000135 0.000106
0.000373 0.000136 0.000106
0.000380 0.000137 0.000106
0.000388 0.000138 0.000106
0.000395 0.000139 0.000107
0.000403 0.000140 0.000107
0.000410 0.000141 0.000107
0.000418 0.000142 0.000107
0.000426 0.000143 0.000107
0.000434 0.000144 0.000107
0.000442 0.000145 0.000108
0.000450 0.000147 0.000108
0.000459 0.000148 0.000108
0.000467 0.000149 0.000108
0.000475 0.000150 0.000108
0.000484 0.000151 0.000108
0.000493 0.000152 0.000108
0.000501 0.000153 0.000109
0.000510 0.000154 0.000109
0.000519 0.000155 0.000109
0.000528 0.000156 0.000109
0.000538 0.000157 0.000109
0.000547 0.000158 0.000109
0.000556 0.000159 0.000109
0.000566 0.000160 0.000110
0.000575 0.000162 0.000110
0.000585 0.000163 0.000110
0.000595 0.000164 0.000110
0.000605 0.000165 0.000110
0.000615 0.000166 0.000110
0.000625 0.000167 0.000110
0.000636 0.000168 0.000111
0.000646 0.000169 0.000111
0.000656 0.000170 0.000111
0.000667 0.000171 0.000111
0.000678 0.000172 0.000111
0.000689 0.000173 0.000111
0.000700 0.000175 0.000111
0.000711 0.000176 0.000111
0.000722 0.000177 0.000112
0.000733 0.000178 0.000112
0.000745 0.000179 0.000112
0.000756 0.000180 0.000112
0.000768 0.000181 0.000112
0.000780 0.000182 0.000112
0.000791 0.000183 0.000112
0.000803 0.000184 0.000113
0.000816 0.000186 0.000113
0.000828 0.000187 0.000113
0.000840 0.000188 0.000113
0.000853 0.000189 0.000114
0.000865 0.000190 0.000114
0.000878 0.000192 0.000114
0.000891 0.000194 0.000114
0.000904 0.000195 0.000114
0.000917 0.000197 0.000115
0.000930 0.000199 0.000115
0.000944 0.000201 0.000115
0.000957 0.000203 0.000115
0.000971 0.000205 0.000116
0.000990 0.000207 0.000116
0.001010 0.000209 0.000116
0.001030 0.000211 0.000116
0.001051 0.000213 0.000116
0.001071 0.000215 0.000117
0.001092 0.000217 0.000117
0.001114 0.000219 0.000117
0.001135 0.000221 0.000117
0.001157 0.000223 0.000117
0.001180 0.000225 0.000118
0.001202 0.000227 0.000118
0.001225 0.000229 0.000118
0.001248 0.000231 0.000118
0.001272 0.000233 0.000119
0.001296 0.000235 0.000119
0.001320 0.000237 0.000119
0.001345 0.000240 0.000119
0.001370 0.000242 0.000119
0.001395 0.000244 0.000120
0.001421 0.000246 0.000120
0.001447 0.000248 0.000120
0.001473 0.000250 0.000120
0.001500 0.000252 0.000120
0.001527 0.000255 0.000121
0.001555 0.000257 0.000121
0.001583 0.000259 0.000121
0.001611 0.000261 0.000121
0.001639 0.000263 0.000121
0.001668 0.000266 0.000122
0.001698 0.000268 0.000122
0.001728 0.000270 0.000122
0.001758 0.000272 0.000122
0.001789 0.000275 0.000122
0.001820 0.000277 0.000123
0.001851 0.000279 0.000123
0.001883 0.000281 0.000123
0.001915 0.000284 0.000123
0.001948 0.000286 0.000123
0.001981 0.000288 0.000124
0.002014 0.000291 0.000124
0.002048 0.000293 0.000124
0.002083 0.000295 0.000124
0.002117 0.000298 0.000124
0.002153 0.000300 0.000125
0.002188 0.000302 0.000125
0.002225 0.000305 0.000125
0.002261 0.000307 0.000125
0.002298 0.000309 0.000125
0.002336 0.000312 0.000125
0.002374 0.000314 0.000126
0.002412 0.000317 0.000126
0.002451 0.000319 0.000126
0.002491 0.000322 0.000126
0.002530 0.000324 0.000126
0.002571 0.000326 0.000127
0.002612 0.000329 0.000127
0.002653 0.000331 0.000127
0.002695 0.000334 0.000127
0.002737 0.000336 0.000127
0.002780 0.000339 0.000128
0.002823 0.000341 0.000128
0.002867 0.000344 0.000128
0.002912 0.000346 0.000128
0.002957 0.000349 0.000128
0.003002 0.000351 0.000128
0.003048 0.000354 0.000129
0.003095 0.000357 0.000129
0.003142 0.000359 0.000129
0.003189 0.000362 0.000129
0.003237 0.000364 0.000129
0.003286 0.000367 0.000130
0.003335 0.000370 0.000130
0.003385 0.000372 0.000130
0.003435 0.000375 0.000131
0.003486 0.000378 0.000131
0.003538 0.000380 0.000131
0.003590 0.000383 0.000132
0.003642 0.000385 0.000132
0.003696 0.000388 0.000133
0.003750 0.000391 0.000133
0.003804 0.000395 0.000133
0.003859 0.000399 0.000134
0.003915 0.000403 0.000134
0.003971 0.000407 0.000134
0.004028 0.000411 0.000135
0.004085 0.000415 0.000135
0.004143 0.000419 0.000136
0.004202 0.000423 0.000136
0.004261 0.000427 0.000136
0.004321 0.000431 0.000137
0.004384 0.000435 0.000137
0.004452 0.000439 0.000137
0.004520 0.000443 0.000138
0.004590 0.000448 0.000138
0.004660 0.000452 0.000138
0.004732 0.000456 0.000139
0.004804 0.000460 0.000139
0.004877 0.000465 0.000140
0.004951 0.000469 0.000140
0.005025 0.000473 0.000140
0.005101 0.000478 0.000141
0.005177 0.000482 0.000141
0.005255 0.000487 0.000141
0.005333 0.000491 0.000142
0.005412 0.000496 0.000142
0.005492 0.000500 0.000142
0.005573 0.000505 0.000143
0.005655 0.000509 0.000143
0.005738 0.000514 0.000144
0.005822 0.000519 0.000144
0.005907 0.000523 0.000144
0.005993 0.000528 0.000145
0.006079 0.000533 0.000145
0.006167 0.000537 0.000145
0.006256 0.000542 0.000146
0.006346 0.000547 0.000146
0.006436 0.000552 0.000146
0.006528 0.000557 0.000147
0.006621 0.000561 0.000147
0.006715 0.000566 0.000147
0.006809 0.000571 0.000148
0.006905 0.000576 0.000148
0.007002 0.000581 0.000149
0.007100 0.000586 0.000149
0.007199 0.000591 0.000149
0.007299 0.000596 0.000150
0.007401 0.000601 0.000150
0.007503 0.000607 0.000150
0.007607 0.000612 0.000151
0.007711 0.000617 0.000151
0.007817 0.000622 0.000151
0.007924 0.000627 0.000152
0.008032 0.000633 0.000152
0.008141 0.000638 0.000152
0.008251 0.000643 0.000153
0.008362 0.000649 0.000153
0.008475 0.000654 0.000154
0.008589 0.000659 0.000154
0.008704 0.000665 0.000154
0.008820 0.000670 0.000155
0.008938 0.000676 0.000155
0.009056 0.000681 0.000155
0.009176 0.000687 0.000156
0.009297 0.000693 0.000156
0.009420 0.000698 0.000156
0.009543 0.000704 0.000157
0.009668 0.000710 0.000157
0.009794 0.000715 0.000157
0.009922 0.000721 0.000158
0.010050 0.000727 0.000158
0.010181 0.000733 0.000158
0.010312 0.000738 0.000159
0.010445 0.000744 0.000159
0.010579 0.000750 0.000160
0.010714 0.000756 0.000160
0.010851 0.000762 0.000160
0.010989 0.000768 0.000161
0.011128 0.000774 0.000161
0.011269 0.000780 0.000161
0.011412 0.000786 0.000162
0.011555 0.000792 0.000162
0.011700 0.000798 0.000162
0.011847 0.000804 0.000163
0.011995 0.000811 0.000163
0.012144 0.000817 0.000163
0.012295 0.000823 0.000164
0.012447 0.000829 0.000164
0.012601 0.000836 0.000164
0.012756 0.000842 0.000165
0.012913 0.000848 0.000165
0.013071 0.000855 0.000165
0.013231 0.000861 0.000166
0.013393 0.000868 0.000166
0.013555 0.000874 0.000167
0.013720 0.000881 0.000167
0.013886 0.000887 0.000167
0.014053 0.000894 0.000168
0.014223 0.000901 0.000168
0.014393 0.000907 0.000168
0.014566 0.000914 0.000169
0.014739 0.000921 0.000169
0.014915 0.000928 0.000169
0.015092 0.000934 0.000170
0.015271 0.000941 0.000170
0.015452 0.000948 0.000170
0.015634 0.000955 0.000171
0.015818 0.000962 0.000171
0.016003 0.000969 0.000171
0.016190 0.000976 0.000172
0.016379 0.000983 0.000172
0.016570 0.000990 0.000172
0.016762 0.000997 0.000173
0.016957 0.001004 0.000173
0.017153 0.001011 0.000174
0.017350 0.001018 0.000174
0.017550 0.001026 0.000175
0.017751 0.001033 0.000176
0.017954 0.001040 0.000176
0.018159 0.001048 0.000177
0.018366 0.001055 0.000178
0.018574 0.001062 0.000178
0.018785 0.001070 0.000179
0.018997 0.001077 0.000180
0.019211 0.001085 0.000180
0.019427 0.001092 0.000181
0.019645 0.001102 0.000182
0.019865 0.001112 0.000182
0.020087 0.001122 0.000183
0.020310 0.001133 0.000184
0.020536 0.001143 0.000184
0.020764 0.001154 0.000185
0.020993 0.001164 0.000186
0.021225 0.001175 0.000186
0.021459 0.001186 0.000187
0.021694 0.001197 0.000188
0.021932 0.001207 0.000188
0.022171 0.001218 0.000189
0.022413 0.001229 0.000190
0.022657 0.001241 0.000190
0.022903 0.001252 0.000191
0.023140 0.001263 0.000192
0.023360 0.001274 0.000192
0.023581 0.001286 0.000193
0.023804 0.001297 0.000194
0.024029 0.001309 0.000194
0.024255 0.001321 0.000195
0.024483 0.001332 0.000196
0.024712 0.001344 0.000196
0.024943 0.001356 0.000197
0.025176 0.001368 0.000198
0.025410 0.001380 0.000198
0.025646 0.001392 0.000199
0.025884 0.001404 0.000200
0.026123 0.001417 0.000200
0.026364 0.001429 0.000201
0.026607 0.001441 0.000202
0.026851 0.001454 0.000202
0.027097 0.001466 0.000203
0.027344 0.001479 0.000204
0.027594 0.001492 0.000205
0.027845 0.001505 0.000205
0.028098 0.001518 0.000206
0.028352 0.001531 0.000207
0.028608 0.001544 0.000207
0.028866 0.001557 0.000208
0.029126 0.001570 0.000209
0.029388 0.001583 0.000209
0.029651 0.001597 0.000210
0.029916 0.001610 0.000211
0.030183 0.001624 0.000211
0.030451 0.001638 0.000212
0.030722 0.001651 0.000213
0.030994 0.001665 0.000214
0.031268 0.001679 0.000214
0.031544 0.001693 0.000215
0.031822 0.001707 0.000216
0.032101 0.001721 0.000216
0.032383 0.001736 0.000217
0.032666 0.001750 0.000218
0.032951 0.001764 0.000218
0.033238 0.001779 0.000219
0.033527 0.001794 0.000220
0.033818 0.001808 0.000221
0.034110 0.001823 0.000221
0.034405 0.001838 0.000222
0.034702 0.001853 0.000223
0.035000 0.001868 0.000223
0.035300 0.001883 0.000224
0.035603 0.001898 0.000225
0.035907 0.001914 0.000225
0.036213 0.001929 0.000226
0.036521 0.001945 0.000227
0.036832 0.001960 0.000228
0.037144 0.001976 0.000228
0.037458 0.001992 0.000229
0.037774 0.002008 0.000230
0.038092 0.002024 0.000230
0.038412 0.002040 0.000231
0.038734 0.002056 0.000232
0.039059 0.002072 0.000233
0.039385 0.002089 0.000233
0.039713 0.002105 0.000234
0.040044 0.002122 0.000235
0.040376 0.002138 0.000235
0.040711 0.002155 0.000236
0.041047 0.002172 0.000237
0.041386 0.002189 0.000238
0.041727 0.002206 0.000238
0.042070 0.002223 0.000239
0.042415 0.002240 0.000240
0.042762 0.002258 0.000241
0.043111 0.002275 0.000241
0.043463 0.002293 0.000242
0.043817 0.002310 0.000243
0.044172 0.002328 0.000243
0.044530 0.002346 0.000244
0.044891 0.002364 0.000245
0.045253 0.002382 0.000246
0.045618 0.002400 0.000246
0.045984 0.002418 0.000247
0.046353 0.002437 0.000248
0.046725 0.002455 0.000249
0.047098 0.002474 0.000249
0.047474 0.002492 0.000250
0.047852 0.002511 0.000251
0.048232 0.002530 0.000251
0.048615 0.002549 0.000252
0.049000 0.002568 0.000253
0.049387 0.002587 0.000254
0.049776 0.002606 0.000254
0.050168 0.002626 0.000255
0.050562 0.002645 0.000256
0.050958 0.002665 0.000257
0.051357 0.002685 0.000257
0.051758 0.002704 0.000258
0.052162 0.002724 0.000259
0.052567 0.002744 0.000260
0.052976 0.002765 0.000260
0.053386 0.002785 0.000261
0.053799 0.002805 0.000262
0.054215 0.002826 0.000263
0.054632 0.002846 0.000263
0.055053 0.002867 0.000264
0.055475 0.002888 0.000265
0.055900 0.002909 0.000266
0.056328 0.002930 0.000266
0.056758 0.002951 0.000267
0.057191 0.002972 0.000268
0.057626 0.002994 0.000269
0.058063 0.003015 0.000269
0.058503 0.003037 0.000270
0.058946 0.003058 0.000271
0.059391 0.003080 0.000272
0.059838 0.003102 0.000272
0.060288 0.003124 0.000273
0.060741 0.003146 0.000274
0.061196 0.003169 0.000275
0.061654 0.003191 0.000275
0.062114 0.003214 0.000276
0.062577 0.003236 0.000277
0.063043 0.003259 0.000278
0.063511 0.003282 0.000278
0.063982 0.003305 0.000279
0.064455 0.003328 0.000280
0.064931 0.003351 0.000281
0.065410 0.003375 0.000281
0.065891 0.003398 0.000282
0.066375 0.003422 0.000283
0.066862 0.003446 0.000284
0.067351 0.003469 0.000284
0.067844 0.003493 0.000285
0.068338 0.003517 0.000286
0.068836 0.003542 0.000287
0.069336 0.003566 0.000288
0.069839 0.003590 0.000288
0.070345 0.003615 0.000289
0.070853 0.003640 0.000290
0.071365 0.003665 0.000291
0.071879 0.003690 0.000291
0.072396 0.003715 0.000292
0.072915 0.003740 0.000293
0.073438 0.003765 0.000294
0.073963 0.003791 0.000295
0.074491 0.003816 0.000295
0.075022 0.003842 0.000296
0.075556 0.003868 0.000297
0.076092 0.003894 0.000298
0.076632 0.003920 0.000299
0.077174 0.003946 0.000300
0.077720 0.003973 0.000301
0.078268 0.003999 0.000303
0.078819 0.004026 0.000304
0.079373 0.004052 0.000306
0.079930 0.004079 0.000307
0.080490 0.004106 0.000308
0.081053 0.004134 0.000310
0.081619 0.004161 0.000311
0.082188 0.004188 0.000313
0.082760 0.004216 0.000314
0.083334 0.004243 0.000315
0.083912 0.004271 0.000317
0.084493 0.004299 0.000318
0.085077 0.004327 0.000320
0.085664 0.004356 0.000321
0.086254 0.004384 0.000323
0.086847 0.004415 0.000324
0.087443 0.004446 0.000325
0.088042 0.004477 0.000327
0.088645 0.004508 0.000328
0.089250 0.004540 0.000330
0.089858 0.004572 0.000331
0.090470 0.004604 0.000333
0.091085 0.004636 0.000334
0.091703 0.004668 0.000336
0.092324 0.004700 0.000337
0.092948 0.004733 0.000339
0.093576 0.004766 0.000340
0.094206 0.004799 0.000342
0.094840 0.004832 0.000343
0.095477 0.004865 0.000345
0.096117 0.004898 0.000346
0.096761 0.004932 0.000348
0.097408 0.004966 0.000349
0.098058 0.005000 0.000351
0.098711 0.005034 0.000352
0.099368 0.005068 0.000354
0.099967 0.005103 0.000355
0.100451 0.005137 0.000357
0.100936 0.005172 0.000359
0.101423 0.005207 0.000360
0.101911 0.005242 0.000362
0.102401 0.005278 0.000363
0.102893 0.005313 0.000365
0.103386 0.005349 0.000366
0.103880 0.005385 0.000368
0.104377 0.005421 0.000369
0.104875 0.005458 0.000371
0.105374 0.005494 0.000373
0.105875 0.005531 0.000374
0.106377 0.005568 0.000376
0.106881 0.005605 0.000377
0.107387 0.005642 0.000379
0.107894 0.005679 0.000381
0.108403 0.005717 0.000382
0.108914 0.005755 0.000384
0.109426 0.005793 0.000385
0.109939 0.005831 0.000387
0.110455 0.005869 0.000389
0.110972 0.005908 0.000390
0.111490 0.005947 0.000392
0.112010 0.005986 0.000394
0.112532 0.006025 0.000395
0.113055 0.006064 0.000397
0.113580 0.006104 0.000399
0.114106 0.006143 0.000400
0.114635 0.006183 0.000402
0.115164 0.006224 0.000403
0.115696 0.006264 0.000405
0.116229 0.006304 0.000407
0.116763 0.006345 0.000409
0.117300 0.006386 0.000410
0.117838 0.006427 0.000412
0.118377 0.006469 0.000414
0.118918 0.006510 0.000415
0.119461 0.006552 0.000417
0.120006 0.006594 0.000419
0.120552 0.006636 0.000420
0.121099 0.006678 0.000422
0.121649 0.006721 0.000424
0.122200 0.006764 0.000426
0.122753 0.006807 0.000427
0.123307 0.006850 0.000429
0.123863 0.006893 0.000431
0.124421 0.006937 0.000432
0.124980 0.006980 0.000434
0.125541 0.007024 0.000436
0.126104 0.007069 0.000438
0.126668 0.007113 0.000439
0.127234 0.007158 0.000441
0.127802 0.007203 0.000443
0.128372 0.007248 0.000445
0.128943 0.007293 0.000446
0.129515 0.007338 0.000448
0.130090 0.007384 0.000450
0.130666 0.007430 0.000452
0.131244 0.007476 0.000454
0.131824 0.007523 0.000455
0.132405 0.007569 0.000457
0.132988 0.007616 0.000459
0.133572 0.007663 0.000461
0.134159 0.007710 0.000463
0.134747 0.007758 0.000464
0.135337 0.007805 0.000466
0.135928 0.007853 0.000468
0.136521 0.007902 0.000470
0.137116 0.007950 0.000472
0.137713 0.007998 0.000474
0.138311 0.008047 0.000475
0.138911 0.008096 0.000477
0.139513 0.008146 0.000479
0.140117 0.008195 0.000481
0.140722 0.008245 0.000483
0.141329 0.008295 0.000485
0.141938 0.008345 0.000487
0.142548 0.008395 0.000488
0.143161 0.008446 0.000490
0.143775 0.008497 0.000492
0.144390 0.008548 0.000494
0.145008 0.008599 0.000496
0.145627 0.008651 0.000498
0.146248 0.008703 0.000500
0.146871 0.008755 0.000502
0.147495 0.008807 0.000504
0.148122 0.008859 0.000506
0.148750 0.008912 0.000507
0.149380 0.008965 0.000509
0.150011 0.009018 0.000511
0.150644 0.009072 0.000513
0.151280 0.009126 0.000515
0.151917 0.009180 0.000517
0.152555 0.009234 0.000519
0.153196 0.009288 0.000521
0.153838 0.009343 0.000523
0.154482 0.009398 0.000525
0.155128 0.009453 0.000527
0.155775 0.009508 0.000529
0.156425 0.009564 0.000531
0.157076 0.009620 0.000533
0.157729 0.009676 0.000535
0.158384 0.009733 0.000537
0.159040 0.009789 0.000539
0.159699 0.009846 0.000541
0.160359 0.009903 0.000543
0.161021 0.009961 0.000545
0.161685 0.010018 0.000547
0.162351 0.010076 0.000549
0.163018 0.010135 0.000551
0.163687 0.010193 0.000553
0.164359 0.010252 0.000555
0.165031 0.010311 0.000557
0.165706 0.010370 0.000559
0.166383 0.010429 0.000561
0.167061 0.010489 0.000563
0.167742 0.010549 0.000565
0.168424 0.010609 0.000567
0.169108 0.010670 0.000569
0.169793 0.010731 0.000571
0.170481 0.010792 0.000573
0.171171 0.010853 0.000576
0.171862 0.010914 0.000578
0.172555 0.010976 0.000580
0.173250 0.011038 0.000582
0.173947 0.011101 0.000584
0.174646 0.011163 0.000586
0.175347 0.011226 0.000588
0.176049 0.011289 0.000590
0.176753 0.011353 0.000592
0.177460 0.011416 0.000594
0.178168 0.011480 0.000597
0.178878 0.011545 0.000599
0.179590 0.011609 0.000601
0.180303 0.011674 0.000603
0.181019 0.011739 0.000605
0.181737 0.011804 0.000607
0.182456 0.011870 0.000609
0.183177 0.011936 0.000612
0.183900 0.012002 0.000614
0.184626 0.012069 0.000616
0.185352 0.012135 0.000618
0.186081 0.012202 0.000620
0.186812 0.012270 0.000622
0.187545 0.012337 0.000625
0.188279 0.012405 0.000627
0.189016 0.012473 0.000629
0.189754 0.012542 0.000631
0.190495 0.012610 0.000633
0.191237 0.012679 0.000636
0.191981 0.012749 0.000638
0.192727 0.012818 0.000640
0.193475 0.012888 0.000642
0.194225 0.012958 0.000645
0.194977 0.013029 0.000647
0.195731 0.013099 0.000649
0.196486 0.013170 0.000651
0.197244 0.013242 0.000653
0.198004 0.013313 0.000656
0.198765 0.013385 0.000658
0.199529 0.013457 0.000660
0.200294 0.013530 0.000663
0.201062 0.013603 0.000665
0.201831 0.013676 0.000667
0.202602 0.013749 0.000669
0.203375 0.013823 0.000672
0.204151 0.013897 0.000674
0.204928 0.013971 0.000676
0.205707 0.014046 0.000679
0.206488 0.014121 0.000681
0.207271 0.014196 0.000683
0.208056 0.014271 0.000685
0.208843 0.014347 0.000688
0.209632 0.014423 0.000690
0.210423 0.014500 0.000692
0.211216 0.014576 0.000695
0.212011 0.014653 0.000697
0.212808 0.014731 0.000700
0.213607 0.014808 0.000702
0.214408 0.014886 0.000704
0.215211 0.014965 0.000707
0.216015 0.015043 0.000709
0.216822 0.015122 0.000711
0.217631 0.015201 0.000714
0.218442 0.015281 0.000716
0.219255 0.015361 0.000718
0.220070 0.015441 0.000721
0.220887 0.015521 0.000723
0.221706 0.015602 0.000726
0.222527 0.015683 0.000728
0.223350 0.015765 0.000730
0.224175 0.015847 0.000733
0.225002 0.015929 0.000735
0.225831 0.016011 0.000738
0.226662 0.016094 0.000740
0.227495 0.016177 0.000743
0.228330 0.016260 0.000745
0.229167 0.016344 0.000747
0.230006 0.016428 0.000750
0.230847 0.016512 0.000752
0.231691 0.016597 0.000755
0.232536 0.016682 0.000757
0.233383 0.016768 0.000760
0.234233 0.016853 0.000762
0.235084 0.016939 0.000765
0.235938 0.017026 0.000767
0.236793 0.017112 0.000770
0.237651 0.017199 0.000772
0.238510 0.017287 0.000775
0.239372 0.017374 0.000777
0.240236 0.017462 0.000780
0.241102 0.017551 0.000783
0.241970 0.017640 0.000787
0.242840 0.017729 0.000791
0.243712 0.017818 0.000795
0.244586 0.017908 0.000799
0.245462 0.017998 0.000803
0.246341 0.018088 0.000807
0.247221 0.018179 0.000811
0.248104 0.018270 0.000815
0.248988 0.018362 0.000819
0.249875 0.018453 0.000823
0.250764 0.018546 0.000827
0.251655 0.018638 0.000831
0.252548 0.018731 0.000835
0.253443 0.018824 0.000839
0.254340 0.018918 0.000844
0.255239 0.019012 0.000848
0.256141 0.019106 0.000852
0.257044 0.019201 0.000856
0.257950 0.019296 0.000861
0.258858 0.019391 0.000865
0.259768 0.019487 0.000869
0.260680 0.019583 0.000873
0.261594 0.019679 0.000878
0.262510 0.019773 0.000882
0.263428 0.019856 0.000886
0.264349 0.019940 0.000891
0.265272 0.020024 0.000895
0.266196 0.020108 0.000899
0.267123 0.020193 0.000904
0.268052 0.020277 0.000908
0.268984 0.020362 0.000913
0.269917 0.020448 0.000917
0.270853 0.020533 0.000922
0.271790 0.020619 0.000926
0.272730 0.020705 0.000931
0.273672 0.020791 0.000935
0.274616 0.020878 0.000940
0.275563 0.020965 0.000944
0.276511 0.021052 0.000949
0.277462 0.021139 0.000953
0.278415 0.021227 0.000958
0.279370 0.021315 0.000963
0.280327 0.021403 0.000967
0.281286 0.021491 0.000972
0.282248 0.021580 0.000977
0.283211 0.021669 0.000981
0.284177 0.021758 0.000986
0.285145 0.021848 0.000991
0.286115 0.021937 0.000995
0.287088 0.022027 0.001000
0.288063 0.022118 0.001005
0.289039 0.022208 0.001010
0.290018 0.022299 0.001015
0.291000 0.022390 0.001019
0.291522 0.022481 0.001024
