config/curves/Kodak_Ektacolor_Endura.cube
# DiVERE Density Curve 1D LUT
LUT_1D_SIZE 65536
DOMAIN_MIN 0.0 0.0 0.0
DOMAIN_MAX 1.0 1.0 1.0

0.003438 0.002796 0.004570
0.003438 0.002796 0.004570
0.003438 0.002796 0.004570
0.003438 0.002796 0.004570
0.003438 0.002796 0.004570
0.003438 0.002796 0.004570
0.003438 0.002796 0.004570
0.003438 0.002796 0.004570
0.003438 0.002796 0.004570
0.003438 0.002796 0.004570
0.003438 0.002796 0.004570
0.003438 0.002796 0.004570
0.003438 0.002796 0.004570
0.003438 0.002796 0.004570
0.003438 0.002796 0.004570
0.003438 0.002796 0.004570
0.003438 0.002796 0.004570
0.003438 0.002796 0.004570
0.003438 0.002796 0.004570
0.003438 0.002796 0.004570
0.003438 0.002796 0.004570
0.003438 0.002796 0.004570
0.003438 0.002796 0.004570
0.003438 0.002796 0.004570
0.003438 0.002796 0.004570
0.003438 0.002796 0.004570
0.003438 0.002796 0.004570
0.003438 0.002796 0.004570
0.003438 0.002796 0.004570
0.003438 0.002796 0.004570
0.003438 0.002796 0.004570
0.003438 0.002796 0.004570
0.003438 0.002796 0.004570
0.003438 0.002796 0.004570
0.003438 0.002796 0.004570
0.003438 0.002796 0.004570
0.003438 0.002796 0.004570
0.003438 0.002796 0.004570
0.003438 0.002796 0.004570
0.003438 0.002796 0.004570
0.003438 0.002796 0.004570
0.003438 0.002796 0.004570
0.003438 0.002796 0.004570
0.003438 0.002796 0.004570
0.003438 0.002796 0.004570
0.003438 0.002796 0.004570
0.003438 0.002796 0.004570
0.003438 0.002796 0.004570
0.003438 0.002796 0.004570
0.003438 0.002796 0.004570
0.003438 0.002796 0.004570
0.003438 0.002796 0.004570
0.003438 0.002796 0.004570
0.003438 0.002796 0.004570
0.003438 0.002796 0.004570
0.003438 0.002796 0.004570
0.003438 0.002796 0.004570
0.003438 0.002796 0.004570
0.003438 0.002796 0.004570
0.003438 0.002796 0.004570
0.003438 0.002796 0.004570
0.003438 0.002796 0.004570
0.003438 0.002796 0.004570
0.003438 0.002796 0.004570
0.003438 0.002796 0.004570
0.003438 0.002796 0.004570
0.003438 0.002796 0.004570
0.003438 0.002796 0.004570
0.003438 0.002796 0.004570
0.003438 0.002796 0.004570
0.003438 0.002796 0.004570
0.003438 0.002796 0.004570
0.003438 0.002796 0.004570
0.003438 0.002796 0.004570
0.003438 0.002796 0.004570
0.003438 0.002796 0.004570
0.003438 0.002796 0.004570
0.003438 0.002796 0.004570
0.003438 0.002796 0.004570
0.003438 0.002796 0.004570
0.003438 0.002796 0.004570
0.003438 0.002796 0.004570
0.003438 0.002796 0.004570
0.003438 0.002796 0.004570
0.003438 0.002796 0.004570
0.003438 0.002796 0.004570
0.003438 0.002796 0.004570
0.003438 0.002796 0.004570
0.003438 0.002796 0.004570
0.003438 0.002796 0.004570
0.003438 0.002796 0.004570
0.003438 0.002796 0.004570
0.003438 0.002796 0.004570
0.003438 0.002796 0.004570
0.003438 0.002796 0.004570
0.003438 0.002796 0.004570
0.003438 0.002796 0.004570
0.003438 0.002796 0.004570
0.003438 0.002796 0.004570
0.003438 0.002796 0.004570
0.003438 0.002796 0.004570
0.003438 0.002796 0.004570
0.003438 0.002796 0.004570
0.003438 0.002796 0.004570
0.003438 0.002796 0.004570
0.003438 0.002796 0.004570
0.003438 0.002796 0.004570
0.003438 0.002796 0.004570
0.003438 0.002796 0.004570
0.003438 0.002796 0.004570
0.003438 0.002796 0.004570
0.003438 0.002796 0.004570
0.003438 0.002796 0.004570
0.003438 0.002796 0.004570
0.003438 0.002796 0.004570
0.003438 0.002796 0.004570
0.003438 0.002796 0.004570
0.003438 0.002796 0.004570
0.003438 0.002796 0.004570
0.003438 0.002796 0.004570
0.003438 0.002796 0.004570
0.003438 0.002796 0.004570
0.003438 0.002796 0.004570
0.003438 0.002796 0.004570
0.003438 0.002796 0.004570
0.003438 0.002796 0.004570
0.003438 0.002796 0.004570
0.003438 0.002796 0.004570
0.003438 0.002796 0.004570
0.003438 0.002796 0.004570
0.003438 0.002796 0.004570
0.003438 0.002796 0.004570
0.003438 0.002796 0.004570
0.003438 0.002796 0.004570
0.003438 0.002796 0.004570
0.003438 0.002796 0.004570
0.003438 0.002796 0.004570
0.003438 0.002796 0.004570
0.003438 0.002796 0.004570
0.003438 0.002796 0.004570
0.003438 0.002796 0.004570
0.003438 0.002796 0.004570
0.003438 0.002796 0.004570
0.003438 0.002796 0.004570
0.003438 0.002796 0.004570
0.003438 0.002796 0.004570
0.003438 0.002796 0.004570
0.003438 0.002796 0.004570
0.003438 0.002796 0.004570
0.003438 0.002796 0.004570
0.003438 0.002796 0.004570
0.003438 0.002796 0.004570
0.003438 0.002796 0.004570
0.003438 0.002796 0.004570
0.003438 0.002796 0.004570
0.003438 0.002796 0.004570
0.003438 0.002796 0.004570
0.003438 0.002796 0.004570
0.003438 0.002796 0.004570
0.003438 0.002796 0.004570
0.003438 0.002796 0.004570
0.003438 0.002796 0.004570
0.003438 0.002796 0.004570
0.003438 0.002796 0.004570
0.003438 0.002796 0.004570
0.003438 0.002796 0.004570
0.003438 0.002796 0.004570
0.003438 0.002796 0.004570
0.003438 0.002796 0.004570
0.003438 0.002796 0.004570
0.003438 0.002796 0.004570
0.003438 0.002796 0.004570
0.003438 0.002796 0.004570
0.003438 0.002796 0.004570
0.003438 0.002796 0.004570
0.003438 0.002796 0.004570
0.003438 0.002796 0.004570
0.003438 0.002796 0.004570
0.003438 0.002796 0.004570
0.003438 0.002796 0.004570
0.003438 0.002796 0.004570
0.003438 0.002796 0.004570
0.003438 0.002796 0.004570
0.003438 0.002796 0.004570
0.003438 0.002796 0.004570
0.003438 0.002796 0.004570
0.003438 0.002796 0.004570
0.003438 0.002796 0.004570
0.003438 0.002796 0.004570
0.003438 0.002796 0.004570
0.003438 0.002796 0.004570
0.003438 0.002796 0.004570
0.003438 0.002796 0.004570
0.003438 0.002796 0.004570
0.003438 0.002796 0.004570
0.003438 0.002796 0.004570
0.003438 0.002796 0.004570
0.003438 0.002796 0.004570
0.003438 0.002796 0.004570
0.003438 0.002796 0.004570
0.003438 0.002796 0.004570
0.003438 0.002796 0.004570
0.003438 0.002796 0.004570
0.003438 0.002796 0.004570
0.003438 0.002796 0.004570
0.003438 0.002796 0.004570
0.003438 0.002796 0.004570
0.003438 0.002796 0.004570
0.003438 0.002796 0.004570
0.003438 0.002796 0.004570
0.003438 0.002796 0.004570
0.003438 0.002796 0.004570
0.003438 0.002796 0.004570
0.003438 0.002796 0.004570
0.003438 0.002796 0.004570
0.003438 0.002796 0.004570
0.003438 0.002796 0.004572
0.003438 0.002796 0.004574
0.003438 0.002797 0.004577
0.003438 0.002801 0.004580
0.003438 0.002805 0.004583
0.003442 0.002809 0.004586
0.003446 0.002812 0.004589
0.003450 0.002816 0.004591
0.003454 0.002820 0.004594
0.003457 0.002824 0.004597
0.003461 0.002827 0.004600
0.003465 0.002831 0.004602
0.003469 0.002835 0.004605
0.003473 0.002838 0.004608
0.003477 0.002842 0.004610
0.003481 0.002845 0.004613
0.003484 0.002849 0.004616
0.003488 0.002853 0.004619
0.003492 0.002856 0.004621
0.003496 0.002860 0.004624
0.003500 0.002863 0.004627
0.003503 0.002867 0.004629
0.003507 0.002870 0.004632
0.003511 0.002874 0.004634
0.003515 0.002878 0.004637
0.003518 0.002881 0.004640
0.003522 0.002885 0.004642
0.003526 0.002888 0.004645
0.003529 0.002892 0.004647
0.003533 0.002895 0.004650
0.003537 0.002898 0.004652
0.003540 0.002902 0.004655
0.003544 0.002905 0.004658
0.003548 0.002909 0.004660
0.003551 0.002912 0.004663
0.003555 0.002916 0.004665
0.003558 0.002919 0.004668
0.003562 0.002922 0.004670
0.003566 0.002926 0.004673
0.003569 0.002929 0.004675
0.003573 0.002933 0.004677
0.003576 0.002936 0.004680
0.003580 0.002939 0.004682
0.003583 0.002943 0.004685
0.003587 0.002946 0.004687
0.003590 0.002949 0.004690
0.003594 0.002953 0.004692
0.003597 0.002956 0.004695
0.003601 0.002959 0.004697
0.003604 0.002962 0.004699
0.003608 0.002966 0.004702
0.003611 0.002969 0.004704
0.003614 0.002972 0.004706
0.003618 0.002976 0.004709
0.003621 0.002979 0.004711
0.003625 0.002982 0.004713
0.003628 0.002985 0.004716
0.003631 0.002988 0.004718
0.003635 0.002992 0.004720
0.003638 0.002995 0.004723
0.003642 0.002998 0.004725
0.003645 0.003001 0.004728
0.003648 0.003004 0.004731
0.003652 0.003008 0.004734
0.003655 0.003012 0.004736
0.003658 0.003016 0.004739
0.003661 0.003020 0.004742
0.003665 0.003024 0.004745
0.003668 0.003028 0.004747
0.003675 0.003032 0.004750
0.003681 0.003036 0.004753
0.003687 0.003040 0.004756
0.003693 0.003044 0.004758
0.003700 0.003048 0.004761
0.003706 0.003052 0.004764
0.003712 0.003056 0.004766
0.003718 0.003060 0.004769
0.003724 0.003064 0.004772
0.003731 0.003068 0.004775
0.003737 0.003072 0.004777
0.003743 0.003076 0.004780
0.003749 0.003080 0.004783
0.003755 0.003083 0.004785
0.003761 0.003087 0.004788
0.003767 0.003091 0.004790
0.003774 0.003095 0.004793
0.003780 0.003099 0.004796
0.003786 0.003103 0.004798
0.003792 0.003107 0.004801
0.003798 0.003111 0.004804
0.003804 0.003114 0.004806
0.003810 0.003118 0.004809
0.003816 0.003122 0.004811
0.003822 0.003126 0.004814
0.003828 0.003130 0.004816
0.003834 0.003134 0.004819
0.003840 0.003137 0.004822
0.003846 0.003141 0.004824
0.003852 0.003145 0.004827
0.003858 0.003149 0.004829
0.003864 0.003152 0.004832
0.003870 0.003156 0.004834
0.003876 0.003160 0.004837
0.003882 0.003164 0.004839
0.003888 0.003167 0.004842
0.003894 0.003171 0.004844
0.003899 0.003175 0.004847
0.003905 0.003179 0.004849
0.003911 0.003182 0.004852
0.003917 0.003186 0.004854
0.003923 0.003190 0.004856
0.003929 0.003193 0.004859
0.003935 0.003197 0.004861
0.003940 0.003201 0.004864
0.003946 0.003204 0.004866
0.003952 0.003208 0.004869
0.003958 0.003212 0.004871
0.003964 0.003215 0.004874
0.003969 0.003219 0.004876
0.003975 0.003223 0.004878
0.003981 0.003226 0.004881
0.003987 0.003230 0.004883
0.003992 0.003234 0.004886
0.003998 0.003237 0.004888
0.004004 0.003241 0.004890
0.004010 0.003244 0.004893
0.004015 0.003248 0.004895
0.004021 0.003252 0.004897
0.004027 0.003255 0.004900
0.004032 0.003259 0.004902
0.004038 0.003262 0.004904
0.004044 0.003266 0.004907
0.004049 0.003269 0.004909
0.004055 0.003273 0.004911
0.004061 0.003276 0.004914
0.004066 0.003280 0.004916
0.004072 0.003283 0.004918
0.004078 0.003287 0.004921
0.004083 0.003290 0.004923
0.004089 0.003294 0.004927
0.004095 0.003297 0.004931
0.004100 0.003301 0.004935
0.004106 0.003305 0.004939
0.004111 0.003309 0.004943
0.004117 0.003312 0.004947
0.004122 0.003316 0.004951
0.004128 0.003320 0.004955
0.004133 0.003324 0.004959
0.004139 0.003328 0.004963
0.004145 0.003331 0.004967
0.004150 0.003335 0.004971
0.004156 0.003339 0.004975
0.004163 0.003343 0.004979
0.004169 0.003347 0.004983
0.004176 0.003350 0.004987
0.004182 0.003354 0.004991
0.004188 0.003358 0.004994
0.004195 0.003362 0.004998
0.004201 0.003365 0.005002
0.004207 0.003369 0.005006
0.004214 0.003373 0.005010
0.004220 0.003377 0.005014
0.004227 0.003380 0.005018
0.004233 0.003384 0.005021
0.004239 0.003388 0.005025
0.004246 0.003391 0.005029
0.004252 0.003395 0.005033
0.004258 0.003399 0.005037
0.004264 0.003402 0.005041
0.004271 0.003406 0.005044
0.004277 0.003410 0.005048
0.004283 0.003413 0.005052
0.004290 0.003417 0.005056
0.004296 0.003421 0.005059
0.004302 0.003424 0.005063
0.004308 0.003428 0.005067
0.004315 0.003432 0.005071
0.004321 0.003435 0.005074
0.004327 0.003439 0.005078
0.004333 0.003443 0.005082
0.004340 0.003446 0.005086
0.004346 0.003450 0.005089
0.004352 0.003454 0.005093
0.004358 0.003457 0.005097
0.004364 0.003461 0.005100
0.004371 0.003464 0.005104
0.004377 0.003468 0.005108
0.004383 0.003471 0.005111
0.004389 0.003475 0.005115
0.004395 0.003479 0.005119
0.004401 0.003482 0.005122
0.004408 0.003486 0.005126
0.004414 0.003489 0.005130
0.004420 0.003493 0.005133
0.004426 0.003496 0.005137
0.004432 0.003500 0.005141
0.004438 0.003504 0.005144
0.004444 0.003507 0.005148
0.004451 0.003511 0.005151
0.004457 0.003514 0.005155
0.004463 0.003518 0.005159
0.004469 0.003521 0.005162
0.004475 0.003525 0.005166
0.004481 0.003528 0.005169
0.004487 0.003532 0.005173
0.004493 0.003535 0.005176
0.004499 0.003539 0.005180
0.004505 0.003542 0.005184
0.004511 0.003546 0.005187
0.004517 0.003549 0.005191
0.004523 0.003553 0.005194
0.004529 0.003556 0.005198
0.004535 0.003559 0.005201
0.004541 0.003563 0.005205
0.004547 0.003566 0.005208
0.004553 0.003570 0.005212
0.004559 0.003573 0.005215
0.004565 0.003577 0.005219
0.004571 0.003580 0.005222
0.004577 0.003584 0.005226
0.004583 0.003587 0.005229
0.004589 0.003590 0.005233
0.004595 0.003594 0.005236
0.004601 0.003597 0.005240
0.004607 0.003601 0.005243
0.004613 0.003604 0.005246
0.004619 0.003607 0.005250
0.004625 0.003611 0.005253
0.004631 0.003614 0.005257
0.004637 0.003618 0.005260
0.004643 0.003621 0.005264
0.004649 0.003624 0.005267
0.004654 0.003628 0.005270
0.004660 0.003631 0.005274
0.004666 0.003634 0.005277
0.004672 0.003638 0.005281
0.004678 0.003641 0.005284
0.004684 0.003645 0.005287
0.004690 0.003648 0.005292
0.004696 0.003651 0.005298
0.004701 0.003655 0.005304
0.004707 0.003658 0.005309
0.004713 0.003661 0.005315
0.004719 0.003666 0.005321
0.004725 0.003671 0.005326
0.004731 0.003676 0.005332
0.004736 0.003681 0.005337
0.004742 0.003686 0.005343
0.004748 0.003691 0.005349
0.004754 0.003696 0.005354
0.004760 0.003701 0.005360
0.004765 0.003706 0.005365
0.004771 0.003711 0.005371
0.004777 0.003716 0.005376
0.004783 0.003721 0.005382
0.004789 0.003726 0.005387
0.004794 0.003731 0.005393
0.004801 0.003736 0.005399
0.004809 0.003741 0.005404
0.004816 0.003746 0.005410
0.004823 0.003750 0.005415
0.004831 0.003755 0.005421
0.004838 0.003760 0.005426
0.004845 0.003765 0.005432
0.004853 0.003770 0.005437
0.004860 0.003775 0.005443
0.004867 0.003780 0.005448
0.004875 0.003785 0.005454
0.004882 0.003790 0.005459
0.004889 0.003795 0.005465
0.004897 0.003800 0.005470
0.004904 0.003804 0.005475
0.004911 0.003809 0.005481
0.004919 0.003814 0.005486
0.004926 0.003819 0.005492
0.004933 0.003824 0.005497
0.004941 0.003829 0.005503
0.004948 0.003834 0.005508
0.004955 0.003839 0.005513
0.004962 0.003843 0.005519
0.004970 0.003848 0.005524
0.004977 0.003853 0.005530
0.004984 0.003858 0.005535
0.004992 0.003863 0.005540
0.004999 0.003868 0.005546
0.005006 0.003872 0.005551
0.005013 0.003877 0.005557
0.005021 0.003882 0.005562
0.005028 0.003887 0.005567
0.005035 0.003892 0.005573
0.005042 0.003897 0.005578
0.005050 0.003901 0.005583
0.005057 0.003906 0.005589
0.005064 0.003911 0.005594
0.005071 0.003916 0.005599
0.005078 0.003921 0.005605
0.005086 0.003925 0.005610
0.005093 0.003930 0.005615
0.005100 0.003935 0.005621
0.005107 0.003940 0.005626
0.005115 0.003945 0.005631
0.005122 0.003949 0.005636
0.005129 0.003954 0.005642
0.005136 0.003959 0.005647
0.005143 0.003964 0.005652
0.005150 0.003968 0.005658
0.005158 0.003973 0.005663
0.005165 0.003978 0.005668
0.005172 0.003983 0.005673
0.005179 0.003987 0.005679
0.005186 0.003992 0.005684
0.005194 0.003997 0.005689
0.005201 0.004002 0.005694
0.005208 0.004006 0.005699
0.005215 0.004011 0.005705
0.005222 0.004016 0.005710
0.005229 0.004021 0.005715
0.005236 0.004025 0.005720
0.005244 0.004030 0.005726
0.005251 0.004035 0.005731
0.005258 0.004040 0.005736
0.005265 0.004044 0.005741
0.005272 0.004049 0.005746
0.005279 0.004054 0.005751
0.005286 0.004058 0.005757
0.005293 0.004063 0.005762
0.005301 0.004068 0.005767
0.005308 0.004072 0.005772
0.005315 0.004077 0.005777
0.005322 0.004082 0.005782
0.005329 0.004086 0.005788
0.005336 0.004091 0.005793
0.005343 0.004096 0.005798
0.005350 0.004101 0.005803
0.005357 0.004105 0.005808
0.005364 0.004110 0.005813
0.005371 0.004115 0.005818
0.005378 0.004119 0.005823
0.005386 0.004124 0.005829
0.005393 0.004129 0.005834
0.005400 0.004133 0.005839
0.005407 0.004138 0.005844
0.005414 0.004142 0.005849
0.005421 0.004147 0.005854
0.005428 0.004152 0.005859
0.005435 0.004156 0.005864
0.005442 0.004161 0.005869
0.005449 0.004166 0.005874
0.005456 0.004170 0.005879
0.005463 0.004175 0.005884
0.005470 0.004179 0.005889
0.005477 0.004184 0.005894
0.005484 0.004189 0.005899
0.005491 0.004193 0.005905
0.005498 0.004198 0.005910
0.005505 0.004203 0.005915
0.005512 0.004207 0.005920
0.005519 0.004212 0.005925
0.005526 0.004216 0.005930
0.005533 0.004221 0.005935
0.005540 0.004226 0.005940
0.005547 0.004230 0.005945
0.005554 0.004235 0.005950
0.005561 0.004239 0.005955
0.005568 0.004244 0.005960
0.005575 0.004248 0.005965
0.005582 0.004253 0.005969
0.005589 0.004258 0.005974
0.005596 0.004262 0.005979
0.005603 0.004267 0.005984
0.005610 0.004271 0.005989
0.005617 0.004276 0.005994
0.005624 0.004282 0.005999
0.005631 0.004287 0.006003
0.005638 0.004293 0.006008
0.005645 0.004299 0.006013
0.005652 0.004305 0.006018
0.005658 0.004311 0.006023
0.005665 0.004317 0.006028
0.005672 0.004323 0.006033
0.005679 0.004329 0.006037
0.005686 0.004335 0.006042
0.005693 0.004340 0.006047
0.005700 0.004346 0.006052
0.005707 0.004352 0.006057
0.005714 0.004358 0.006061
0.005721 0.004364 0.006066
0.005728 0.004370 0.006071
0.005735 0.004376 0.006076
0.005741 0.004382 0.006081
0.005748 0.004387 0.006085
0.005755 0.004393 0.006090
0.005762 0.004399 0.006095
0.005769 0.004405 0.006100
0.005777 0.004411 0.006104
0.005786 0.004417 0.006109
0.005795 0.004423 0.006114
0.005804 0.004428 0.006119
0.005813 0.004434 0.006123
0.005822 0.004440 0.006128
0.005831 0.004446 0.006133
0.005840 0.004452 0.006138
0.005848 0.004458 0.006142
0.005857 0.004464 0.006147
0.005866 0.004469 0.006152
0.005875 0.004475 0.006157
0.005884 0.004481 0.006161
0.005893 0.004487 0.006166
0.005902 0.004493 0.006171
0.005911 0.004499 0.006175
0.005920 0.004504 0.006180
0.005928 0.004510 0.006185
0.005937 0.004516 0.006190
0.005946 0.004522 0.006194
0.005955 0.004528 0.006199
0.005964 0.004534 0.006204
0.005973 0.004539 0.006208
0.005982 0.004545 0.006213
0.005991 0.004551 0.006218
0.006000 0.004557 0.006222
0.006008 0.004563 0.006227
0.006017 0.004568 0.006232
0.006026 0.004574 0.006236
0.006035 0.004580 0.006241
0.006044 0.004586 0.006246
0.006053 0.004592 0.006250
0.006062 0.004598 0.006255
0.006071 0.004603 0.006259
0.006079 0.004609 0.006264
0.006088 0.004615 0.006269
0.006097 0.004621 0.006273
0.006106 0.004627 0.006278
0.006115 0.004632 0.006283
0.006124 0.004638 0.006287
0.006133 0.004644 0.006292
0.006141 0.004650 0.006296
0.006150 0.004655 0.006301
0.006159 0.004661 0.006306
0.006168 0.004667 0.006310
0.006177 0.004673 0.006315
0.006186 0.004679 0.006319
0.006195 0.004684 0.006324
0.006204 0.004690 0.006329
0.006212 0.004696 0.006333
0.006221 0.004702 0.006338
0.006230 0.004707 0.006342
0.006239 0.004713 0.006347
0.006248 0.004719 0.006351
0.006257 0.004725 0.006356
0.006266 0.004731 0.006361
0.006274 0.004736 0.006365
0.006283 0.004742 0.006370
0.006292 0.004748 0.006374
0.006301 0.004754 0.006379
0.006310 0.004759 0.006383
0.006319 0.004765 0.006388
0.006327 0.004771 0.006392
0.006336 0.004777 0.006397
0.006345 0.004782 0.006401
0.006354 0.004788 0.006406
0.006363 0.004794 0.006410
0.006372 0.004800 0.006415
0.006381 0.004805 0.006419
0.006389 0.004811 0.006424
0.006398 0.004817 0.006428
0.006407 0.004823 0.006433
0.006416 0.004828 0.006437
0.006425 0.004834 0.006442
0.006434 0.004840 0.006446
0.006442 0.004846 0.006451
0.006451 0.004851 0.006455
0.006460 0.004857 0.006460
0.006469 0.004863 0.006464
0.006478 0.004868 0.006469
0.006487 0.004874 0.006473
0.006495 0.004880 0.006478
0.006504 0.004886 0.006482
0.006513 0.004891 0.006487
0.006522 0.004897 0.006491
0.006531 0.004903 0.006496
0.006540 0.004909 0.006500
0.006548 0.004914 0.006504
0.006557 0.004920 0.006509
0.006566 0.004926 0.006513
0.006575 0.004931 0.006518
0.006584 0.004937 0.006522
0.006593 0.004943 0.006527
0.006601 0.004948 0.006531
0.006610 0.004954 0.006535
0.006619 0.004960 0.006540
0.006628 0.004966 0.006544
0.006637 0.004971 0.006549
0.006645 0.004977 0.006553
0.006654 0.004983 0.006557
0.006663 0.004988 0.006562
0.006672 0.004994 0.006566
0.006681 0.005000 0.006571
0.006690 0.005005 0.006575
0.006698 0.005011 0.006579
0.006707 0.005017 0.006584
0.006716 0.005023 0.006588
0.006725 0.005028 0.006593
0.006734 0.005034 0.006597
0.006742 0.005040 0.006601
0.006751 0.005045 0.006606
0.006760 0.005051 0.006610
0.006769 0.005057 0.006614
0.006778 0.005062 0.006619
0.006786 0.005068 0.006623
0.006795 0.005074 0.006628
0.006804 0.005079 0.006632
0.006813 0.005085 0.006636
0.006822 0.005091 0.006641
0.006831 0.005096 0.006645
0.006839 0.005102 0.006649
0.006848 0.005108 0.006654
0.006857 0.005113 0.006658
0.006866 0.005119 0.006662
0.006875 0.005125 0.006667
0.006883 0.005130 0.006671
0.006892 0.005136 0.006675
0.006901 0.005142 0.006680
0.006910 0.005147 0.006684
0.006919 0.005153 0.006688
0.006927 0.005159 0.006692
0.006936 0.005164 0.006697
0.006945 0.005170 0.006701
0.006954 0.005175 0.006705
0.006962 0.005181 0.006710
0.006971 0.005187 0.006717
0.006980 0.005192 0.006727
0.006989 0.005198 0.006736
0.006998 0.005204 0.006745
0.007006 0.005209 0.006755
0.007015 0.005215 0.006764
0.007024 0.005221 0.006774
0.007033 0.005226 0.006783
0.007042 0.005234 0.006792
0.007050 0.005243 0.006802
0.007059 0.005253 0.006811
0.007068 0.005263 0.006820
0.007077 0.005272 0.006830
0.007086 0.005282 0.006839
0.007094 0.005292 0.006849
0.007103 0.005302 0.006858
0.007112 0.005311 0.006867
0.007121 0.005321 0.006877
0.007129 0.005331 0.006886
0.007138 0.005341 0.006896
0.007147 0.005350 0.006905
0.007156 0.005360 0.006914
0.007165 0.005370 0.006924
0.007173 0.005380 0.006933
0.007182 0.005389 0.006943
0.007191 0.005399 0.006952
0.007200 0.005409 0.006961
0.007208 0.005419 0.006971
0.007217 0.005428 0.006980
0.007226 0.005438 0.006990
0.007235 0.005448 0.006999
0.007244 0.005458 0.007008
0.007252 0.005468 0.007018
0.007261 0.005478 0.007027
0.007270 0.005487 0.007037
0.007279 0.005497 0.007046
0.007287 0.005507 0.007055
0.007296 0.005517 0.007065
0.007305 0.005527 0.007074
0.007314 0.005537 0.007084
0.007322 0.005546 0.007093
0.007332 0.005556 0.007102
0.007347 0.005566 0.007112
0.007363 0.005576 0.007121
0.007378 0.005586 0.007131
0.007394 0.005596 0.007140
0.007410 0.005606 0.007149
0.007425 0.005616 0.007159
0.007441 0.005625 0.007168
0.007456 0.005635 0.007178
0.007472 0.005645 0.007187
0.007488 0.005655 0.007196
0.007503 0.005665 0.007206
0.007519 0.005675 0.007215
0.007535 0.005685 0.007225
0.007550 0.005695 0.007234
0.007566 0.005705 0.007243
0.007582 0.005715 0.007253
0.007597 0.005725 0.007262
0.007613 0.005735 0.007272
0.007629 0.005745 0.007281
0.007645 0.005754 0.007290
0.007660 0.005764 0.007300
0.007676 0.005774 0.007309
0.007692 0.005784 0.007319
0.007708 0.005794 0.007328
0.007724 0.005804 0.007338
0.007740 0.005814 0.007347
0.007755 0.005824 0.007356
0.007771 0.005834 0.007366
0.007787 0.005844 0.007375
0.007803 0.005854 0.007385
0.007819 0.005864 0.007394
0.007835 0.005874 0.007403
0.007851 0.005884 0.007413
0.007867 0.005894 0.007422
0.007883 0.005904 0.007432
0.007899 0.005914 0.007441
0.007915 0.005925 0.007451
0.007931 0.005935 0.007460
0.007947 0.005945 0.007469
0.007963 0.005955 0.007479
0.007979 0.005965 0.007488
0.007995 0.005975 0.007498
0.008011 0.005985 0.007507
0.008027 0.005995 0.007517
0.008043 0.006005 0.007526
0.008059 0.006015 0.007535
0.008075 0.006025 0.007545
0.008091 0.006035 0.007554
0.008108 0.006045 0.007564
0.008124 0.006055 0.007573
0.008140 0.006066 0.007583
0.008156 0.006076 0.007592
0.008172 0.006086 0.007601
0.008188 0.006096 0.007611
0.008205 0.006106 0.007620
0.008221 0.006116 0.007630
0.008237 0.006126 0.007639
0.008253 0.006136 0.007649
0.008270 0.006147 0.007658
0.008286 0.006157 0.007667
0.008302 0.006167 0.007677
0.008318 0.006177 0.007686
0.008335 0.006187 0.007696
0.008351 0.006197 0.007705
0.008367 0.006208 0.007715
0.008384 0.006218 0.007724
0.008400 0.006228 0.007733
0.008417 0.006238 0.007743
0.008433 0.006248 0.007752
0.008449 0.006259 0.007762
0.008466 0.006269 0.007771
0.008482 0.006279 0.007781
0.008499 0.006289 0.007790
0.008515 0.006299 0.007799
0.008532 0.006310 0.007809
0.008548 0.006320 0.007818
0.008565 0.006330 0.007828
0.008581 0.006340 0.007837
0.008598 0.006351 0.007847
0.008614 0.006361 0.007856
0.008631 0.006371 0.007866
0.008647 0.006381 0.007875
0.008664 0.006392 0.007884
0.008680 0.006402 0.007894
0.008697 0.006412 0.007903
0.008714 0.006422 0.007913
0.008730 0.006433 0.007922
0.008747 0.006443 0.007932
0.008764 0.006453 0.007941
0.008780 0.006463 0.007951
0.008797 0.006474 0.007960
0.008814 0.006484 0.007969
0.008830 0.006494 0.007979
0.008847 0.006505 0.007988
0.008864 0.006515 0.007998
0.008880 0.006525 0.008007
0.008897 0.006536 0.008017
0.008914 0.006546 0.008026
