config/curves/Kodak_2393.cube
# DiVERE Density Curve 1D LUT
LUT_1D_SIZE 65536
DOMAIN_MIN 0.0 0.0 0.0
DOMAIN_MAX 1.0 1.0 1.0

0.000015 0.000015 0.000015
0.000015 0.000015 0.000015
0.000015 0.000015 0.000015
0.000015 0.000015 0.000015
0.000015 0.000015 0.000015
0.000015 0.000015 0.000015
0.000015 0.000015 0.000015
0.000015 0.000015 0.000015
0.000015 0.000015 0.000015
0.000015 0.000015 0.000015
0.000015 0.000015 0.000015
0.000015 0.000015 0.000015
0.000015 0.000015 0.000015
0.000015 0.000015 0.000015
0.000015 0.000015 0.000015
0.000015 0.000015 0.000015
0.000015 0.000015 0.000015
0.000015 0.000015 0.000015
0.000015 0.000015 0.000015
0.000015 0.000015 0.000015
0.000015 0.000015 0.000015
0.000015 0.000015 0.000015
0.000015 0.000015 0.000015
0.000015 0.000015 0.000015
0.000015 0.000015 0.000015
0.000015 0.000015 0.000015
0.000015 0.000015 0.000015
0.000015 0.000015 0.000015
0.000015 0.000015 0.000015
0.000015 0.000015 0.000015
0.000015 0.000015 0.000015
0.000015 0.000015 0.000015
0.000015 0.000015 0.000015
0.000015 0.000015 0.000015
0.000015 0.000015 0.000015
0.000015 0.000015 0.000015
0.000015 0.000015 0.000015
0.000015 0.000015 0.000015
0.000015 0.000015 0.000015
0.000015 0.000015 0.000015
0.000015 0.000015 0.000015
0.000015 0.000015 0.000015
0.000015 0.000015 0.000015
0.000015 0.000015 0.000015
0.000015 0.000015 0.000015
0.000015 0.000015 0.000015
0.000015 0.000015 0.000015
0.000015 0.000015 0.000015
0.000015 0.000015 0.000015
0.000015 0.000015 0.000015
0.000015 0.000015 0.000015
0.000015 0.000015 0.000015
0.000015 0.000015 0.000015
0.000015 0.000015 0.000015
0.000015 0.000015 0.000015
0.000015 0.000015 0.000015
0.000015 0.000015 0.000015
0.000015 0.000015 0.000015
0.000015 0.000015 0.000015
0.000015 0.000015 0.000015
0.000015 0.000015 0.000015
0.000015 0.000015 0.000015
0.000015 0.000015 0.000015
0.000015 0.000015 0.000015
0.000015 0.000015 0.000015
0.000015 0.000015 0.000015
0.000015 0.000015 0.000015
0.000015 0.000015 0.000015
0.000015 0.000015 0.000015
0.000015 0.000015 0.000015
0.000015 0.000015 0.000015
0.000015 0.000015 0.000015
0.000015 0.000015 0.000015
0.000015 0.000015 0.000015
0.000015 0.000015 0.000015
0.000015 0.000015 0.000015
0.000015 0.000015 0.000015
0.000015 0.000015 0.000015
0.000015 0.000015 0.000015
0.000015 0.000015 0.000015
0.000015 0.000015 0.000015
0.000015 0.000015 0.000015
0.000015 0.000015 0.000015
0.000015 0.000015 0.000015
0.000015 0.000015 0.000015
0.000015 0.000015 0.000015
0.000015 0.000015 0.000015
0.000015 0.000015 0.000015
0.000015 0.000015 0.000015
0.000015 0.000015 0.000015
0.000015 0.000015 0.000015
0.000015 0.000015 0.000015
0.000015 0.000015 0.000015
0.000015 0.000015 0.000015
0.000015 0.000015 0.000015
0.000015 0.000015 0.000015
0.000015 0.000015 0.000015
0.000015 0.000015 0.000015
0.000015 0.000015 0.000015
0.000015 0.000015 0.000015
0.000015 0.000015 0.000015
0.000015 0.000015 0.000015
0.000015 0.000015 0.000015
0.000015 0.000015 0.000015
0.000015 0.000015 0.000015
0.000015 0.000015 0.000015
0.000015 0.000015 0.000015
0.000016 0.000015 0.000015
0.000016 0.000015 0.000015
0.000016 0.000015 0.000015
0.000016 0.000015 0.000015
0.000016 0.000015 0.000015
0.000016 0.000015 0.000015
0.000016 0.000015 0.000015
0.000016 0.000015 0.000015
0.000016 0.000015 0.000015
0.000016 0.000015 0.000015
0.000016 0.000015 0.000015
0.000016 0.000015 0.000015
0.000016 0.000015 0.000015
0.000016 0.000015 0.000015
0.000016 0.000015 0.000015
0.000016 0.000015 0.000015
0.000016 0.000015 0.000015
0.000016 0.000015 0.000015
0.000016 0.000015 0.000015
0.000016 0.000015 0.000015
0.000016 0.000015 0.000015
0.000016 0.000015 0.000015
0.000016 0.000015 0.000015
0.000016 0.000015 0.000015
0.000016 0.000015 0.000015
0.000016 0.000015 0.000015
0.000016 0.000015 0.000015
0.000016 0.000015 0.000015
0.000016 0.000015 0.000015
0.000016 0.000015 0.000015
0.000016 0.000015 0.000015
0.000016 0.000015 0.000015
0.000016 0.000015 0.000015
0.000016 0.000015 0.000015
0.000017 0.000015 0.000015
0.000017 0.000015 0.000015
0.000017 0.000015 0.000015
0.000017 0.000016 0.000015
0.000017 0.000016 0.000015
0.000018 0.000016 0.000015
0.000018 0.000017 0.000016
0.000018 0.000017 0.000016
0.000019 0.000017 0.000016
0.000019 0.000017 0.000016
0.000019 0.000018 0.000016
0.000020 0.000018 0.000016
0.000020 0.000018 0.000016
0.000020 0.000019 0.000016
0.000021 0.000019 0.000016
0.000021 0.000019 0.000017
0.000021 0.000020 0.000017
0.000022 0.000020 0.000017
0.000022 0.000020 0.000017
0.000023 0.000020 0.000017
0.000023 0.000021 0.000017
0.000023 0.000021 0.000017
0.000024 0.000021 0.000017
0.000024 0.000022 0.000017
0.000024 0.000022 0.000018
0.000025 0.000022 0.000018
0.000025 0.000023 0.000018
0.000026 0.000023 0.000018
0.000026 0.000024 0.000018
0.000026 0.000024 0.000018
0.000027 0.000024 0.000018
0.000027 0.000025 0.000018
0.000027 0.000025 0.000018
0.000028 0.000025 0.000019
0.000028 0.000026 0.000019
0.000029 0.000026 0.000019
0.000029 0.000026 0.000019
0.000030 0.000027 0.000019
0.000030 0.000027 0.000019
0.000030 0.000028 0.000019
0.000031 0.000028 0.000019
0.000031 0.000028 0.000019
0.000032 0.000029 0.000020
0.000032 0.000029 0.000020
0.000033 0.000030 0.000020
0.000033 0.000030 0.000020
0.000034 0.000030 0.000020
0.000034 0.000031 0.000020
0.000034 0.000031 0.000020
0.000035 0.000032 0.000020
0.000035 0.000032 0.000020
0.000036 0.000032 0.000021
0.000036 0.000033 0.000021
0.000037 0.000033 0.000021
0.000037 0.000034 0.000021
0.000038 0.000034 0.000021
0.000038 0.000035 0.000021
0.000039 0.000035 0.000021
0.000039 0.000035 0.000021
0.000040 0.000036 0.000021
0.000040 0.000036 0.000021
0.000041 0.000037 0.000022
0.000041 0.000037 0.000022
0.000042 0.000038 0.000022
0.000043 0.000038 0.000022
0.000044 0.000039 0.000022
0.000045 0.000040 0.000022
0.000045 0.000041 0.000023
0.000046 0.000042 0.000023
0.000047 0.000043 0.000024
0.000048 0.000044 0.000024
0.000049 0.000044 0.000025
0.000050 0.000045 0.000025
0.000051 0.000046 0.000026
0.000052 0.000047 0.000026
0.000053 0.000048 0.000027
0.000054 0.000049 0.000027
0.000055 0.000050 0.000028
0.000056 0.000051 0.000028
0.000057 0.000052 0.000029
0.000058 0.000053 0.000029
0.000059 0.000054 0.000030
0.000060 0.000055 0.000030
0.000061 0.000056 0.000031
0.000062 0.000057 0.000031
0.000063 0.000058 0.000032
0.000064 0.000060 0.000032
0.000065 0.000061 0.000033
0.000066 0.000062 0.000034
0.000067 0.000063 0.000034
0.000069 0.000064 0.000035
0.000070 0.000065 0.000035
0.000071 0.000067 0.000036
0.000072 0.000068 0.000037
0.000073 0.000069 0.000037
0.000075 0.000070 0.000038
0.000076 0.000072 0.000039
0.000077 0.000073 0.000039
0.000078 0.000074 0.000040
0.000080 0.000076 0.000041
0.000081 0.000077 0.000041
0.000082 0.000078 0.000042
0.000084 0.000080 0.000043
0.000085 0.000081 0.000044
0.000086 0.000083 0.000044
0.000088 0.000084 0.000045
0.000089 0.000086 0.000046
0.000091 0.000087 0.000047
0.000092 0.000089 0.000047
0.000094 0.000090 0.000048
0.000095 0.000092 0.000049
0.000096 0.000093 0.000050
0.000098 0.000095 0.000050
0.000100 0.000096 0.000051
0.000101 0.000098 0.000052
0.000103 0.000100 0.000053
0.000104 0.000101 0.000054
0.000106 0.000103 0.000055
0.000107 0.000105 0.000056
0.000109 0.000107 0.000056
0.000111 0.000108 0.000057
0.000112 0.000110 0.000058
0.000114 0.000112 0.000059
0.000116 0.000114 0.000060
0.000118 0.000116 0.000061
0.000119 0.000118 0.000062
0.000121 0.000119 0.000063
0.000123 0.000121 0.000064
0.000125 0.000123 0.000065
0.000127 0.000125 0.000066
0.000128 0.000127 0.000067
0.000130 0.000129 0.000068
0.000132 0.000131 0.000069
0.000134 0.000133 0.000070
0.000136 0.000136 0.000071
0.000138 0.000138 0.000072
0.000140 0.000140 0.000073
0.000142 0.000142 0.000074
0.000144 0.000144 0.000075
0.000146 0.000146 0.000076
0.000148 0.000149 0.000077
0.000150 0.000151 0.000078
0.000152 0.000153 0.000080
0.000154 0.000156 0.000081
0.000156 0.000158 0.000082
0.000159 0.000160 0.000083
0.000161 0.000163 0.000084
0.000163 0.000165 0.000085
0.000165 0.000168 0.000087
0.000168 0.000170 0.000088
0.000170 0.000173 0.000089
0.000172 0.000175 0.000090
0.000175 0.000178 0.000092
0.000178 0.000181 0.000093
0.000181 0.000184 0.000094
0.000184 0.000187 0.000095
0.000187 0.000190 0.000097
0.000190 0.000193 0.000099
0.000194 0.000196 0.000101
0.000197 0.000199 0.000102
0.000200 0.000203 0.000104
0.000204 0.000206 0.000106
0.000207 0.000209 0.000108
0.000210 0.000213 0.000109
0.000214 0.000216 0.000111
0.000218 0.000220 0.000113
0.000221 0.000223 0.000115
0.000225 0.000227 0.000117
0.000228 0.000230 0.000119
0.000232 0.000234 0.000121
0.000236 0.000238 0.000123
0.000240 0.000241 0.000125
0.000244 0.000245 0.000127
0.000248 0.000249 0.000129
0.000252 0.000253 0.000131
0.000256 0.000257 0.000133
0.000260 0.000261 0.000135
0.000264 0.000265 0.000138
0.000268 0.000269 0.000140
0.000272 0.000273 0.000142
0.000277 0.000277 0.000144
0.000281 0.000281 0.000147
0.000285 0.000286 0.000149
0.000290 0.000290 0.000151
0.000294 0.000294 0.000154
0.000299 0.000299 0.000156
0.000303 0.000303 0.000159
0.000308 0.000308 0.000161
0.000313 0.000313 0.000164
0.000318 0.000317 0.000166
0.000323 0.000322 0.000169
0.000327 0.000327 0.000171
0.000332 0.000331 0.000174
0.000337 0.000336 0.000177
0.000343 0.000341 0.000179
0.000348 0.000346 0.000182
0.000353 0.000351 0.000185
0.000358 0.000356 0.000188
0.000364 0.000362 0.000190
0.000369 0.000367 0.000193
0.000374 0.000372 0.000196
0.000380 0.000377 0.000199
0.000386 0.000383 0.000202
0.000391 0.000388 0.000205
0.000397 0.000394 0.000208
0.000403 0.000399 0.000211
0.000409 0.000405 0.000214
0.000415 0.000411 0.000218
0.000421 0.000417 0.000221
0.000427 0.000422 0.000224
0.000433 0.000428 0.000227
0.000439 0.000434 0.000231
0.000445 0.000440 0.000234
0.000452 0.000446 0.000237
0.000458 0.000453 0.000241
0.000465 0.000459 0.000244
0.000471 0.000465 0.000248
0.000478 0.000471 0.000251
0.000485 0.000478 0.000255
0.000491 0.000484 0.000259
0.000498 0.000491 0.000262
0.000505 0.000498 0.000266
0.000512 0.000504 0.000270
0.000519 0.000511 0.000274
0.000527 0.000518 0.000277
0.000534 0.000525 0.000281
0.000541 0.000532 0.000285
0.000549 0.000539 0.000289
0.000556 0.000546 0.000293
0.000564 0.000553 0.000297
0.000572 0.000561 0.000301
0.000579 0.000568 0.000306
0.000587 0.000576 0.000310
0.000595 0.000583 0.000314
0.000603 0.000591 0.000318
0.000611 0.000599 0.000323
0.000619 0.000606 0.000327
0.000628 0.000614 0.000332
0.000636 0.000622 0.000336
0.000645 0.000630 0.000341
0.000653 0.000638 0.000345
0.000662 0.000646 0.000350
0.000670 0.000655 0.000355
0.000679 0.000663 0.000359
0.000688 0.000672 0.000364
0.000697 0.000680 0.000369
0.000706 0.000689 0.000374
0.000716 0.000697 0.000379
0.000725 0.000706 0.000384
0.000734 0.000715 0.000389
0.000744 0.000724 0.000394
0.000753 0.000733 0.000399
0.000763 0.000742 0.000404
0.000773 0.000752 0.000410
0.000783 0.000761 0.000415
0.000793 0.000770 0.000420
0.000803 0.000780 0.000426
0.000813 0.000789 0.000431
0.000823 0.000799 0.000437
0.000834 0.000809 0.000442
0.000844 0.000819 0.000448
0.000855 0.000829 0.000454
0.000865 0.000839 0.000459
0.000876 0.000849 0.000465
0.000887 0.000859 0.000471
0.000898 0.000870 0.000477
0.000909 0.000880 0.000483
0.000921 0.000891 0.000489
0.000932 0.000901 0.000495
0.000944 0.000912 0.000502
0.000955 0.000923 0.000508
0.000967 0.000934 0.000514
0.000979 0.000945 0.000521
0.000991 0.000956 0.000527
0.001003 0.000968 0.000533
0.001015 0.000979 0.000540
0.001027 0.000990 0.000547
0.001040 0.001002 0.000553
0.001052 0.001014 0.000560
0.001065 0.001026 0.000567
0.001079 0.001038 0.000574
0.001092 0.001050 0.000581
0.001106 0.001062 0.000588
0.001120 0.001074 0.000595
0.001134 0.001086 0.000602
0.001148 0.001099 0.000610
0.001162 0.001111 0.000618
0.001177 0.001124 0.000626
0.001191 0.001137 0.000634
0.001206 0.001150 0.000642
0.001221 0.001163 0.000651
0.001236 0.001176 0.000659
0.001251 0.001189 0.000667
0.001267 0.001202 0.000676
0.001282 0.001216 0.000684
0.001298 0.001229 0.000693
0.001314 0.001243 0.000702
0.001330 0.001257 0.000711
0.001346 0.001271 0.000719
0.001362 0.001285 0.000729
0.001378 0.001299 0.000738
0.001395 0.001314 0.000747
0.001412 0.001328 0.000756
0.001429 0.001343 0.000766
0.001446 0.001357 0.000775
0.001463 0.001372 0.000785
0.001480 0.001387 0.000794
0.001498 0.001402 0.000804
0.001516 0.001418 0.000814
0.001533 0.001433 0.000824
0.001552 0.001449 0.000834
0.001570 0.001464 0.000844
0.001588 0.001480 0.000854
0.001607 0.001496 0.000865
0.001626 0.001512 0.000875
0.001645 0.001528 0.000886
0.001664 0.001544 0.000897
0.001683 0.001561 0.000907
0.001703 0.001577 0.000918
0.001722 0.001594 0.000929
0.001742 0.001611 0.000940
0.001762 0.001628 0.000952
0.001782 0.001645 0.000963
0.001803 0.001662 0.000974
0.001823 0.001680 0.000986
0.001844 0.001697 0.000998
0.001865 0.001715 0.001009
0.001886 0.001733 0.001021
0.001908 0.001751 0.001033
0.001929 0.001769 0.001045
0.001951 0.001788 0.001058
0.001973 0.001806 0.001070
0.001995 0.001825 0.001082
0.002018 0.001844 0.001095
0.002040 0.001862 0.001108
0.002063 0.001882 0.001121
0.002086 0.001901 0.001134
0.002109 0.001920 0.001147
0.002133 0.001940 0.001160
0.002156 0.001959 0.001173
0.002180 0.001979 0.001187
0.002204 0.001999 0.001200
0.002228 0.002019 0.001214
0.002253 0.002040 0.001228
0.002278 0.002060 0.001242
0.002302 0.002081 0.001256
0.002328 0.002102 0.001270
0.002353 0.002123 0.001284
0.002379 0.002144 0.001299
0.002404 0.002165 0.001313
0.002430 0.002187 0.001328
0.002457 0.002209 0.001343
0.002483 0.002230 0.001358
0.002510 0.002252 0.001373
0.002537 0.002275 0.001388
0.002564 0.002297 0.001404
0.002591 0.002320 0.001419
0.002619 0.002342 0.001435
0.002647 0.002365 0.001451
0.002675 0.002388 0.001467
0.002703 0.002411 0.001483
0.002732 0.002435 0.001499
0.002761 0.002458 0.001516
0.002790 0.002482 0.001532
0.002819 0.002506 0.001549
0.002849 0.002530 0.001566
0.002879 0.002555 0.001583
0.002909 0.002579 0.001600
0.002939 0.002604 0.001618
0.002970 0.002629 0.001635
0.003001 0.002654 0.001653
0.003032 0.002679 0.001670
0.003063 0.002705 0.001688
0.003095 0.002730 0.001707
0.003127 0.002756 0.001725
0.003159 0.002782 0.001743
0.003192 0.002808 0.001762
0.003224 0.002835 0.001781
0.003257 0.002861 0.001799
0.003291 0.002888 0.001819
0.003324 0.002915 0.001838
0.003358 0.002943 0.001857
0.003392 0.002970 0.001877
0.003427 0.002998 0.001896
0.003461 0.003025 0.001916
0.003496 0.003053 0.001936
0.003531 0.003082 0.001957
0.003567 0.003110 0.001977
0.003603 0.003139 0.001998
0.003639 0.003168 0.002018
0.003675 0.003197 0.002039
0.003712 0.003226 0.002060
0.003749 0.003256 0.002082
0.003786 0.003285 0.002103
0.003824 0.003315 0.002125
0.003862 0.003345 0.002147
0.003900 0.003376 0.002169
0.003939 0.003406 0.002191
0.003977 0.003437 0.002213
0.004016 0.003468 0.002236
0.004056 0.003499 0.002259
0.004096 0.003531 0.002282
0.004136 0.003563 0.002305
0.004176 0.003594 0.002328
0.004217 0.003627 0.002352
0.004258 0.003659 0.002375
0.004299 0.003692 0.002399
0.004341 0.003724 0.002423
0.004383 0.003757 0.002448
0.004425 0.003791 0.002472
0.004468 0.003824 0.002497
0.004511 0.003858 0.002522
0.004554 0.003892 0.002547
0.004598 0.003926 0.002572
0.004642 0.003961 0.002598
0.004686 0.003995 0.002624
0.004731 0.004030 0.002650
0.004776 0.004066 0.002676
0.004821 0.004101 0.002702
0.004867 0.004137 0.002729
0.004913 0.004173 0.002755
0.004959 0.004209 0.002782
0.005006 0.004245 0.002810
0.005053 0.004282 0.002837
0.005101 0.004319 0.002865
0.005149 0.004356 0.002893
0.005197 0.004393 0.002921
0.005246 0.004431 0.002949
0.005294 0.004469 0.002978
0.005344 0.004507 0.003006
0.005393 0.004546 0.003035
0.005444 0.004585 0.003065
0.005494 0.004623 0.003094
0.005545 0.004663 0.003124
0.005596 0.004702 0.003154
0.005648 0.004742 0.003184
0.005700 0.004782 0.003214
0.005752 0.004822 0.003245
0.005805 0.004863 0.003276
0.005858 0.004904 0.003307
0.005911 0.004945 0.003338
0.005965 0.004986 0.003370
0.006020 0.005028 0.003402
0.006074 0.005070 0.003434
0.006130 0.005112 0.003466
0.006185 0.005155 0.003499
0.006241 0.005197 0.003531
0.006297 0.005240 0.003564
0.006354 0.005284 0.003598
0.006411 0.005327 0.003631
0.006469 0.005371 0.003665
0.006527 0.005416 0.003699
0.006585 0.005460 0.003734
0.006644 0.005505 0.003768
0.006703 0.005550 0.003803
0.006763 0.005595 0.003838
0.006823 0.005641 0.003874
0.006884 0.005687 0.003909
0.006945 0.005733 0.003945
0.007006 0.005780 0.003981
0.007068 0.005827 0.004018
0.007129 0.005874 0.004055
0.007186 0.005921 0.004092
0.007244 0.005969 0.004129
0.007301 0.006012 0.004166
0.007359 0.006055 0.004204
0.007418 0.006098 0.004242
0.007476 0.006141 0.004281
0.007535 0.006184 0.004319
0.007595 0.006228 0.004354
0.007655 0.006271 0.004390
0.007715 0.006315 0.004425
0.007776 0.006360 0.004461
0.007836 0.006404 0.004498
0.007898 0.006449 0.004534
0.007960 0.006494 0.004571
0.008022 0.006539 0.004608
0.008084 0.006584 0.004645
0.008147 0.006630 0.004682
0.008210 0.006676 0.004720
0.008274 0.006722 0.004758
0.008338 0.006768 0.004796
0.008402 0.006815 0.004834
0.008467 0.006862 0.004873
0.008532 0.006909 0.004912
0.008598 0.006956 0.004951
0.008664 0.007004 0.004990
0.008730 0.007052 0.005030
0.008797 0.007100 0.005070
0.008864 0.007148 0.005110
0.008932 0.007197 0.005150
0.009000 0.007246 0.005191
0.009068 0.007295 0.005232
0.009137 0.007344 0.005273
0.009206 0.007394 0.005314
0.009276 0.007444 0.005356
0.009346 0.007494 0.005398
0.009417 0.007545 0.005440
0.009488 0.007595 0.005482
0.009559 0.007646 0.005525
0.009631 0.007697 0.005568
0.009703 0.007749 0.005611
0.009776 0.007801 0.005655
0.009849 0.007853 0.005699
0.009922 0.007905 0.005743
0.009996 0.007957 0.005787
0.010070 0.008010 0.005832
0.010145 0.008063 0.005876
0.010220 0.008116 0.005922
0.010296 0.008170 0.005967
0.010372 0.008224 0.006013
0.010449 0.008278 0.006059
0.010526 0.008332 0.006105
0.010603 0.008387 0.006151
0.010681 0.008442 0.006198
0.010759 0.008497 0.006245
0.010838 0.008553 0.006293
0.010917 0.008609 0.006340
0.010997 0.008665 0.006388
0.011077 0.008721 0.006437
0.011158 0.008778 0.006485
0.011239 0.008835 0.006534
0.011321 0.008892 0.006583
0.011403 0.008949 0.006633
0.011485 0.009007 0.006682
0.011568 0.009065 0.006732
0.011652 0.009123 0.006783
0.011735 0.009182 0.006833
0.011820 0.009241 0.006884
0.011905 0.009300 0.006935
0.011990 0.009359 0.006987
0.012076 0.009419 0.007039
0.012162 0.009479 0.007091
0.012249 0.009540 0.007143
0.012336 0.009600 0.007196
0.012424 0.009661 0.007249
0.012513 0.009723 0.007302
0.012601 0.009784 0.007356
0.012691 0.009846 0.007410
0.012780 0.009908 0.007464
0.012871 0.009970 0.007519
0.012961 0.010033 0.007574
0.013053 0.010096 0.007629
0.013145 0.010160 0.007685
0.013237 0.010223 0.007741
0.013330 0.010287 0.007797
0.013423 0.010351 0.007853
0.013517 0.010416 0.007910
0.013611 0.010481 0.007968
0.013706 0.010546 0.008025
0.013802 0.010611 0.008083
0.013898 0.010677 0.008141
0.013994 0.010743 0.008200
0.014091 0.010810 0.008259
0.014189 0.010877 0.008318
0.014287 0.010944 0.008377
0.014385 0.011011 0.008437
0.014484 0.011079 0.008498
0.014584 0.011147 0.008558
0.014684 0.011215 0.008619
0.014785 0.011284 0.008680
0.014886 0.011353 0.008742
0.014988 0.011422 0.008804
0.015091 0.011491 0.008866
0.015194 0.011561 0.008929
0.015297 0.011632 0.008992
0.015401 0.011702 0.009055
0.015506 0.011773 0.009119
0.015611 0.011844 0.009183
0.015717 0.011916 0.009248
0.015823 0.011988 0.009312
0.015930 0.012060 0.009378
0.016038 0.012133 0.009443
0.016146 0.012206 0.009509
0.016254 0.012279 0.009575
0.016364 0.012352 0.009642
0.016473 0.012426 0.009709
0.016584 0.012501 0.009776
0.016695 0.012575 0.009844
0.016806 0.012650 0.009912
0.016918 0.012725 0.009981
0.017031 0.012801 0.010050
0.017144 0.012877 0.010119
0.017258 0.012953 0.010188
0.017373 0.013030 0.010258
0.017488 0.013107 0.010329
0.017603 0.013184 0.010400
0.017720 0.013262 0.010471
0.017837 0.013340 0.010542
0.017954 0.013418 0.010614
0.018072 0.013497 0.010687
0.018191 0.013576 0.010759
0.018310 0.013656 0.010833
0.018430 0.013735 0.010906
0.018551 0.013816 0.010980
0.018672 0.013896 0.011054
0.018794 0.013977 0.011129
0.018917 0.014058 0.011204
0.019040 0.014140 0.011280
0.019163 0.014222 0.011356
0.019288 0.014304 0.011432
0.019413 0.014387 0.011509
0.019538 0.014470 0.011586
0.019665 0.014553 0.011664
0.019792 0.014637 0.011742
0.019919 0.014721 0.011820
0.020048 0.014806 0.011899
0.020176 0.014891 0.011978
0.020306 0.014976 0.012058
0.020436 0.015062 0.012138
0.020567 0.015148 0.012218
0.020699 0.015234 0.012299
0.020831 0.015321 0.012381
0.020964 0.015408 0.012462
0.021097 0.015496 0.012545
0.021231 0.015584 0.012627
0.021366 0.015672 0.012710
0.021502 0.015761 0.012794
0.021638 0.015850 0.012878
0.021775 0.015939 0.012962
0.021913 0.016029 0.013047
0.022051 0.016119 0.013132
0.022190 0.016210 0.013218
0.022330 0.016301 0.013304
0.022470 0.016392 0.013391
0.022611 0.016484 0.013478
0.022753 0.016576 0.013566
0.022895 0.016669 0.013654
0.023038 0.016762 0.013742
0.023182 0.016855 0.013831
0.023327 0.016949 0.013920
0.023472 0.017043 0.014010
0.023618 0.017138 0.014100
0.023765 0.017233 0.014191
0.023912 0.017328 0.014282
0.024061 0.017424 0.014374
0.024209 0.017520 0.014466
0.024359 0.017616 0.014559
0.024509 0.017713 0.014652
0.024661 0.017811 0.014745
0.024812 0.017909 0.014840
0.024965 0.018007 0.014934
0.025118 0.018106 0.015029
0.025272 0.018205 0.015125
0.025427 0.018304 0.015220
0.025583 0.018404 0.015317
0.025739 0.018504 0.015414
0.025896 0.018605 0.015511
0.026054 0.018706 0.015609
0.026212 0.018808 0.015708
0.026372 0.018910 0.015807
0.026532 0.019012 0.015906
0.026693 0.019115 0.016006
0.026854 0.019218 0.016106
0.027017 0.019322 0.016207
0.027180 0.019426 0.016309
0.027344 0.019530 0.016410
0.027509 0.019635 0.016513
0.027674 0.019741 0.016616
0.027841 0.019846 0.016719
0.028008 0.019953 0.016823
0.028176 0.020059 0.016928
0.028344 0.020167 0.017033
0.028514 0.020274 0.017138
0.028684 0.020382 0.017244
0.028855 0.020491 0.017351
0.029027 0.020599 0.017458
0.029200 0.020709 0.017566
0.029373 0.020819 0.017674
0.029548 0.020929 0.017782
0.029723 0.021039 0.017892
0.029899 0.021151 0.018001
0.030076 0.021262 0.018112
0.030253 0.021374 0.018222
0.030432 0.021487 0.018334
0.030611 0.021600 0.018446
0.030791 0.021713 0.018558
0.030972 0.021827 0.018671
0.031154 0.021941 0.018785
0.031337 0.022056 0.018899
0.031520 0.022171 0.019013
0.031705 0.022287 0.019128
0.031890 0.022403 0.019244
0.032076 0.022519 0.019360
0.032263 0.022636 0.019477
0.032451 0.022754 0.019595
0.032639 0.022872 0.019713
0.032829 0.022990 0.019831
0.033019 0.023109 0.019950
0.033210 0.023229 0.020070
0.033402 0.023349 0.020190
0.033595 0.023469 0.020311
0.033789 0.023590 0.020433
0.033984 0.023711 0.020555
0.034180 0.023833 0.020677
0.034376 0.023955 0.020800
0.034574 0.024078 0.020924
0.034772 0.024201 0.021049
0.034971 0.024325 0.021174
0.035171 0.024449 0.021299
0.035373 0.024573 0.021425
0.035574 0.024699 0.021552
0.035777 0.024824 0.021679
0.035981 0.024950 0.021807
0.036186 0.025077 0.021936
0.036391 0.025204 0.022065
0.036598 0.025332 0.022194
0.036805 0.025460 0.022325
0.037014 0.025588 0.022456
0.037223 0.025717 0.022587
0.037433 0.025847 0.022719
0.037645 0.025977 0.022852
0.037857 0.026108 0.022986
0.038070 0.026239 0.023120
0.038284 0.026370 0.023254
0.038499 0.026502 0.023390
0.038715 0.026635 0.023525
0.038932 0.026768 0.023662
0.039150 0.026902 0.023799
0.039368 0.027036 0.023937
0.039588 0.027170 0.024075
0.039809 0.027306 0.024214
0.040031 0.027441 0.024354
0.040235 0.027577 0.024494
0.040404 0.027714 0.024635
0.040575 0.027851 0.024777
0.040746 0.027989 0.024919
0.040917 0.028108 0.025062
0.041089 0.028221 0.025206
0.041261 0.028334 0.025350
0.041434 0.028447 0.025495
0.041608 0.028560 0.025641
0.041782 0.028674 0.025784
0.041956 0.028788 0.025897
0.042131 0.028902 0.026010
0.042307 0.029017 0.026124
0.042483 0.029132 0.026237
0.042660 0.029247 0.026352
0.042837 0.029363 0.026466
0.043015 0.029479 0.026581
0.043193 0.029595 0.026696
0.043372 0.029712 0.026812
0.043551 0.029829 0.026928
0.043731 0.029946 0.027044
