config/curves/Kodak_Endura_Premier.cube
# DiVERE Density Curve 1D LUT
LUT_1D_SIZE 65536
DOMAIN_MIN 0.0 0.0 0.0
DOMAIN_MAX 1.0 1.0 1.0

0.002277 0.003802 0.004278
0.002277 0.003802 0.004278
0.002277 0.003802 0.004278
0.002277 0.003802 0.004278
0.002277 0.003802 0.004278
0.002277 0.003802 0.004278
0.002277 0.003802 0.004278
0.002277 0.003802 0.004278
0.002277 0.003802 0.004278
0.002277 0.003802 0.004278
0.002277 0.003802 0.004278
0.002277 0.003802 0.004278
0.002277 0.003802 0.004278
0.002277 0.003802 0.004278
0.002277 0.003802 0.004278
0.002277 0.003802 0.004278
0.002277 0.003802 0.004278
0.002277 0.003802 0.004278
0.002277 0.003802 0.004278
0.002277 0.003802 0.004278
0.002277 0.003802 0.004278
0.002277 0.003802 0.004278
0.002277 0.003802 0.004278
0.002277 0.003802 0.004278
0.002277 0.003802 0.004278
0.002277 0.003802 0.004278
0.002277 0.003802 0.004278
0.002277 0.003802 0.004278
0.002277 0.003802 0.004278
0.002277 0.003802 0.004278
0.002277 0.003802 0.004278
0.002277 0.003802 0.004278
0.002277 0.003802 0.004278
0.002277 0.003802 0.004278
0.002277 0.003802 0.004278
0.002277 0.003802 0.004278
0.002277 0.003802 0.004278
0.002277 0.003802 0.004278
0.002277 0.003802 0.004278
0.002277 0.003802 0.004278
0.002277 0.003802 0.004278
0.002277 0.003802 0.004278
0.002277 0.003802 0.004278
0.002277 0.003802 0.004278
0.002277 0.003802 0.004278
0.002277 0.003802 0.004278
0.002277 0.003802 0.004278
0.002277 0.003802 0.004278
0.002277 0.003802 0.004278
0.002277 0.003802 0.004278
0.002277 0.003802 0.004278
0.002277 0.003802 0.004278
0.002277 0.003802 0.004278
0.002277 0.003802 0.004278
0.002277 0.003802 0.004278
0.002277 0.003802 0.004278
0.002277 0.003802 0.004278
0.002277 0.003802 0.004278
0.002277 0.003802 0.004278
0.002277 0.003802 0.004278
0.002277 0.003802 0.004278
0.002277 0.003802 0.004278
0.002277 0.003802 0.004278
0.002277 0.003802 0.004278
0.002277 0.003802 0.004278
0.002277 0.003802 0.004278
0.002277 0.003802 0.004278
0.002277 0.003802 0.004278
0.002277 0.003802 0.004278
0.002277 0.003802 0.004278
0.002277 0.003802 0.004278
0.002277 0.003802 0.004278
0.002277 0.003802 0.004278
0.002277 0.003802 0.004278
0.002277 0.003802 0.004278
0.002277 0.003802 0.004278
0.002277 0.003802 0.004278
0.002277 0.003802 0.004278
0.002277 0.003802 0.004278
0.002277 0.003802 0.004278
0.002277 0.003802 0.004278
0.002277 0.003802 0.004278
0.002277 0.003802 0.004278
0.002277 0.003802 0.004278
0.002277 0.003802 0.004278
0.002277 0.003802 0.004278
0.002277 0.003802 0.004278
0.002277 0.003802 0.004278
0.002277 0.003802 0.004278
0.002277 0.003802 0.004278
0.002277 0.003801 0.004278
0.002276 0.003798 0.004278
0.002273 0.003795 0.004278
0.002271 0.003793 0.004277
0.002268 0.003790 0.004275
0.002265 0.003788 0.004274
0.002263 0.003785 0.004272
0.002260 0.003783 0.004271
0.002258 0.003781 0.004269
0.002255 0.003778 0.004268
0.002253 0.003776 0.004266
0.002250 0.003774 0.004265
0.002248 0.003771 0.004263
0.002245 0.003769 0.004262
0.002243 0.003767 0.004261
0.002240 0.003765 0.004259
0.002238 0.003762 0.004258
0.002236 0.003760 0.004257
0.002233 0.003758 0.004255
0.002231 0.003756 0.004254
0.002229 0.003754 0.004253
0.002227 0.003752 0.004251
0.002224 0.003750 0.004250
0.002222 0.003747 0.004249
0.002220 0.003745 0.004247
0.002218 0.003743 0.004246
0.002216 0.003741 0.004245
0.002214 0.003739 0.004244
0.002212 0.003737 0.004242
0.002209 0.003736 0.004241
0.002207 0.003734 0.004240
0.002205 0.003732 0.004239
0.002203 0.003730 0.004238
0.002201 0.003728 0.004236
0.002199 0.003726 0.004235
0.002197 0.003724 0.004234
0.002196 0.003722 0.004233
0.002194 0.003722 0.004232
0.002192 0.003723 0.004231
0.002192 0.003724 0.004230
0.002192 0.003725 0.004229
0.002192 0.003726 0.004229
0.002192 0.003727 0.004230
0.002192 0.003728 0.004230
0.002191 0.003729 0.004231
0.002191 0.003730 0.004232
0.002191 0.003730 0.004232
0.002191 0.003731 0.004233
0.002191 0.003732 0.004234
0.002191 0.003733 0.004234
0.002191 0.003734 0.004235
0.002191 0.003735 0.004236
0.002191 0.003736 0.004236
0.002191 0.003737 0.004237
0.002191 0.003737 0.004238
0.002191 0.003738 0.004238
0.002191 0.003739 0.004239
0.002191 0.003740 0.004240
0.002191 0.003741 0.004240
0.002191 0.003742 0.004241
0.002191 0.003742 0.004242
0.002191 0.003743 0.004242
0.002191 0.003744 0.004243
0.002191 0.003745 0.004243
0.002191 0.003746 0.004244
0.002191 0.003746 0.004245
0.002191 0.003747 0.004245
0.002191 0.003748 0.004246
0.002191 0.003749 0.004246
0.002191 0.003750 0.004247
0.002191 0.003750 0.004248
0.002191 0.003751 0.004248
0.002191 0.003752 0.004249
0.002191 0.003753 0.004249
0.002191 0.003753 0.004250
0.002191 0.003754 0.004251
0.002191 0.003755 0.004251
0.002191 0.003756 0.004252
0.002191 0.003756 0.004252
0.002191 0.003757 0.004253
0.002191 0.003758 0.004253
0.002191 0.003759 0.004254
0.002191 0.003759 0.004254
0.002191 0.003760 0.004255
0.002191 0.003761 0.004256
0.002191 0.003761 0.004256
0.002191 0.003762 0.004257
0.002191 0.003763 0.004257
0.002191 0.003764 0.004258
0.002191 0.003765 0.004258
0.002191 0.003768 0.004259
0.002191 0.003771 0.004259
0.002193 0.003774 0.004260
0.002196 0.003777 0.004260
0.002198 0.003780 0.004261
0.002200 0.003783 0.004263
0.002202 0.003786 0.004265
0.002205 0.003789 0.004267
0.002207 0.003792 0.004269
0.002209 0.003795 0.004271
0.002211 0.003797 0.004273
0.002213 0.003800 0.004275
0.002216 0.003803 0.004277
0.002218 0.003806 0.004279
0.002220 0.003809 0.004281
0.002222 0.003812 0.004283
0.002224 0.003815 0.004285
0.002226 0.003817 0.004287
0.002228 0.003820 0.004289
0.002230 0.003823 0.004291
0.002233 0.003826 0.004293
0.002235 0.003828 0.004295
0.002237 0.003831 0.004296
0.002239 0.003834 0.004298
0.002241 0.003837 0.004300
0.002243 0.003839 0.004302
0.002245 0.003842 0.004304
0.002247 0.003845 0.004306
0.002249 0.003847 0.004307
0.002251 0.003850 0.004309
0.002253 0.003853 0.004311
0.002255 0.003855 0.004313
0.002257 0.003858 0.004315
0.002259 0.003861 0.004316
0.002261 0.003863 0.004318
0.002263 0.003866 0.004320
0.002265 0.003868 0.004322
0.002267 0.003871 0.004323
0.002269 0.003873 0.004325
0.002271 0.003876 0.004327
0.002273 0.003879 0.004329
0.002275 0.003881 0.004330
0.002277 0.003884 0.004332
0.002279 0.003886 0.004334
0.002281 0.003889 0.004336
0.002283 0.003891 0.004337
0.002284 0.003894 0.004339
0.002286 0.003896 0.004341
0.002288 0.003899 0.004342
0.002290 0.003901 0.004344
0.002292 0.003904 0.004346
0.002294 0.003906 0.004347
0.002296 0.003908 0.004349
0.002298 0.003911 0.004351
0.002299 0.003913 0.004352
0.002301 0.003916 0.004354
0.002303 0.003918 0.004355
0.002305 0.003920 0.004357
0.002307 0.003923 0.004359
0.002309 0.003925 0.004360
0.002310 0.003928 0.004362
0.002312 0.003930 0.004363
0.002314 0.003932 0.004365
0.002316 0.003935 0.004367
0.002318 0.003937 0.004368
0.002319 0.003939 0.004370
0.002321 0.003942 0.004371
0.002323 0.003944 0.004373
0.002325 0.003946 0.004374
0.002326 0.003948 0.004376
0.002328 0.003951 0.004377
0.002330 0.003953 0.004379
0.002332 0.003955 0.004381
0.002333 0.003958 0.004382
0.002335 0.003961 0.004384
0.002337 0.003964 0.004385
0.002339 0.003967 0.004387
0.002342 0.003970 0.004388
0.002345 0.003974 0.004390
0.002347 0.003977 0.004391
0.002350 0.003980 0.004393
0.002352 0.003983 0.004395
0.002355 0.003986 0.004396
0.002357 0.003989 0.004398
0.002360 0.003992 0.004400
0.002363 0.003995 0.004402
0.002365 0.003998 0.004404
0.002368 0.004001 0.004405
0.002370 0.004004 0.004407
0.002373 0.004007 0.004409
0.002375 0.004010 0.004411
0.002378 0.004013 0.004412
0.002380 0.004016 0.004414
0.002383 0.004019 0.004416
0.002385 0.004022 0.004417
0.002388 0.004025 0.004419
0.002390 0.004028 0.004421
0.002393 0.004030 0.004423
0.002395 0.004033 0.004424
0.002398 0.004036 0.004426
0.002400 0.004039 0.004428
0.002403 0.004042 0.004429
0.002405 0.004045 0.004431
0.002407 0.004048 0.004433
0.002410 0.004051 0.004434
0.002412 0.004053 0.004436
0.002415 0.004056 0.004438
0.002417 0.004059 0.004439
0.002419 0.004062 0.004441
0.002422 0.004065 0.004443
0.002424 0.004068 0.004444
0.002427 0.004070 0.004446
0.002429 0.004073 0.004447
0.002431 0.004076 0.004449
0.002434 0.004079 0.004451
0.002436 0.004082 0.004452
0.002439 0.004084 0.004454
0.002441 0.004087 0.004456
0.002443 0.004090 0.004457
0.002446 0.004093 0.004459
0.002448 0.004095 0.004460
0.002450 0.004098 0.004462
0.002453 0.004101 0.004463
0.002455 0.004103 0.004465
0.002457 0.004106 0.004467
0.002460 0.004109 0.004468
0.002462 0.004112 0.004470
0.002464 0.004114 0.004471
0.002466 0.004117 0.004473
0.002469 0.004120 0.004474
0.002471 0.004122 0.004476
0.002473 0.004125 0.004477
0.002476 0.004128 0.004479
0.002478 0.004130 0.004480
0.002480 0.004133 0.004482
0.002482 0.004135 0.004484
0.002485 0.004138 0.004485
0.002487 0.004141 0.004487
0.002489 0.004143 0.004488
0.002491 0.004146 0.004490
0.002494 0.004149 0.004491
0.002496 0.004151 0.004493
0.002498 0.004154 0.004494
0.002500 0.004156 0.004496
0.002502 0.004159 0.004497
0.002505 0.004161 0.004498
0.002507 0.004164 0.004500
0.002509 0.004167 0.004501
0.002511 0.004169 0.004503
0.002513 0.004172 0.004504
0.002516 0.004174 0.004506
0.002518 0.004177 0.004507
0.002520 0.004179 0.004509
0.002522 0.004182 0.004510
0.002524 0.004184 0.004512
0.002526 0.004187 0.004513
0.002529 0.004189 0.004514
0.002531 0.004192 0.004516
0.002533 0.004194 0.004517
0.002535 0.004197 0.004519
0.002537 0.004199 0.004520
0.002539 0.004202 0.004522
0.002541 0.004204 0.004523
0.002544 0.004207 0.004524
0.002546 0.004209 0.004526
0.002548 0.004211 0.004527
0.002550 0.004214 0.004529
0.002552 0.004216 0.004530
0.002554 0.004219 0.004531
0.002556 0.004221 0.004533
0.002558 0.004224 0.004534
0.002560 0.004226 0.004535
0.002562 0.004228 0.004537
0.002565 0.004231 0.004538
0.002567 0.004233 0.004540
0.002569 0.004236 0.004541
0.002571 0.004238 0.004542
0.002573 0.004241 0.004544
0.002575 0.004250 0.004545
0.002577 0.004258 0.004546
0.002579 0.004266 0.004548
0.002585 0.004274 0.004549
0.002592 0.004282 0.004550
0.002600 0.004291 0.004552
0.002607 0.004299 0.004553
0.002614 0.004307 0.004554
0.002622 0.004315 0.004558
0.002629 0.004323 0.004565
0.002637 0.004331 0.004572
0.002644 0.004340 0.004578
0.002651 0.004348 0.004585
0.002659 0.004356 0.004592
0.002666 0.004364 0.004598
0.002674 0.004372 0.004605
0.002681 0.004380 0.004612
0.002688 0.004388 0.004618
0.002696 0.004396 0.004625
0.002703 0.004404 0.004632
0.002711 0.004412 0.004638
0.002718 0.004421 0.004645
0.002725 0.004429 0.004651
0.002733 0.004437 0.004658
0.002740 0.004445 0.004664
0.002748 0.004453 0.004671
0.002755 0.004461 0.004678
0.002763 0.004469 0.004684
0.002770 0.004477 0.004691
0.002777 0.004485 0.004697
0.002785 0.004493 0.004704
0.002792 0.004501 0.004710
0.002800 0.004509 0.004717
0.002807 0.004517 0.004723
0.002814 0.004525 0.004730
0.002822 0.004533 0.004736
0.002829 0.004541 0.004743
0.002837 0.004549 0.004749
0.002844 0.004557 0.004756
0.002852 0.004565 0.004762
0.002859 0.004573 0.004768
0.002866 0.004581 0.004775
0.002874 0.004588 0.004781
0.002881 0.004596 0.004788
0.002889 0.004604 0.004794
0.002896 0.004612 0.004801
0.002903 0.004620 0.004807
0.002911 0.004628 0.004813
0.002918 0.004636 0.004820
0.002926 0.004644 0.004826
0.002933 0.004652 0.004833
0.002941 0.004660 0.004839
0.002948 0.004667 0.004845
0.002955 0.004675 0.004852
0.002963 0.004683 0.004858
0.002970 0.004691 0.004864
0.002978 0.004699 0.004871
0.002985 0.004707 0.004877
0.002993 0.004715 0.004883
0.003000 0.004722 0.004890
0.003007 0.004730 0.004896
0.003015 0.004738 0.004902
0.003022 0.004746 0.004908
0.003030 0.004754 0.004915
0.003037 0.004762 0.004921
0.003045 0.004769 0.004927
0.003052 0.004777 0.004933
0.003060 0.004785 0.004940
0.003067 0.004793 0.004946
0.003074 0.004800 0.004952
0.003082 0.004808 0.004958
0.003089 0.004816 0.004965
0.003097 0.004824 0.004971
0.003104 0.004832 0.004977
0.003112 0.004839 0.004983
0.003119 0.004847 0.004990
0.003127 0.004855 0.004996
0.003134 0.004862 0.005002
0.003141 0.004870 0.005008
0.003149 0.004878 0.005014
0.003156 0.004886 0.005020
0.003164 0.004893 0.005027
0.003171 0.004901 0.005033
0.003179 0.004909 0.005039
0.003186 0.004916 0.005045
0.003194 0.004924 0.005051
0.003201 0.004932 0.005057
0.003208 0.004939 0.005063
0.003216 0.004947 0.005069
0.003223 0.004955 0.005076
0.003231 0.004962 0.005082
0.003238 0.004970 0.005088
0.003246 0.004978 0.005094
0.003253 0.004985 0.005100
0.003261 0.004993 0.005106
0.003268 0.005001 0.005112
0.003275 0.005008 0.005118
0.003283 0.005016 0.005124
0.003290 0.005024 0.005130
0.003298 0.005031 0.005136
0.003305 0.005039 0.005142
0.003313 0.005046 0.005148
0.003320 0.005054 0.005154
0.003328 0.005062 0.005160
0.003335 0.005069 0.005166
0.003343 0.005077 0.005172
0.003350 0.005084 0.005178
0.003358 0.005092 0.005184
0.003365 0.005100 0.005190
0.003372 0.005107 0.005196
0.003380 0.005115 0.005202
0.003387 0.005122 0.005208
0.003395 0.005130 0.005214
0.003402 0.005137 0.005220
0.003410 0.005145 0.005226
0.003417 0.005152 0.005232
0.003425 0.005160 0.005238
0.003432 0.005167 0.005244
0.003440 0.005175 0.005250
0.003447 0.005182 0.005256
0.003455 0.005190 0.005262
0.003462 0.005197 0.005268
0.003469 0.005205 0.005274
0.003477 0.005212 0.005280
0.003484 0.005220 0.005286
0.003492 0.005227 0.005291
0.003499 0.005235 0.005297
0.003507 0.005242 0.005303
0.003514 0.005250 0.005309
0.003522 0.005257 0.005315
0.003529 0.005265 0.005321
0.003537 0.005272 0.005327
0.003544 0.005280 0.005332
0.003552 0.005287 0.005338
0.003559 0.005295 0.005344
0.003567 0.005302 0.005350
0.003574 0.005309 0.005356
0.003582 0.005317 0.005362
0.003589 0.005324 0.005368
0.003597 0.005332 0.005373
0.003604 0.005339 0.005379
0.003611 0.005347 0.005385
0.003619 0.005354 0.005391
0.003626 0.005361 0.005397
0.003634 0.005369 0.005402
0.003641 0.005376 0.005408
0.003649 0.005384 0.005414
0.003656 0.005399 0.005420
0.003664 0.005418 0.005425
0.003671 0.005436 0.005431
0.003679 0.005454 0.005437
0.003689 0.005472 0.005443
0.003708 0.005491 0.005448
0.003726 0.005509 0.005454
0.003745 0.005528 0.005460
0.003763 0.005546 0.005466
0.003782 0.005565 0.005471
0.003800 0.005583 0.005477
0.003819 0.005602 0.005486
0.003837 0.005620 0.005503
0.003856 0.005639 0.005520
0.003875 0.005657 0.005537
0.003894 0.005676 0.005554
0.003913 0.005694 0.005570
0.003932 0.005713 0.005587
0.003951 0.005732 0.005604
0.003970 0.005751 0.005621
0.003989 0.005769 0.005638
0.004008 0.005788 0.005655
0.004027 0.005807 0.005672
0.004047 0.005826 0.005689
0.004066 0.005844 0.005706
0.004085 0.005863 0.005723
0.004105 0.005882 0.005740
0.004124 0.005901 0.005757
0.004144 0.005920 0.005774
0.004164 0.005939 0.005791
0.004183 0.005958 0.005808
0.004203 0.005977 0.005825
0.004223 0.005996 0.005842
0.004243 0.006015 0.005860
0.004263 0.006034 0.005877
0.004282 0.006053 0.005894
0.004303 0.006072 0.005911
0.004323 0.006092 0.005928
0.004343 0.006111 0.005946
0.004363 0.006130 0.005963
0.004383 0.006149 0.005980
0.004403 0.006169 0.005997
0.004424 0.006188 0.006015
0.004444 0.006207 0.006032
0.004465 0.006227 0.006049
0.004485 0.006246 0.006067
0.004506 0.006265 0.006084
0.004526 0.006285 0.006102
0.004547 0.006304 0.006119
0.004568 0.006324 0.006136
0.004589 0.006343 0.006154
0.004610 0.006363 0.006171
0.004631 0.006382 0.006189
0.004652 0.006402 0.006206
0.004673 0.006421 0.006224
0.004694 0.006441 0.006241
0.004715 0.006461 0.006259
0.004736 0.006480 0.006277
0.004757 0.006500 0.006294
0.004779 0.006520 0.006312
0.004800 0.006539 0.006330
0.004822 0.006559 0.006347
0.004843 0.006579 0.006365
0.004865 0.006599 0.006383
0.004886 0.006619 0.006400
0.004908 0.006638 0.006418
0.004930 0.006658 0.006436
0.004951 0.006678 0.006454
0.004973 0.006698 0.006471
0.004995 0.006718 0.006489
0.005017 0.006738 0.006507
0.005039 0.006758 0.006525
0.005061 0.006778 0.006543
0.005083 0.006798 0.006561
0.005106 0.006818 0.006578
0.005128 0.006838 0.006596
0.005150 0.006858 0.006614
0.005173 0.006879 0.006632
0.005195 0.006899 0.006650
0.005217 0.006919 0.006668
0.005240 0.006939 0.006686
0.005263 0.006959 0.006704
0.005285 0.006980 0.006722
0.005308 0.007000 0.006740
0.005331 0.007020 0.006758
0.005354 0.007041 0.006776
0.005377 0.007061 0.006795
0.005400 0.007082 0.006813
0.005423 0.007102 0.006831
0.005446 0.007122 0.006849
0.005469 0.007143 0.006867
0.005492 0.007163 0.006885
0.005515 0.007184 0.006904
0.005539 0.007204 0.006922
0.005562 0.007225 0.006940
0.005585 0.007246 0.006958
0.005609 0.007266 0.006977
0.005632 0.007287 0.006995
0.005656 0.007308 0.007013
0.005680 0.007328 0.007031
0.005703 0.007349 0.007050
0.005727 0.007370 0.007068
0.005751 0.007390 0.007087
0.005775 0.007411 0.007105
0.005799 0.007432 0.007123
0.005823 0.007453 0.007142
0.005847 0.007474 0.007160
0.005871 0.007495 0.007179
0.005896 0.007515 0.007197
0.005920 0.007536 0.007216
0.005944 0.007557 0.007234
0.005969 0.007578 0.007253
0.005993 0.007599 0.007271
0.006018 0.007620 0.007290
0.006042 0.007641 0.007309
0.006067 0.007663 0.007327
0.006091 0.007684 0.007346
0.006116 0.007705 0.007364
0.006141 0.007726 0.007383
0.006166 0.007747 0.007402
0.006191 0.007768 0.007421
0.006216 0.007789 0.007439
0.006241 0.007811 0.007458
0.006266 0.007832 0.007477
0.006291 0.007853 0.007495
0.006316 0.007875 0.007514
0.006342 0.007896 0.007533
0.006367 0.007917 0.007552
0.006393 0.007939 0.007571
0.006418 0.007960 0.007590
0.006444 0.007982 0.007608
0.006469 0.008003 0.007627
0.006495 0.008024 0.007646
0.006521 0.008046 0.007665
0.006546 0.008068 0.007684
0.006572 0.008089 0.007703
0.006598 0.008111 0.007722
0.006624 0.008132 0.007741
0.006650 0.008154 0.007760
0.006676 0.008176 0.007779
0.006702 0.008197 0.007798
0.006729 0.008219 0.007817
0.006755 0.008241 0.007836
0.006781 0.008262 0.007855
0.006808 0.008284 0.007874
0.006834 0.008306 0.007894
0.006861 0.008328 0.007913
0.006887 0.008350 0.007932
0.006914 0.008371 0.007951
0.006941 0.008393 0.007970
0.006968 0.008415 0.007989
0.006994 0.008437 0.008009
0.007021 0.008459 0.008028
0.007048 0.008481 0.008047
0.007075 0.008503 0.008066
0.007102 0.008525 0.008086
0.007130 0.008547 0.008105
0.007157 0.008569 0.008124
0.007184 0.008591 0.008144
0.007211 0.008614 0.008163
0.007239 0.008636 0.008182
0.007266 0.008658 0.008202
0.007294 0.008680 0.008221
0.007321 0.008702 0.008241
0.007349 0.008724 0.008260
0.007377 0.008747 0.008280
0.007405 0.008769 0.008299
0.007432 0.008791 0.008319
0.007460 0.008814 0.008338
0.007488 0.008836 0.008358
0.007516 0.008858 0.008377
0.007545 0.008881 0.008397
0.007573 0.008903 0.008416
0.007601 0.008926 0.008436
0.007629 0.008948 0.008456
0.007658 0.008971 0.008475
0.007686 0.008993 0.008495
0.007714 0.009016 0.008514
0.007743 0.009038 0.008534
0.007772 0.009061 0.008554
0.007800 0.009084 0.008574
0.007829 0.009106 0.008593
0.007858 0.009129 0.008613
0.007887 0.009152 0.008633
0.007916 0.009174 0.008653
0.007945 0.009197 0.008672
0.007974 0.009220 0.008692
0.008003 0.009242 0.008712
0.008032 0.009265 0.008732
0.008061 0.009288 0.008752
0.008091 0.009311 0.008772
0.008120 0.009334 0.008792
0.008149 0.009357 0.008811
0.008179 0.009380 0.008831
0.008209 0.009403 0.008851
0.008238 0.009426 0.008871
0.008268 0.009449 0.008891
0.008298 0.009472 0.008911
0.008327 0.009495 0.008931
0.008357 0.009518 0.008951
0.008387 0.009541 0.008971
0.008417 0.009564 0.008991
0.008447 0.009587 0.009011
0.008478 0.009610 0.009032
0.008508 0.009633 0.009052
0.008538 0.009656 0.009072
0.008568 0.009680 0.009092
0.008599 0.009703 0.009112
0.008629 0.009737 0.009132
0.008660 0.009785 0.009152
0.008690 0.009833 0.009173
0.008721 0.009881 0.009193
0.008752 0.009929 0.009213
0.008783 0.009977 0.009233
0.008832 0.010026 0.009254
0.008887 0.010074 0.009274
0.008942 0.010123 0.009294
0.008997 0.010172 0.009315
0.009053 0.010221 0.009335
0.009109 0.010270 0.009355
0.009165 0.010320 0.009376
0.009221 0.010369 0.009396
0.009278 0.010419 0.009416
0.009335 0.010469 0.009450
0.009392 0.010519 0.009498
0.009450 0.010570 0.009546
0.009507 0.010620 0.009595
0.009565 0.010671 0.009644
0.009624 0.010721 0.009693
0.009682 0.010772 0.009742
0.009741 0.010824 0.009792
0.009800 0.010875 0.009841
0.009860 0.010926 0.009891
0.009919 0.010978 0.009941
0.009979 0.011030 0.009991
0.010039 0.011082 0.010041
0.010100 0.011134 0.010092
0.010161 0.011187 0.010142
0.010222 0.011239 0.010193
0.010283 0.011292 0.010244
0.010345 0.011345 0.010295
0.010407 0.011398 0.010347
0.010469 0.011451 0.010398
0.010532 0.011505 0.010450
0.010594 0.011558 0.010502
0.010658 0.011612 0.010554
0.010721 0.011666 0.010607
0.010785 0.011720 0.010659
0.010849 0.011774 0.010712
0.010913 0.011829 0.010765
0.010977 0.011884 0.010818
0.011042 0.011938 0.010871
0.011107 0.011993 0.010925
0.011173 0.012049 0.010978
0.011239 0.012104 0.011032
0.011305 0.012160 0.011086
0.011371 0.012215 0.011140
0.011438 0.012271 0.011195
0.011505 0.012328 0.011250
0.011572 0.012384 0.011304
0.011639 0.012440 0.011359
0.011707 0.012497 0.011415
0.011775 0.012554 0.011470
0.011844 0.012611 0.011526
0.011913 0.012668 0.011582
0.011982 0.012726 0.011638
0.012051 0.012783 0.011694
0.012121 0.012841 0.011750
0.012191 0.012899 0.011807
0.012261 0.012957 0.011864
0.012332 0.013016 0.011921
0.012403 0.013074 0.011978
0.012474 0.013133 0.012035
0.012546 0.013192 0.012093
0.012618 0.013251 0.012151
0.012690 0.013310 0.012209
0.012763 0.013370 0.012267
0.012836 0.013429 0.012325
0.012909 0.013489 0.012384
0.012982 0.013549 0.012443
0.013056 0.013609 0.012502
0.013130 0.013670 0.012561
0.013205 0.013730 0.012620
0.013280 0.013791 0.012680
0.013355 0.013852 0.012740
0.013430 0.013913 0.012800
0.013506 0.013975 0.012860
0.013582 0.014036 0.012921
0.013659 0.014098 0.012981
0.013736 0.014160 0.013042
0.013813 0.014222 0.013103
0.013890 0.014285 0.013165
0.013968 0.014347 0.013226
0.014046 0.014410 0.013288
0.014125 0.014473 0.013350
0.014204 0.014536 0.013412
0.014283 0.014599 0.013474
0.014362 0.014663 0.013537
0.014442 0.014727 0.013600
0.014522 0.014791 0.013663
0.014603 0.014855 0.013726
0.014684 0.014919 0.013789
0.014765 0.014983 0.013853
0.014847 0.015048 0.013917
0.014929 0.015113 0.013981
0.015011 0.015178 0.014045
0.015094 0.015244 0.014110
0.015177 0.015309 0.014174
0.015260 0.015375 0.014239
0.015344 0.015441 0.014304
0.015428 0.015507 0.014370
0.015512 0.015573 0.014435
0.015597 0.015640 0.014501
0.015682 0.015706 0.014567
0.015768 0.015773 0.014633
0.015854 0.015840 0.014700
0.015940 0.015908 0.014766
0.016026 0.015975 0.014833
0.016113 0.016043 0.014900
0.016201 0.016111 0.014968
0.016288 0.016179 0.015035
0.016376 0.016247 0.015103
0.016465 0.016316 0.015171
0.016554 0.016385 0.015239
0.016643 0.016454 0.015308
0.016732 0.016523 0.015376
0.016822 0.016592 0.015445
0.016913 0.016662 0.015514
0.017003 0.016732 0.015584
0.017094 0.016802 0.015653
0.017186 0.016872 0.015723
0.017277 0.016942 0.015793
0.017370 0.017013 0.015863
0.017462 0.017084 0.015934
0.017555 0.017155 0.016005
0.017648 0.017226 0.016075
0.017742 0.017297 0.016147
0.017836 0.017369 0.016218
0.017931 0.017441 0.016290
0.018025 0.017513 0.016362
0.018121 0.017585 0.016434
0.018216 0.017658 0.016506
0.018312 0.017731 0.016579
0.018409 0.017804 0.016651
0.018506 0.017877 0.016724
0.018603 0.017950 0.016798
0.018700 0.018024 0.016871
0.018798 0.018098 0.016945
0.018897 0.018172 0.017019
0.018996 0.018246 0.017093
0.019095 0.018320 0.017167
0.019194 0.018395 0.017242
0.019294 0.018470 0.017317
0.019395 0.018545 0.017392
0.019496 0.018620 0.017467
0.019597 0.018696 0.017543
0.019698 0.018772 0.017619
0.019800 0.018848 0.017695
0.019903 0.018924 0.017771
0.020006 0.019000 0.017848
0.020109 0.019077 0.017925
0.020213 0.019154 0.018002
0.020317 0.019231 0.018079
0.020421 0.019308 0.018157
0.020526 0.019386 0.018234
0.020632 0.019463 0.018312
0.020737 0.019541 0.018391
0.020843 0.019620 0.018469
0.020950 0.019698 0.018548
0.021057 0.019777 0.018627
0.021164 0.019856 0.018706
0.021272 0.019935 0.018786
0.021381 0.020014 0.018866
0.021489 0.020093 0.018946
0.021598 0.020173 0.019026
0.021708 0.020253 0.019106
0.021818 0.020333 0.019187
0.021928 0.020414 0.019268
0.022039 0.020494 0.019349
0.022151 0.020575 0.019431
