config/curves/Kodak_Supra_Endura.cube
# DiVERE Density Curve 1D LUT
LUT_1D_SIZE 65536
DOMAIN_MIN 0.0 0.0 0.0
DOMAIN_MAX 1.0 1.0 1.0

0.002779 0.003113 0.003963
0.002779 0.003113 0.003963
0.002779 0.003113 0.003963
0.002779 0.003113 0.003963
0.002779 0.003113 0.003963
0.002779 0.003113 0.003963
0.002779 0.003113 0.003963
0.002779 0.003113 0.003963
0.002779 0.003113 0.003963
0.002779 0.003113 0.003963
0.002779 0.003113 0.003963
0.002779 0.003113 0.003963
0.002779 0.003113 0.003963
0.002779 0.003113 0.003963
0.002779 0.003113 0.003963
0.002779 0.003113 0.003963
0.002779 0.003113 0.003963
0.002779 0.003113 0.003963
0.002779 0.003113 0.003963
0.002779 0.003113 0.003963
0.002779 0.003113 0.003963
0.002779 0.003113 0.003963
0.002779 0.003113 0.003963
0.002779 0.003113 0.003963
0.002779 0.003113 0.003963
0.002779 0.003113 0.003963
0.002779 0.003113 0.003963
0.002779 0.003113 0.003963
0.002779 0.003113 0.003963
0.002779 0.003113 0.003963
0.002779 0.003113 0.003963
0.002779 0.003113 0.003963
0.002779 0.003113 0.003963
0.002779 0.003113 0.003963
0.002779 0.003113 0.003963
0.002779 0.003113 0.003963
0.002779 0.003113 0.003963
0.002779 0.003113 0.003963
0.002779 0.003113 0.003963
0.002779 0.003113 0.003963
0.002779 0.003113 0.003963
0.002779 0.003113 0.003963
0.002779 0.003113 0.003963
0.002779 0.003113 0.003963
0.002779 0.003113 0.003963
0.002779 0.003113 0.003963
0.002779 0.003113 0.003963
0.002779 0.003113 0.003963
0.002779 0.003113 0.003963
0.002779 0.003113 0.003963
0.002779 0.003113 0.003963
0.002779 0.003113 0.003963
0.002779 0.003113 0.003963
0.002779 0.003113 0.003963
0.002779 0.003113 0.003963
0.002779 0.003113 0.003963
0.002779 0.003113 0.003963
0.002779 0.003113 0.003963
0.002779 0.003113 0.003963
0.002779 0.003113 0.003963
0.002779 0.003113 0.003963
0.002779 0.003113 0.003963
0.002779 0.003113 0.003963
0.002779 0.003113 0.003963
0.002779 0.003113 0.003963
0.002779 0.003113 0.003963
0.002779 0.003113 0.003963
0.002779 0.003113 0.003963
0.002779 0.003113 0.003963
0.002779 0.003113 0.003963
0.002779 0.003113 0.003963
0.002779 0.003113 0.003963
0.002779 0.003113 0.003963
0.002779 0.003113 0.003963
0.002779 0.003113 0.003963
0.002779 0.003113 0.003963
0.002779 0.003113 0.003963
0.002779 0.003113 0.003963
0.002779 0.003113 0.003963
0.002779 0.003113 0.003963
0.002779 0.003113 0.003963
0.002779 0.003113 0.003963
0.002779 0.003113 0.003963
0.002779 0.003113 0.003963
0.002779 0.003113 0.003963
0.002779 0.003113 0.003963
0.002779 0.003113 0.003963
0.002779 0.003113 0.003956
0.002779 0.003112 0.003944
0.002779 0.003109 0.003933
0.002776 0.003107 0.003922
0.002771 0.003104 0.003911
0.002765 0.003102 0.003900
0.002760 0.003099 0.003890
0.002755 0.003097 0.003879
0.002750 0.003094 0.003869
0.002745 0.003092 0.003858
0.002739 0.003089 0.003848
0.002734 0.003087 0.003838
0.002730 0.003085 0.003829
0.002725 0.003083 0.003819
0.002720 0.003080 0.003809
0.002715 0.003078 0.003800
0.002710 0.003076 0.003791
0.002706 0.003074 0.003781
0.002701 0.003071 0.003772
0.002696 0.003069 0.003763
0.002692 0.003067 0.003754
0.002687 0.003065 0.003745
0.002683 0.003063 0.003737
0.002679 0.003061 0.003728
0.002674 0.003059 0.003720
0.002670 0.003057 0.003711
0.002666 0.003055 0.003703
0.002662 0.003053 0.003695
0.002658 0.003051 0.003687
0.002653 0.003049 0.003678
0.002649 0.003047 0.003671
0.002645 0.003045 0.003663
0.002641 0.003043 0.003655
0.002637 0.003041 0.003647
0.002634 0.003039 0.003640
0.002630 0.003037 0.003632
0.002626 0.003035 0.003632
0.002622 0.003036 0.003633
0.002618 0.003042 0.003634
0.002615 0.003047 0.003635
0.002613 0.003052 0.003636
0.002615 0.003057 0.003637
0.002616 0.003062 0.003638
0.002618 0.003067 0.003639
0.002619 0.003072 0.003640
0.002621 0.003077 0.003641
0.002623 0.003082 0.003642
0.002624 0.003087 0.003643
0.002626 0.003091 0.003644
0.002627 0.003096 0.003645
0.002629 0.003101 0.003646
0.002630 0.003106 0.003647
0.002632 0.003111 0.003648
0.002633 0.003115 0.003649
0.002635 0.003120 0.003650
0.002636 0.003125 0.003651
0.002638 0.003129 0.003652
0.002639 0.003134 0.003653
0.002640 0.003138 0.003654
0.002642 0.003143 0.003654
0.002643 0.003148 0.003655
0.002645 0.003152 0.003656
0.002646 0.003157 0.003657
0.002647 0.003161 0.003658
0.002649 0.003165 0.003659
0.002650 0.003170 0.003660
0.002652 0.003174 0.003661
0.002653 0.003179 0.003661
0.002654 0.003183 0.003662
0.002656 0.003187 0.003663
0.002657 0.003192 0.003664
0.002658 0.003196 0.003665
0.002660 0.003200 0.003666
0.002661 0.003204 0.003666
0.002662 0.003209 0.003667
0.002663 0.003213 0.003668
0.002665 0.003217 0.003669
0.002666 0.003221 0.003670
0.002667 0.003225 0.003670
0.002669 0.003230 0.003671
0.002670 0.003234 0.003672
0.002671 0.003238 0.003673
0.002672 0.003242 0.003674
0.002674 0.003246 0.003674
0.002675 0.003250 0.003675
0.002676 0.003254 0.003676
0.002677 0.003258 0.003677
0.002678 0.003262 0.003680
0.002680 0.003268 0.003683
0.002681 0.003277 0.003685
0.002682 0.003286 0.003688
0.002683 0.003295 0.003690
0.002684 0.003303 0.003693
0.002689 0.003312 0.003695
0.002693 0.003321 0.003698
0.002697 0.003330 0.003701
0.002701 0.003338 0.003703
0.002706 0.003347 0.003706
0.002710 0.003356 0.003708
0.002714 0.003364 0.003711
0.002718 0.003373 0.003713
0.002722 0.003381 0.003715
0.002726 0.003390 0.003718
0.002730 0.003398 0.003720
0.002734 0.003407 0.003723
0.002739 0.003415 0.003725
0.002743 0.003424 0.003728
0.002747 0.003432 0.003730
0.002751 0.003441 0.003732
0.002755 0.003449 0.003735
0.002759 0.003457 0.003737
0.002763 0.003466 0.003739
0.002767 0.003474 0.003742
0.002771 0.003482 0.003744
0.002774 0.003490 0.003746
0.002778 0.003499 0.003749
0.002782 0.003507 0.003751
0.002786 0.003515 0.003753
0.002790 0.003523 0.003755
0.002794 0.003531 0.003758
0.002798 0.003539 0.003760
0.002802 0.003548 0.003762
0.002805 0.003556 0.003764
0.002809 0.003564 0.003767
0.002813 0.003572 0.003769
0.002817 0.003580 0.003771
0.002821 0.003588 0.003773
0.002824 0.003596 0.003776
0.002828 0.003604 0.003778
0.002832 0.003612 0.003780
0.002836 0.003620 0.003782
0.002839 0.003628 0.003784
0.002843 0.003635 0.003786
0.002847 0.003643 0.003788
0.002850 0.003651 0.003791
0.002854 0.003659 0.003793
0.002858 0.003667 0.003795
0.002861 0.003675 0.003797
0.002865 0.003682 0.003799
0.002869 0.003690 0.003801
0.002872 0.003698 0.003803
0.002876 0.003706 0.003805
0.002879 0.003713 0.003807
0.002883 0.003721 0.003809
0.002886 0.003729 0.003811
0.002890 0.003736 0.003813
0.002894 0.003744 0.003815
0.002897 0.003752 0.003817
0.002901 0.003759 0.003820
0.002904 0.003767 0.003822
0.002908 0.003774 0.003824
0.002911 0.003782 0.003826
0.002915 0.003790 0.003828
0.002918 0.003797 0.003829
0.002921 0.003805 0.003831
0.002925 0.003812 0.003833
0.002928 0.003820 0.003835
0.002932 0.003827 0.003837
0.002935 0.003834 0.003843
0.002939 0.003842 0.003848
0.002942 0.003852 0.003854
0.002945 0.003865 0.003859
0.002949 0.003877 0.003864
0.002952 0.003890 0.003870
0.002955 0.003902 0.003875
0.002959 0.003915 0.003881
0.002962 0.003927 0.003886
0.002968 0.003940 0.003891
0.002975 0.003952 0.003897
0.002981 0.003965 0.003902
0.002988 0.003977 0.003907
0.002994 0.003989 0.003912
0.003000 0.004002 0.003918
0.003007 0.004014 0.003923
0.003013 0.004027 0.003928
0.003019 0.004039 0.003933
0.003026 0.004051 0.003939
0.003032 0.004064 0.003944
0.003038 0.004076 0.003949
0.003044 0.004088 0.003954
0.003051 0.004101 0.003959
0.003057 0.004113 0.003964
0.003063 0.004125 0.003970
0.003069 0.004138 0.003975
0.003076 0.004150 0.003980
0.003082 0.004162 0.003985
0.003088 0.004175 0.003990
0.003094 0.004187 0.003995
0.003101 0.004199 0.004000
0.003107 0.004211 0.004005
0.003113 0.004224 0.004010
0.003119 0.004236 0.004015
0.003125 0.004248 0.004020
0.003131 0.004260 0.004025
0.003137 0.004272 0.004030
0.003144 0.004285 0.004035
0.003150 0.004297 0.004040
0.003156 0.004309 0.004045
0.003162 0.004321 0.004050
0.003168 0.004333 0.004055
0.003174 0.004345 0.004060
0.003180 0.004358 0.004065
0.003186 0.004370 0.004070
0.003192 0.004382 0.004075
0.003198 0.004394 0.004079
0.003204 0.004406 0.004084
0.003210 0.004418 0.004089
0.003216 0.004430 0.004094
0.003222 0.004442 0.004099
0.003228 0.004454 0.004104
0.003234 0.004466 0.004108
0.003240 0.004479 0.004113
0.003246 0.004491 0.004118
0.003252 0.004503 0.004123
0.003258 0.004515 0.004128
0.003264 0.004527 0.004132
0.003270 0.004539 0.004137
0.003276 0.004551 0.004142
0.003282 0.004563 0.004146
0.003288 0.004575 0.004151
0.003294 0.004587 0.004156
0.003299 0.004599 0.004161
0.003305 0.004611 0.004165
0.003311 0.004623 0.004170
0.003317 0.004635 0.004175
0.003323 0.004647 0.004179
0.003329 0.004659 0.004184
0.003335 0.004670 0.004189
0.003340 0.004682 0.004193
0.003346 0.004694 0.004198
0.003352 0.004706 0.004202
0.003358 0.004718 0.004207
0.003364 0.004730 0.004212
0.003369 0.004742 0.004216
0.003375 0.004754 0.004221
0.003381 0.004766 0.004225
0.003387 0.004778 0.004230
0.003392 0.004789 0.004234
0.003398 0.004801 0.004239
0.003404 0.004813 0.004243
0.003410 0.004825 0.004248
0.003415 0.004837 0.004252
0.003421 0.004849 0.004257
0.003427 0.004860 0.004261
0.003432 0.004872 0.004266
0.003438 0.004884 0.004270
0.003444 0.004896 0.004275
0.003449 0.004908 0.004279
0.003455 0.004919 0.004284
0.003461 0.004931 0.004288
0.003466 0.004943 0.004293
0.003472 0.004955 0.004297
0.003478 0.004966 0.004301
0.003483 0.004978 0.004306
0.003489 0.004990 0.004310
0.003494 0.005002 0.004315
0.003500 0.005013 0.004319
0.003506 0.005025 0.004323
0.003511 0.005037 0.004329
0.003517 0.005049 0.004342
0.003522 0.005060 0.004355
0.003528 0.005074 0.004369
0.003534 0.005097 0.004382
0.003539 0.005119 0.004395
0.003545 0.005142 0.004409
0.003550 0.005165 0.004422
0.003556 0.005188 0.004436
0.003561 0.005211 0.004449
0.003567 0.005234 0.004463
0.003572 0.005257 0.004476
0.003578 0.005280 0.004489
0.003585 0.005303 0.004503
0.003600 0.005327 0.004516
0.003615 0.005350 0.004530
0.003629 0.005373 0.004543
0.003644 0.005396 0.004556
0.003659 0.005420 0.004570
0.003674 0.005443 0.004583
0.003689 0.005466 0.004597
0.003704 0.005490 0.004610
0.003719 0.005513 0.004624
0.003734 0.005537 0.004637
0.003749 0.005560 0.004651
0.003764 0.005584 0.004664
0.003779 0.005607 0.004677
0.003794 0.005631 0.004691
0.003809 0.005655 0.004704
0.003824 0.005678 0.004718
0.003839 0.005702 0.004731
0.003854 0.005726 0.004745
0.003869 0.005750 0.004758
0.003884 0.005773 0.004772
0.003900 0.005797 0.004785
0.003915 0.005821 0.004799
0.003930 0.005845 0.004812
0.003945 0.005869 0.004826
0.003960 0.005893 0.004839
0.003976 0.005917 0.004852
0.003991 0.005941 0.004866
0.004006 0.005965 0.004879
0.004022 0.005990 0.004893
0.004037 0.006014 0.004906
0.004052 0.006038 0.004920
0.004068 0.006062 0.004933
0.004083 0.006087 0.004947
0.004099 0.006111 0.004960
0.004114 0.006135 0.004974
0.004129 0.006160 0.004987
0.004145 0.006184 0.005001
0.004160 0.006209 0.005014
0.004176 0.006233 0.005028
0.004191 0.006258 0.005041
0.004207 0.006282 0.005055
0.004223 0.006307 0.005069
0.004238 0.006332 0.005082
0.004254 0.006356 0.005096
0.004269 0.006381 0.005109
0.004285 0.006406 0.005123
0.004301 0.006430 0.005136
0.004316 0.006455 0.005150
0.004332 0.006480 0.005163
0.004348 0.006505 0.005177
0.004364 0.006530 0.005190
0.004379 0.006555 0.005204
0.004395 0.006580 0.005217
0.004411 0.006605 0.005231
0.004427 0.006630 0.005244
0.004442 0.006655 0.005258
0.004458 0.006680 0.005272
0.004474 0.006705 0.005285
0.004490 0.006731 0.005299
0.004506 0.006756 0.005312
0.004522 0.006781 0.005326
0.004538 0.006806 0.005339
0.004554 0.006832 0.005353
0.004570 0.006857 0.005366
0.004586 0.006882 0.005380
0.004602 0.006908 0.005394
0.004618 0.006933 0.005407
0.004634 0.006959 0.005421
0.004650 0.006984 0.005434
0.004666 0.007010 0.005448
0.004682 0.007036 0.005462
0.004698 0.007061 0.005475
0.004714 0.007087 0.005489
0.004730 0.007113 0.005502
0.004747 0.007138 0.005516
0.004763 0.007164 0.005529
0.004779 0.007190 0.005543
0.004795 0.007216 0.005557
0.004811 0.007242 0.005570
0.004828 0.007267 0.005584
0.004844 0.007293 0.005597
0.004860 0.007319 0.005611
0.004877 0.007345 0.005625
0.004893 0.007371 0.005638
0.004909 0.007397 0.005652
0.004926 0.007424 0.005666
0.004942 0.007450 0.005679
0.004958 0.007476 0.005693
0.004975 0.007502 0.005706
0.004991 0.007528 0.005720
0.005008 0.007555 0.005734
0.005024 0.007581 0.005747
0.005041 0.007607 0.005761
0.005057 0.007634 0.005774
0.005074 0.007660 0.005788
0.005090 0.007686 0.005802
0.005107 0.007713 0.005815
0.005123 0.007739 0.005829
0.005140 0.007766 0.005843
0.005156 0.007792 0.005856
0.005173 0.007819 0.005870
0.005190 0.007846 0.005884
0.005206 0.007872 0.005897
0.005223 0.007899 0.005911
0.005240 0.007926 0.005925
0.005256 0.007953 0.005938
0.005273 0.007979 0.005952
0.005290 0.008006 0.005966
0.005307 0.008033 0.005979
0.005323 0.008060 0.005993
0.005340 0.008087 0.006007
0.005357 0.008114 0.006020
0.005374 0.008141 0.006034
0.005391 0.008168 0.006048
0.005408 0.008195 0.006061
0.005424 0.008222 0.006075
0.005441 0.008249 0.006089
0.005458 0.008276 0.006102
0.005475 0.008303 0.006116
0.005492 0.008331 0.006130
0.005509 0.008358 0.006143
0.005526 0.008385 0.006157
0.005543 0.008412 0.006171
0.005560 0.008440 0.006184
0.005577 0.008467 0.006198
0.005594 0.008494 0.006212
0.005611 0.008522 0.006225
0.005628 0.008549 0.006239
0.005645 0.008577 0.006253
0.005663 0.008604 0.006276
0.005680 0.008632 0.006312
0.005697 0.008660 0.006348
0.005714 0.008687 0.006385
0.005731 0.008736 0.006421
0.005748 0.008787 0.006458
0.005766 0.008838 0.006495
0.005783 0.008889 0.006532
0.005800 0.008940 0.006569
0.005817 0.008992 0.006606
0.005835 0.009043 0.006644
0.005852 0.009095 0.006681
0.005869 0.009147 0.006719
0.005887 0.009199 0.006757
0.005904 0.009252 0.006795
0.005921 0.009305 0.006833
0.005939 0.009357 0.006871
0.005956 0.009410 0.006910
0.005975 0.009464 0.006948
0.006015 0.009517 0.006987
0.006055 0.009571 0.007026
0.006095 0.009625 0.007064
0.006136 0.009679 0.007104
0.006176 0.009733 0.007143
0.006217 0.009787 0.007182
0.006258 0.009842 0.007222
0.006299 0.009897 0.007261
0.006340 0.009952 0.007301
0.006382 0.010007 0.007341
0.006424 0.010062 0.007381
0.006465 0.010118 0.007421
0.006508 0.010174 0.007461
0.006550 0.010230 0.007502
0.006592 0.010286 0.007542
0.006635 0.010342 0.007583
0.006678 0.010399 0.007624
0.006721 0.010456 0.007665
0.006764 0.010513 0.007706
0.006807 0.010570 0.007748
0.006851 0.010627 0.007789
0.006895 0.010685 0.007831
0.006939 0.010743 0.007872
0.006983 0.010801 0.007914
0.007027 0.010859 0.007956
0.007072 0.010917 0.007998
0.007117 0.010976 0.008041
0.007162 0.011035 0.008083
0.007207 0.011094 0.008126
0.007252 0.011153 0.008168
0.007298 0.011212 0.008211
0.007344 0.011272 0.008254
0.007390 0.011332 0.008298
0.007436 0.011392 0.008341
0.007483 0.011452 0.008384
0.007529 0.011513 0.008428
0.007576 0.011573 0.008472
0.007623 0.011634 0.008516
0.007670 0.011695 0.008560
0.007718 0.011757 0.008604
0.007765 0.011818 0.008648
0.007813 0.011880 0.008693
0.007861 0.011942 0.008737
0.007909 0.012004 0.008782
0.007958 0.012066 0.008827
0.008007 0.012129 0.008872
0.008055 0.012192 0.008917
0.008104 0.012255 0.008963
0.008154 0.012318 0.009008
0.008203 0.012381 0.009054
0.008253 0.012445 0.009100
0.008303 0.012509 0.009146
0.008353 0.012573 0.009192
0.008403 0.012637 0.009238
0.008454 0.012701 0.009285
0.008505 0.012766 0.009331
0.008556 0.012831 0.009378
0.008607 0.012896 0.009425
0.008658 0.012961 0.009472
0.008710 0.013027 0.009519
0.008762 0.013092 0.009566
0.008814 0.013158 0.009614
0.008866 0.013225 0.009661
0.008919 0.013291 0.009709
0.008972 0.013358 0.009757
0.009024 0.013424 0.009805
0.009078 0.013491 0.009853
0.009131 0.013559 0.009902
0.009185 0.013626 0.009950
0.009238 0.013694 0.009999
0.009292 0.013762 0.010048
0.009347 0.013830 0.010097
0.009401 0.013898 0.010146
0.009456 0.013967 0.010195
0.009511 0.014036 0.010245
0.009566 0.014105 0.010294
0.009621 0.014174 0.010344
0.009677 0.014243 0.010394
0.009733 0.014313 0.010444
0.009789 0.014383 0.010494
0.009845 0.014453 0.010545
0.009902 0.014523 0.010595
0.009959 0.014594 0.010646
0.010015 0.014664 0.010697
0.010073 0.014735 0.010748
0.010130 0.014807 0.010799
0.010188 0.014878 0.010850
0.010246 0.014950 0.010902
0.010304 0.015022 0.010953
0.010362 0.015094 0.011005
0.010421 0.015166 0.011057
0.010480 0.015239 0.011109
0.010539 0.015311 0.011162
0.010598 0.015384 0.011214
0.010657 0.015458 0.011267
0.010717 0.015531 0.011319
0.010777 0.015605 0.011372
0.010837 0.015679 0.011425
0.010898 0.015753 0.011479
0.010958 0.015827 0.011532
0.011019 0.015902 0.011586
0.011081 0.015977 0.011639
0.011142 0.016052 0.011693
0.011204 0.016127 0.011747
0.011265 0.016202 0.011801
0.011328 0.016278 0.011856
0.011390 0.016354 0.011910
0.011453 0.016430 0.011965
0.011515 0.016507 0.012020
0.011578 0.016583 0.012075
0.011642 0.016660 0.012130
0.011705 0.016737 0.012185
0.011769 0.016815 0.012241
0.011833 0.016892 0.012296
0.011898 0.016970 0.012352
0.011962 0.017048 0.012408
0.012027 0.017126 0.012464
0.012092 0.017205 0.012520
0.012157 0.017284 0.012577
0.012223 0.017363 0.012633
0.012289 0.017442 0.012690
0.012355 0.017521 0.012747
0.012421 0.017601 0.012804
0.012487 0.017681 0.012862
0.012554 0.017761 0.012919
0.012621 0.017841 0.012977
0.012688 0.017922 0.013034
0.012756 0.018003 0.013092
0.012824 0.018084 0.013150
0.012892 0.018165 0.013209
0.012960 0.018247 0.013267
0.013029 0.018329 0.013326
0.013097 0.018411 0.013384
0.013167 0.018493 0.013443
0.013236 0.018576 0.013502
0.013305 0.018658 0.013562
0.013375 0.018741 0.013621
0.013445 0.018825 0.013681
0.013516 0.018908 0.013740
0.013586 0.018992 0.013800
0.013657 0.019076 0.013861
0.013728 0.019160 0.013921
0.013800 0.019244 0.013981
0.013871 0.019329 0.014042
0.013943 0.019414 0.014103
0.014015 0.019499 0.014164
0.014088 0.019584 0.014225
0.014160 0.019670 0.014286
0.014233 0.019756 0.014347
0.014306 0.019842 0.014409
0.014380 0.019928 0.014471
0.014454 0.020015 0.014533
0.014528 0.020102 0.014595
0.014602 0.020189 0.014657
0.014676 0.020276 0.014720
0.014751 0.020364 0.014782
0.014826 0.020452 0.014845
0.014902 0.020540 0.014908
0.014977 0.020628 0.014971
0.015053 0.020717 0.015035
0.015129 0.020806 0.015098
0.015206 0.020895 0.015162
0.015282 0.020984 0.015226
0.015359 0.021074 0.015290
0.015437 0.021163 0.015354
0.015514 0.021254 0.015418
0.015592 0.021344 0.015483
0.015670 0.021434 0.015548
0.015748 0.021525 0.015612
0.015827 0.021616 0.015677
0.015906 0.021708 0.015743
0.015985 0.021799 0.015808
0.016064 0.021891 0.015874
0.016144 0.021983 0.015940
0.016224 0.022075 0.016005
0.016304 0.022168 0.016072
0.016385 0.022261 0.016138
0.016465 0.022354 0.016204
0.016547 0.022447 0.016271
0.016628 0.022541 0.016338
0.016710 0.022634 0.016405
0.016792 0.022729 0.016472
0.016874 0.022823 0.016539
0.016956 0.022917 0.016632
0.017039 0.023012 0.016735
0.017122 0.023107 0.016838
0.017205 0.023203 0.016941
0.017289 0.023322 0.017045
0.017373 0.023451 0.017149
0.017457 0.023580 0.017254
0.017542 0.023711 0.017360
0.017626 0.023841 0.017466
0.017712 0.023973 0.017572
0.017797 0.024104 0.017679
0.017882 0.024237 0.017786
0.017968 0.024370 0.017894
0.018055 0.024503 0.018003
0.018141 0.024637 0.018111
0.018228 0.024771 0.018221
0.018315 0.024906 0.018331
0.018402 0.025042 0.018441
0.018490 0.025178 0.018552
0.018578 0.025315 0.018663
0.018666 0.025452 0.018775
0.018755 0.025590 0.018888
0.018844 0.025728 0.019001
0.018933 0.025867 0.019114
0.019022 0.026006 0.019228
0.019112 0.026146 0.019343
0.019219 0.026287 0.019458
0.019335 0.026428 0.019573
0.019451 0.026569 0.019689
0.019567 0.026712 0.019806
0.019685 0.026854 0.019923
0.019802 0.026998 0.020041
0.019920 0.027142 0.020159
0.020039 0.027286 0.020277
0.020158 0.027431 0.020397
0.020278 0.027577 0.020516
0.020398 0.027723 0.020637
0.020519 0.027870 0.020758
0.020641 0.028017 0.020879
0.020763 0.028165 0.021001
0.020885 0.028313 0.021123
0.021008 0.028462 0.021246
0.021132 0.028612 0.021370
0.021256 0.028762 0.021494
0.021381 0.028913 0.021619
0.021506 0.029064 0.021744
0.021632 0.029216 0.021870
0.021759 0.029369 0.021996
0.021886 0.029522 0.022123
0.022013 0.029676 0.022250
0.022141 0.029830 0.022378
0.022270 0.029985 0.022507
0.022399 0.030140 0.022636
0.022529 0.030296 0.022766
0.022660 0.030453 0.022896
0.022791 0.030610 0.023027
0.022922 0.030768 0.023158
0.023055 0.030927 0.023290
0.023187 0.031086 0.023423
0.023321 0.031245 0.023556
0.023455 0.031406 0.023690
0.023589 0.031567 0.023824
0.023724 0.031728 0.023959
0.023860 0.031890 0.024094
0.023996 0.032053 0.024230
0.024133 0.032216 0.024367
0.024271 0.032380 0.024504
0.024409 0.032545 0.024642
0.024548 0.032710 0.024780
0.024687 0.032876 0.024919
0.024827 0.033042 0.025059
0.024967 0.033209 0.025199
0.025108 0.033377 0.025339
0.025250 0.033545 0.025481
0.025393 0.033714 0.025623
0.025536 0.033884 0.025765
0.025679 0.034054 0.025909
0.025823 0.034225 0.026052
0.025968 0.034396 0.026197
0.026114 0.034568 0.026342
0.026260 0.034741 0.026487
0.026406 0.034914 0.026634
0.026554 0.035088 0.026780
0.026702 0.035263 0.026928
0.026850 0.035438 0.027076
0.027000 0.035614 0.027225
0.027149 0.035791 0.027374
0.027300 0.035968 0.027524
0.027451 0.036146 0.027674
0.027603 0.036324 0.027826
0.027755 0.036504 0.027977
0.027908 0.036683 0.028130
0.028062 0.036864 0.028283
0.028216 0.037045 0.028437
0.028371 0.037227 0.028591
0.028527 0.037409 0.028746
0.028683 0.037592 0.028902
0.028840 0.037776 0.029058
0.028998 0.037960 0.029215
0.029156 0.038145 0.029373
0.029315 0.038331 0.029531
0.029475 0.038518 0.029690
0.029635 0.038705 0.029849
0.029796 0.038893 0.030009
0.029958 0.039081 0.030170
0.030120 0.039270 0.030332
0.030283 0.039460 0.030494
0.030447 0.039650 0.030657
0.030611 0.039841 0.030820
0.030776 0.040033 0.030985
0.030942 0.040226 0.031149
0.031108 0.040419 0.031315
0.031275 0.040613 0.031481
0.031443 0.040807 0.031648
0.031611 0.041003 0.031815
0.031780 0.041199 0.031984
0.031950 0.041395 0.032152
0.032121 0.041592 0.032322
0.032292 0.041790 0.032492
0.032464 0.041989 0.032663
0.032636 0.042189 0.032835
0.032810 0.042389 0.033007
0.032984 0.042589 0.033180
0.033159 0.042791 0.033354
0.033334 0.042993 0.033528
0.033510 0.043196 0.033703
0.033687 0.043400 0.033879
0.033865 0.043604 0.034055
0.034043 0.043809 0.034233
0.034222 0.044015 0.034410
0.034402 0.044221 0.034589
0.034582 0.044429 0.034768
0.034763 0.044636 0.034948
0.034945 0.044845 0.035129
0.035128 0.045054 0.035310
0.035311 0.045264 0.035492
0.035495 0.045475 0.035675
0.035680 0.045687 0.035859
0.035866 0.045899 0.036043
0.036052 0.046112 0.036228
0.036239 0.046326 0.036414
0.036427 0.046540 0.036600
0.036615 0.046755 0.036788
0.036805 0.046971 0.036976
0.036995 0.047188 0.037164
0.037185 0.047405 0.037354
0.037377 0.047623 0.037544
0.037569 0.047842 0.037735
0.037762 0.048062 0.037926
0.037956 0.048282 0.038119
0.038151 0.048503 0.038312
0.038346 0.048725 0.038505
0.038542 0.048947 0.038700
0.038739 0.049171 0.038895
0.038937 0.049395 0.039091
0.039135 0.049620 0.039288
0.039334 0.049845 0.039486
0.039534 0.050072 0.039684
0.039735 0.050299 0.039883
0.039936 0.050527 0.040083
0.040139 0.050755 0.040284
0.040342 0.050985 0.040485
0.040546 0.051215 0.040688
0.040750 0.051446 0.040890
0.040956 0.051677 0.041094
0.041162 0.051910 0.041299
0.041369 0.052143 0.041504
0.041577 0.052377 0.041710
0.041786 0.052612 0.041917
0.041995 0.052847 0.042125
0.042205 0.053084 0.042333
0.042417 0.053321 0.042542
0.042628 0.053559 0.042752
0.042841 0.053797 0.042963
0.043055 0.054037 0.043174
0.043269 0.054277 0.043387
0.043484 0.054518 0.043600
0.043700 0.054760 0.043814
0.043917 0.055003 0.044029
0.044134 0.055246 0.044244
0.044353 0.055490 0.044461
0.044572 0.055735 0.044678
0.044792 0.055981 0.044896
0.045013 0.056228 0.045115
0.045235 0.056475 0.045334
0.045457 0.056723 0.045555
0.045681 0.056972 0.045776
0.045905 0.057222 0.045998
0.046130 0.057473 0.046221
0.046356 0.057724 0.046445
0.046583 0.057976 0.046669
0.046811 0.058230 0.046894
0.047039 0.058483 0.047121
0.047268 0.058738 0.047348
0.047499 0.058994 0.047576
