config/curves/Kodak_Portra_Endura.cube
# DiVERE Density Curve 1D LUT
LUT_1D_SIZE 65536
DOMAIN_MIN 0.0 0.0 0.0
DOMAIN_MAX 1.0 1.0 1.0

0.002641 0.002672 0.004641
0.002641 0.002672 0.004641
0.002641 0.002672 0.004641
0.002641 0.002672 0.004641
0.002641 0.002672 0.004641
0.002641 0.002672 0.004641
0.002641 0.002672 0.004641
0.002641 0.002672 0.004641
0.002641 0.002672 0.004641
0.002641 0.002672 0.004641
0.002641 0.002672 0.004641
0.002641 0.002672 0.004641
0.002641 0.002672 0.004641
0.002641 0.002672 0.004641
0.002641 0.002672 0.004641
0.002641 0.002672 0.004641
0.002641 0.002672 0.004641
0.002641 0.002672 0.004641
0.002641 0.002672 0.004641
0.002641 0.002672 0.004641
0.002641 0.002672 0.004641
0.002641 0.002672 0.004641
0.002641 0.002672 0.004641
0.002641 0.002672 0.004641
0.002641 0.002672 0.004641
0.002641 0.002672 0.004641
0.002641 0.002672 0.004641
0.002641 0.002672 0.004641
0.002641 0.002672 0.004641
0.002641 0.002672 0.004641
0.002641 0.002672 0.004641
0.002641 0.002672 0.004641
0.002641 0.002672 0.004641
0.002641 0.002672 0.004641
0.002641 0.002672 0.004641
0.002641 0.002672 0.004641
0.002641 0.002672 0.004641
0.002641 0.002672 0.004641
0.002641 0.002672 0.004641
0.002641 0.002672 0.004641
0.002641 0.002672 0.004641
0.002641 0.002672 0.004641
0.002641 0.002672 0.004641
0.002641 0.002672 0.004641
0.002641 0.002672 0.004641
0.002641 0.002672 0.004641
0.002641 0.002672 0.004641
0.002641 0.002672 0.004641
0.002641 0.002672 0.004641
0.002641 0.002672 0.004641
0.002641 0.002672 0.004641
0.002641 0.002672 0.004641
0.002641 0.002672 0.004641
0.002641 0.002672 0.004641
0.002641 0.002672 0.004641
0.002641 0.002672 0.004641
0.002641 0.002672 0.004641
0.002641 0.002672 0.004641
0.002641 0.002672 0.004641
0.002641 0.002672 0.004641
0.002641 0.002672 0.004641
0.002641 0.002672 0.004641
0.002641 0.002672 0.004641
0.002641 0.002672 0.004641
0.002641 0.002672 0.004641
0.002641 0.002672 0.004641
0.002641 0.002672 0.004641
0.002641 0.002672 0.004641
0.002641 0.002672 0.004641
0.002641 0.002672 0.004641
0.002641 0.002672 0.004641
0.002641 0.002672 0.004641
0.002641 0.002672 0.004641
0.002641 0.002672 0.004641
0.002641 0.002672 0.004641
0.002641 0.002672 0.004641
0.002641 0.002672 0.004641
0.002641 0.002672 0.004641
0.002641 0.002672 0.004641
0.002641 0.002672 0.004641
0.002641 0.002672 0.004641
0.002641 0.002672 0.004641
0.002641 0.002672 0.004641
0.002641 0.002672 0.004641
0.002641 0.002672 0.004641
0.002641 0.002672 0.004641
0.002641 0.002672 0.004641
0.002641 0.002672 0.004641
0.002641 0.002672 0.004641
0.002641 0.002676 0.004643
0.002642 0.002682 0.004646
0.002647 0.002687 0.004649
0.002652 0.002692 0.004652
0.002657 0.002697 0.004655
0.002662 0.002703 0.004657
0.002668 0.002708 0.004660
0.002673 0.002713 0.004663
0.002677 0.002718 0.004665
0.002682 0.002723 0.004668
0.002687 0.002728 0.004671
0.002692 0.002733 0.004673
0.002697 0.002738 0.004676
0.002702 0.002743 0.004678
0.002706 0.002748 0.004681
0.002711 0.002752 0.004683
0.002716 0.002757 0.004686
0.002720 0.002762 0.004688
0.002725 0.002767 0.004690
0.002729 0.002771 0.004693
0.002734 0.002776 0.004695
0.002738 0.002780 0.004698
0.002743 0.002785 0.004700
0.002747 0.002790 0.004702
0.002752 0.002794 0.004705
0.002756 0.002798 0.004707
0.002760 0.002803 0.004709
0.002764 0.002807 0.004711
0.002769 0.002812 0.004714
0.002773 0.002816 0.004716
0.002777 0.002820 0.004718
0.002781 0.002824 0.004720
0.002785 0.002829 0.004722
0.002789 0.002833 0.004724
0.002794 0.002837 0.004727
0.002798 0.002841 0.004729
0.002802 0.002845 0.004731
0.002806 0.002848 0.004732
0.002810 0.002851 0.004734
0.002812 0.002854 0.004735
0.002815 0.002857 0.004737
0.002818 0.002860 0.004739
0.002821 0.002863 0.004740
0.002824 0.002866 0.004742
0.002827 0.002869 0.004743
0.002829 0.002872 0.004745
0.002832 0.002875 0.004747
0.002835 0.002878 0.004748
0.002838 0.002881 0.004750
0.002840 0.002883 0.004751
0.002843 0.002886 0.004753
0.002846 0.002889 0.004754
0.002848 0.002892 0.004756
0.002851 0.002895 0.004757
0.002854 0.002897 0.004759
0.002856 0.002900 0.004760
0.002859 0.002903 0.004762
0.002861 0.002906 0.004763
0.002864 0.002908 0.004765
0.002867 0.002911 0.004766
0.002869 0.002914 0.004767
0.002872 0.002916 0.004769
0.002874 0.002919 0.004770
0.002877 0.002922 0.004772
0.002879 0.002924 0.004773
0.002882 0.002927 0.004774
0.002884 0.002929 0.004776
0.002887 0.002932 0.004777
0.002889 0.002934 0.004778
0.002891 0.002937 0.004780
0.002894 0.002940 0.004781
0.002896 0.002942 0.004782
0.002898 0.002945 0.004784
0.002901 0.002947 0.004785
0.002903 0.002950 0.004786
0.002906 0.002952 0.004788
0.002908 0.002954 0.004789
0.002910 0.002957 0.004790
0.002912 0.002959 0.004791
0.002915 0.002962 0.004793
0.002917 0.002964 0.004794
0.002919 0.002966 0.004795
0.002922 0.002969 0.004797
0.002924 0.002971 0.004798
0.002926 0.002974 0.004799
0.002928 0.002976 0.004800
0.002930 0.002978 0.004801
0.002933 0.002983 0.004803
0.002935 0.002989 0.004805
0.002937 0.002996 0.004808
0.002939 0.003002 0.004810
0.002942 0.003009 0.004813
0.002946 0.003015 0.004815
0.002950 0.003021 0.004817
0.002954 0.003028 0.004820
0.002959 0.003034 0.004822
0.002963 0.003040 0.004824
0.002967 0.003047 0.004827
0.002971 0.003053 0.004829
0.002975 0.003059 0.004831
0.002979 0.003066 0.004833
0.002983 0.003072 0.004836
0.002987 0.003078 0.004838
0.002991 0.003084 0.004840
0.002995 0.003090 0.004842
0.002999 0.003097 0.004844
0.003003 0.003103 0.004847
0.003007 0.003109 0.004849
0.003011 0.003115 0.004851
0.003015 0.003121 0.004853
0.003019 0.003127 0.004855
0.003023 0.003133 0.004857
0.003027 0.003139 0.004860
0.003031 0.003145 0.004862
0.003034 0.003151 0.004864
0.003038 0.003157 0.004866
0.003042 0.003163 0.004868
0.003046 0.003169 0.004870
0.003050 0.003175 0.004872
0.003053 0.003181 0.004874
0.003057 0.003187 0.004876
0.003061 0.003193 0.004878
0.003065 0.003198 0.004880
0.003068 0.003204 0.004882
0.003072 0.003210 0.004884
0.003076 0.003216 0.004887
0.003080 0.003222 0.004889
0.003083 0.003227 0.004891
0.003087 0.003233 0.004892
0.003091 0.003239 0.004894
0.003094 0.003245 0.004896
0.003098 0.003250 0.004898
0.003101 0.003256 0.004900
0.003105 0.003262 0.004902
0.003109 0.003267 0.004904
0.003112 0.003273 0.004906
0.003116 0.003279 0.004908
0.003119 0.003284 0.004910
0.003123 0.003290 0.004912
0.003126 0.003295 0.004914
0.003130 0.003301 0.004916
0.003133 0.003307 0.004918
0.003137 0.003312 0.004920
0.003140 0.003318 0.004921
0.003144 0.003323 0.004923
0.003147 0.003329 0.004925
0.003151 0.003334 0.004927
0.003154 0.003340 0.004929
0.003158 0.003345 0.004931
0.003161 0.003350 0.004932
0.003165 0.003356 0.004934
0.003168 0.003361 0.004936
0.003171 0.003367 0.004938
0.003175 0.003372 0.004940
0.003178 0.003377 0.004941
0.003182 0.003383 0.004943
0.003185 0.003388 0.004945
0.003188 0.003393 0.004947
0.003192 0.003399 0.004949
0.003195 0.003404 0.004951
0.003198 0.003410 0.004953
0.003201 0.003416 0.004955
0.003205 0.003421 0.004958
0.003208 0.003427 0.004960
0.003211 0.003433 0.004962
0.003215 0.003438 0.004965
0.003218 0.003444 0.004967
0.003222 0.003450 0.004969
0.003226 0.003455 0.004972
0.003230 0.003461 0.004974
0.003234 0.003467 0.004976
0.003238 0.003472 0.004978
0.003241 0.003478 0.004981
0.003245 0.003484 0.004983
0.003249 0.003489 0.004985
0.003253 0.003495 0.004988
0.003256 0.003500 0.004990
0.003260 0.003506 0.004992
0.003264 0.003511 0.004994
0.003268 0.003517 0.004996
0.003271 0.003522 0.004999
0.003275 0.003528 0.005001
0.003279 0.003533 0.005003
0.003283 0.003539 0.005005
0.003286 0.003544 0.005007
0.003290 0.003550 0.005010
0.003294 0.003555 0.005012
0.003297 0.003560 0.005014
0.003301 0.003566 0.005016
0.003305 0.003571 0.005018
0.003308 0.003577 0.005020
0.003312 0.003582 0.005023
0.003315 0.003587 0.005025
0.003319 0.003593 0.005027
0.003323 0.003598 0.005029
0.003326 0.003603 0.005031
0.003330 0.003609 0.005033
0.003333 0.003614 0.005035
0.003337 0.003619 0.005037
0.003341 0.003625 0.005039
0.003344 0.003630 0.005041
0.003348 0.003635 0.005044
0.003351 0.003640 0.005046
0.003355 0.003646 0.005048
0.003358 0.003651 0.005050
0.003362 0.003656 0.005052
0.003365 0.003661 0.005054
0.003369 0.003667 0.005056
0.003372 0.003672 0.005058
0.003376 0.003677 0.005060
0.003379 0.003682 0.005062
0.003383 0.003687 0.005064
0.003386 0.003692 0.005066
0.003390 0.003698 0.005068
0.003393 0.003703 0.005070
0.003396 0.003708 0.005072
0.003400 0.003713 0.005074
0.003403 0.003718 0.005076
0.003407 0.003723 0.005078
0.003410 0.003728 0.005080
0.003413 0.003733 0.005082
0.003417 0.003738 0.005084
0.003420 0.003743 0.005086
0.003424 0.003749 0.005088
0.003427 0.003754 0.005090
0.003430 0.003759 0.005091
0.003434 0.003764 0.005093
0.003437 0.003769 0.005095
0.003440 0.003774 0.005097
0.003444 0.003779 0.005099
0.003447 0.003784 0.005101
0.003450 0.003789 0.005103
0.003453 0.003794 0.005105
0.003457 0.003799 0.005107
0.003460 0.003803 0.005109
0.003463 0.003808 0.005110
0.003467 0.003813 0.005112
0.003470 0.003818 0.005114
0.003473 0.003823 0.005116
0.003476 0.003828 0.005118
0.003480 0.003833 0.005120
0.003483 0.003838 0.005122
0.003486 0.003843 0.005123
0.003489 0.003848 0.005125
0.003493 0.003852 0.005127
0.003496 0.003857 0.005129
0.003499 0.003862 0.005131
0.003502 0.003867 0.005133
0.003505 0.003872 0.005134
0.003509 0.003877 0.005136
0.003512 0.003881 0.005138
0.003515 0.003886 0.005140
0.003518 0.003891 0.005142
0.003521 0.003896 0.005143
0.003524 0.003901 0.005145
0.003527 0.003905 0.005147
0.003531 0.003910 0.005149
0.003534 0.003915 0.005151
0.003537 0.003920 0.005152
0.003540 0.003924 0.005154
0.003543 0.003929 0.005156
0.003546 0.003936 0.005159
0.003549 0.003943 0.005162
0.003552 0.003950 0.005166
0.003556 0.003957 0.005170
0.003559 0.003964 0.005173
0.003562 0.003971 0.005177
0.003565 0.003978 0.005181
0.003568 0.003984 0.005184
0.003571 0.003991 0.005188
0.003574 0.003998 0.005191
0.003577 0.004005 0.005195
0.003582 0.004012 0.005199
0.003587 0.004019 0.005202
0.003592 0.004026 0.005206
0.003597 0.004033 0.005209
0.003602 0.004040 0.005213
0.003607 0.004047 0.005216
0.003612 0.004054 0.005220
0.003617 0.004061 0.005224
0.003622 0.004068 0.005227
0.003627 0.004074 0.005231
0.003632 0.004081 0.005234
0.003637 0.004088 0.005238
0.003642 0.004095 0.005241
0.003647 0.004102 0.005245
0.003652 0.004109 0.005248
0.003656 0.004116 0.005251
0.003661 0.004122 0.005255
0.003666 0.004129 0.005258
0.003671 0.004136 0.005262
0.003676 0.004143 0.005265
0.003681 0.004150 0.005269
0.003686 0.004156 0.005272
0.003690 0.004163 0.005276
0.003695 0.004170 0.005279
0.003700 0.004177 0.005282
0.003705 0.004183 0.005286
0.003710 0.004190 0.005289
0.003715 0.004197 0.005293
0.003719 0.004204 0.005296
0.003724 0.004210 0.005299
0.003729 0.004217 0.005303
0.003734 0.004224 0.005306
0.003738 0.004231 0.005310
0.003743 0.004237 0.005313
0.003748 0.004244 0.005316
0.003753 0.004251 0.005320
0.003758 0.004257 0.005323
0.003762 0.004264 0.005326
0.003767 0.004271 0.005330
0.003772 0.004278 0.005333
0.003776 0.004284 0.005336
0.003781 0.004291 0.005339
0.003786 0.004298 0.005343
0.003791 0.004304 0.005346
0.003795 0.004311 0.005349
0.003800 0.004317 0.005353
0.003805 0.004324 0.005356
0.003809 0.004331 0.005359
0.003814 0.004337 0.005362
0.003819 0.004344 0.005366
0.003823 0.004351 0.005369
0.003828 0.004357 0.005372
0.003833 0.004364 0.005375
0.003837 0.004370 0.005379
0.003842 0.004377 0.005382
0.003847 0.004383 0.005385
0.003851 0.004390 0.005388
0.003856 0.004397 0.005391
0.003861 0.004403 0.005395
0.003865 0.004410 0.005398
0.003870 0.004416 0.005401
0.003874 0.004423 0.005404
0.003879 0.004429 0.005407
0.003884 0.004436 0.005411
0.003888 0.004442 0.005414
0.003893 0.004449 0.005417
0.003897 0.004455 0.005420
0.003902 0.004462 0.005423
0.003907 0.004468 0.005426
0.003911 0.004475 0.005430
0.003916 0.004481 0.005433
0.003920 0.004488 0.005436
0.003925 0.004494 0.005439
0.003929 0.004501 0.005442
0.003934 0.004507 0.005445
0.003938 0.004514 0.005448
0.003943 0.004520 0.005451
0.003947 0.004527 0.005454
0.003952 0.004533 0.005458
0.003957 0.004540 0.005461
0.003961 0.004546 0.005464
0.003966 0.004552 0.005467
0.003970 0.004559 0.005470
0.003975 0.004565 0.005473
0.003979 0.004572 0.005476
0.003984 0.004578 0.005479
0.003988 0.004585 0.005482
0.003992 0.004591 0.005485
0.003997 0.004597 0.005488
0.004001 0.004604 0.005491
0.004006 0.004610 0.005494
0.004010 0.004616 0.005497
0.004015 0.004623 0.005500
0.004019 0.004629 0.005503
0.004024 0.004636 0.005506
0.004028 0.004642 0.005509
0.004033 0.004648 0.005512
0.004037 0.004655 0.005515
0.004041 0.004661 0.005518
0.004046 0.004667 0.005521
0.004050 0.004674 0.005524
0.004055 0.004680 0.005527
0.004059 0.004686 0.005530
0.004063 0.004693 0.005533
0.004068 0.004699 0.005536
0.004072 0.004705 0.005539
0.004077 0.004712 0.005542
0.004081 0.004718 0.005545
0.004085 0.004724 0.005548
0.004090 0.004730 0.005551
0.004094 0.004737 0.005554
0.004098 0.004743 0.005557
0.004103 0.004749 0.005560
0.004107 0.004755 0.005563
0.004111 0.004762 0.005565
0.004116 0.004768 0.005568
0.004120 0.004774 0.005571
0.004124 0.004780 0.005574
0.004129 0.004787 0.005577
0.004133 0.004793 0.005580
0.004137 0.004799 0.005583
0.004142 0.004805 0.005586
0.004146 0.004812 0.005589
0.004150 0.004818 0.005591
0.004155 0.004824 0.005594
0.004159 0.004830 0.005597
0.004163 0.004836 0.005600
0.004168 0.004843 0.005603
0.004172 0.004849 0.005606
0.004176 0.004855 0.005609
0.004180 0.004861 0.005611
0.004185 0.004867 0.005614
0.004189 0.004875 0.005618
0.004193 0.004885 0.005626
0.004197 0.004896 0.005634
0.004202 0.004906 0.005641
0.004206 0.004916 0.005649
0.004210 0.004926 0.005656
0.004214 0.004937 0.005664
0.004219 0.004947 0.005671
0.004223 0.004957 0.005679
0.004227 0.004968 0.005687
0.004231 0.004978 0.005694
0.004236 0.004988 0.005702
0.004240 0.004999 0.005709
0.004244 0.005009 0.005717
0.004248 0.005020 0.005724
0.004252 0.005030 0.005732
0.004257 0.005040 0.005739
0.004265 0.005051 0.005747
0.004274 0.005061 0.005754
0.004282 0.005071 0.005762
0.004290 0.005082 0.005769
0.004299 0.005092 0.005777
0.004307 0.005102 0.005784
0.004315 0.005113 0.005792
0.004324 0.005123 0.005799
0.004332 0.005133 0.005806
0.004341 0.005144 0.005814
0.004349 0.005154 0.005821
0.004357 0.005164 0.005829
0.004366 0.005175 0.005836
0.004374 0.005185 0.005844
0.004383 0.005195 0.005851
0.004391 0.005206 0.005859
0.004399 0.005216 0.005866
0.004408 0.005226 0.005873
0.004416 0.005237 0.005881
0.004425 0.005247 0.005888
0.004433 0.005258 0.005896
0.004441 0.005268 0.005903
0.004450 0.005278 0.005910
0.004458 0.005289 0.005918
0.004466 0.005299 0.005925
0.004475 0.005309 0.005933
0.004483 0.005320 0.005940
0.004492 0.005330 0.005947
0.004500 0.005340 0.005955
0.004508 0.005351 0.005962
0.004517 0.005361 0.005969
0.004525 0.005372 0.005977
0.004534 0.005382 0.005984
0.004542 0.005392 0.005991
0.004550 0.005403 0.005999
0.004559 0.005413 0.006006
0.004567 0.005423 0.006013
0.004576 0.005434 0.006021
0.004584 0.005444 0.006028
0.004592 0.005455 0.006035
0.004601 0.005465 0.006043
0.004609 0.005475 0.006050
0.004618 0.005486 0.006057
0.004626 0.005496 0.006065
0.004634 0.005506 0.006072
0.004643 0.005517 0.006079
0.004651 0.005527 0.006087
0.004659 0.005538 0.006094
0.004668 0.005548 0.006101
0.004676 0.005558 0.006108
0.004685 0.005569 0.006116
0.004693 0.005579 0.006123
0.004701 0.005589 0.006130
0.004710 0.005600 0.006137
0.004718 0.005610 0.006145
0.004727 0.005621 0.006152
0.004735 0.005631 0.006159
0.004743 0.005641 0.006166
0.004752 0.005652 0.006174
0.004760 0.005662 0.006181
0.004769 0.005673 0.006188
0.004777 0.005683 0.006195
0.004785 0.005693 0.006202
0.004794 0.005704 0.006210
0.004802 0.005714 0.006217
0.004811 0.005725 0.006224
0.004819 0.005735 0.006231
0.004827 0.005745 0.006238
0.004836 0.005756 0.006246
0.004844 0.005766 0.006253
0.004852 0.005777 0.006260
0.004861 0.005787 0.006267
0.004869 0.005797 0.006274
0.004878 0.005808 0.006282
0.004886 0.005818 0.006289
0.004894 0.005829 0.006296
0.004903 0.005839 0.006303
0.004911 0.005849 0.006310
0.004920 0.005860 0.006317
0.004928 0.005870 0.006325
0.004936 0.005881 0.006332
0.004945 0.005891 0.006339
0.004953 0.005901 0.006346
0.004962 0.005912 0.006353
0.004970 0.005922 0.006360
0.004978 0.005933 0.006367
0.004987 0.005943 0.006374
0.004995 0.005953 0.006382
0.005004 0.005964 0.006389
0.005012 0.005974 0.006396
0.005020 0.005985 0.006403
0.005029 0.005995 0.006410
0.005037 0.006006 0.006417
0.005046 0.006016 0.006424
0.005054 0.006026 0.006431
0.005062 0.006037 0.006438
0.005071 0.006047 0.006445
0.005079 0.006058 0.006452
0.005088 0.006068 0.006460
0.005096 0.006079 0.006467
0.005104 0.006089 0.006474
0.005113 0.006099 0.006481
0.005121 0.006110 0.006488
0.005129 0.006120 0.006495
0.005138 0.006131 0.006502
0.005146 0.006141 0.006509
0.005155 0.006152 0.006516
0.005163 0.006162 0.006523
0.005171 0.006172 0.006530
0.005180 0.006183 0.006537
0.005188 0.006193 0.006544
0.005197 0.006204 0.006551
0.005205 0.006214 0.006558
0.005213 0.006225 0.006565
0.005222 0.006235 0.006572
0.005230 0.006245 0.006579
0.005239 0.006256 0.006586
0.005247 0.006266 0.006593
0.005255 0.006277 0.006600
0.005264 0.006287 0.006607
0.005272 0.006298 0.006614
0.005281 0.006308 0.006621
0.005289 0.006318 0.006628
0.005297 0.006329 0.006635
0.005306 0.006339 0.006642
0.005314 0.006350 0.006649
0.005323 0.006360 0.006656
0.005331 0.006371 0.006663
0.005339 0.006381 0.006670
0.005348 0.006392 0.006677
0.005356 0.006402 0.006684
0.005365 0.006412 0.006691
0.005373 0.006423 0.006698
0.005381 0.006433 0.006705
0.005390 0.006444 0.006712
0.005398 0.006454 0.006718
0.005407 0.006465 0.006725
0.005415 0.006475 0.006732
0.005423 0.006486 0.006739
0.005432 0.006496 0.006746
0.005440 0.006507 0.006753
0.005448 0.006517 0.006760
0.005457 0.006527 0.006767
0.005465 0.006538 0.006774
0.005474 0.006548 0.006781
0.005482 0.006559 0.006788
0.005490 0.006569 0.006794
0.005499 0.006580 0.006801
0.005507 0.006590 0.006808
0.005516 0.006601 0.006815
0.005524 0.006611 0.006822
0.005532 0.006622 0.006829
0.005541 0.006632 0.006836
0.005549 0.006642 0.006843
0.005558 0.006653 0.006849
0.005566 0.006663 0.006856
0.005574 0.006674 0.006863
0.005583 0.006684 0.006870
0.005591 0.006695 0.006877
0.005600 0.006705 0.006884
0.005608 0.006716 0.006891
0.005616 0.006726 0.006897
0.005625 0.006737 0.006904
0.005633 0.006747 0.006911
0.005642 0.006758 0.006918
0.005650 0.006768 0.006925
0.005658 0.006779 0.006932
0.005667 0.006789 0.006938
0.005675 0.006799 0.006945
0.005684 0.006810 0.006952
0.005692 0.006820 0.006959
0.005700 0.006831 0.006966
0.005709 0.006841 0.006972
0.005717 0.006852 0.006979
0.005726 0.006862 0.006986
0.005734 0.006873 0.006993
0.005742 0.006883 0.007000
0.005751 0.006894 0.007006
0.005759 0.006904 0.007013
0.005768 0.006915 0.007020
0.005776 0.006925 0.007027
0.005784 0.006936 0.007034
0.005793 0.006946 0.007040
0.005801 0.006957 0.007047
0.005810 0.006967 0.007054
0.005818 0.006978 0.007062
0.005826 0.006997 0.007079
0.005835 0.007015 0.007097
0.005843 0.007034 0.007115
0.005852 0.007053 0.007133
0.005860 0.007072 0.007150
0.005868 0.007091 0.007168
0.005877 0.007110 0.007186
0.005885 0.007129 0.007204
0.005894 0.007148 0.007222
0.005902 0.007167 0.007240
0.005910 0.007187 0.007258
0.005919 0.007206 0.007276
0.005927 0.007225 0.007294
0.005936 0.007244 0.007312
0.005944 0.007263 0.007330
0.005952 0.007283 0.007348
0.005961 0.007302 0.007366
0.005969 0.007321 0.007384
0.005978 0.007340 0.007402
0.005986 0.007360 0.007420
0.005994 0.007379 0.007438
0.006003 0.007398 0.007456
0.006011 0.007418 0.007474
0.006019 0.007437 0.007493
0.006028 0.007457 0.007511
0.006044 0.007476 0.007529
0.006061 0.007496 0.007547
0.006078 0.007515 0.007565
0.006095 0.007535 0.007584
0.006112 0.007554 0.007602
0.006129 0.007574 0.007620
0.006146 0.007594 0.007639
0.006163 0.007613 0.007657
0.006180 0.007633 0.007675
0.006197 0.007653 0.007694
0.006214 0.007672 0.007712
0.006232 0.007692 0.007731
0.006249 0.007712 0.007749
0.006266 0.007731 0.007767
0.006283 0.007751 0.007786
0.006301 0.007771 0.007804
0.006318 0.007791 0.007823
0.006335 0.007811 0.007842
0.006353 0.007831 0.007860
0.006370 0.007851 0.007879
0.006387 0.007871 0.007897
0.006405 0.007891 0.007916
0.006422 0.007911 0.007934
0.006440 0.007931 0.007953
0.006457 0.007951 0.007972
0.006475 0.007971 0.007990
0.006492 0.007991 0.008009
0.006510 0.008011 0.008028
0.006527 0.008031 0.008047
0.006545 0.008051 0.008065
0.006563 0.008071 0.008084
0.006580 0.008092 0.008103
0.006598 0.008112 0.008122
0.006616 0.008132 0.008141
0.006633 0.008152 0.008159
0.006651 0.008173 0.008178
0.006669 0.008193 0.008197
0.006687 0.008213 0.008216
0.006704 0.008234 0.008235
0.006722 0.008254 0.008254
0.006740 0.008274 0.008273
0.006758 0.008295 0.008292
0.006776 0.008315 0.008311
0.006794 0.008336 0.008330
0.006812 0.008356 0.008349
0.006830 0.008377 0.008368
0.006848 0.008398 0.008387
0.006866 0.008418 0.008406
0.006884 0.008439 0.008425
0.006902 0.008459 0.008444
0.006920 0.008480 0.008464
0.006938 0.008501 0.008483
0.006956 0.008521 0.008502
0.006975 0.008542 0.008521
0.006993 0.008563 0.008540
0.007011 0.008584 0.008560
0.007029 0.008604 0.008579
0.007048 0.008625 0.008598
0.007066 0.008646 0.008617
0.007084 0.008667 0.008637
0.007103 0.008688 0.008656
0.007121 0.008709 0.008675
0.007139 0.008730 0.008695
0.007158 0.008751 0.008714
0.007176 0.008772 0.008734
0.007195 0.008793 0.008753
0.007213 0.008814 0.008772
0.007232 0.008835 0.008792
0.007250 0.008856 0.008811
0.007269 0.008877 0.008831
0.007287 0.008898 0.008850
0.007306 0.008919 0.008870
0.007325 0.008940 0.008890
0.007343 0.008962 0.008909
0.007362 0.008983 0.008929
0.007381 0.009004 0.008948
0.007399 0.009025 0.008968
0.007418 0.009047 0.008988
0.007437 0.009068 0.009007
0.007456 0.009089 0.009027
0.007475 0.009111 0.009047
0.007493 0.009132 0.009066
0.007512 0.009153 0.009086
0.007531 0.009175 0.009106
0.007550 0.009196 0.009126
0.007569 0.009218 0.009145
0.007588 0.009239 0.009165
0.007607 0.009261 0.009185
0.007626 0.009282 0.009205
0.007645 0.009304 0.009225
0.007664 0.009325 0.009245
0.007683 0.009347 0.009265
0.007702 0.009369 0.009284
0.007722 0.009390 0.009304
0.007741 0.009412 0.009324
0.007760 0.009434 0.009344
0.007779 0.009456 0.009364
0.007798 0.009477 0.009384
0.007818 0.009499 0.009404
0.007837 0.009521 0.009424
0.007856 0.009543 0.009444
0.007876 0.009565 0.009465
0.007895 0.009586 0.009485
0.007914 0.009608 0.009505
0.007934 0.009630 0.009525
0.007953 0.009652 0.009545
0.007973 0.009674 0.009565
0.007992 0.009696 0.009585
0.008012 0.009718 0.009606
0.008031 0.009740 0.009626
0.008051 0.009762 0.009646
0.008070 0.009784 0.009666
0.008090 0.009806 0.009687
0.008109 0.009829 0.009707
0.008129 0.009851 0.009727
0.008149 0.009873 0.009748
0.008168 0.009895 0.009768
0.008188 0.009917 0.009788
0.008208 0.009940 0.009809
0.008228 0.009962 0.009829
0.008247 0.009984 0.009850
0.008267 0.010006 0.009870
0.008287 0.010029 0.009891
0.008307 0.010051 0.009911
0.008327 0.010074 0.009932
0.008347 0.010096 0.009952
0.008367 0.010118 0.009973
0.008387 0.010141 0.009993
0.008407 0.010163 0.010014
0.008427 0.010186 0.010034
0.008447 0.010208 0.010055
0.008467 0.010231 0.010076
0.008487 0.010254 0.010096
0.008507 0.010276 0.010117
0.008527 0.010299 0.010138
0.008547 0.010321 0.010158
0.008567 0.010344 0.010179
0.008587 0.010367 0.010200
0.008608 0.010389 0.010220
0.008628 0.010412 0.010241
0.008648 0.010435 0.010262
0.008669 0.010458 0.010283
0.008689 0.010481 0.010304
0.008709 0.010503 0.010324
0.008730 0.010526 0.010345
0.008750 0.010549 0.010366
0.008770 0.010572 0.010387
0.008791 0.010595 0.010408
0.008811 0.010618 0.010429
0.008832 0.010641 0.010450
0.008852 0.010664 0.010471
0.008873 0.010687 0.010492
0.008893 0.010710 0.010513
0.008914 0.010733 0.010534
0.008935 0.010756 0.010555
0.008955 0.010779 0.010576
0.008976 0.010802 0.010597
0.008996 0.010825 0.010618
0.009017 0.010849 0.010639
0.009038 0.010872 0.010660
0.009059 0.010895 0.010682
0.009079 0.010918 0.010703
0.009100 0.010942 0.010724
0.009121 0.010965 0.010745
