config/curves/Kodak_Ultra_Endura.cube
# DiVERE Density Curve 1D LUT
LUT_1D_SIZE 65536
DOMAIN_MIN 0.0 0.0 0.0
DOMAIN_MAX 1.0 1.0 1.0

0.002991 0.003759 0.004055
0.002991 0.003759 0.004055
0.002991 0.003759 0.004055
0.002991 0.003759 0.004055
0.002991 0.003759 0.004055
0.002991 0.003759 0.004055
0.002991 0.003759 0.004055
0.002991 0.003759 0.004055
0.002991 0.003759 0.004055
0.002991 0.003759 0.004055
0.002991 0.003759 0.004055
0.002991 0.003759 0.004055
0.002991 0.003759 0.004055
0.002991 0.003759 0.004055
0.002991 0.003759 0.004055
0.002991 0.003759 0.004055
0.002991 0.003759 0.004055
0.002991 0.003759 0.004055
0.002991 0.003759 0.004055
0.002991 0.003759 0.004055
0.002991 0.003759 0.004055
0.002991 0.003759 0.004055
0.002991 0.003759 0.004055
0.002991 0.003759 0.004055
0.002991 0.003759 0.004055
0.002991 0.003759 0.004055
0.002991 0.003759 0.004055
0.002991 0.003759 0.004055
0.002991 0.003759 0.004055
0.002991 0.003759 0.004055
0.002991 0.003759 0.004055
0.002991 0.003759 0.004055
0.002991 0.003759 0.004055
0.002991 0.003759 0.004055
0.002991 0.003759 0.004055
0.002991 0.003759 0.004055
0.002991 0.003759 0.004055
0.002991 0.003759 0.004055
0.002991 0.003759 0.004055
0.002991 0.003759 0.004055
0.002991 0.003759 0.004055
0.002991 0.003759 0.004055
0.002991 0.003759 0.004055
0.002991 0.003759 0.004055
0.002991 0.003759 0.004055
0.002991 0.003759 0.004055
0.002991 0.003759 0.004055
0.002991 0.003759 0.004055
0.002991 0.003759 0.004055
0.002991 0.003759 0.004055
0.002991 0.003759 0.004055
0.002991 0.003759 0.004055
0.002991 0.003759 0.004055
0.002991 0.003759 0.004055
0.002991 0.003759 0.004055
0.002991 0.003759 0.004055
0.002991 0.003759 0.004055
0.002991 0.003759 0.004055
0.002991 0.003759 0.004055
0.002991 0.003759 0.004055
0.002991 0.003759 0.004055
0.002991 0.003759 0.004055
0.002991 0.003759 0.004055
0.002991 0.003759 0.004055
0.002991 0.003759 0.004055
0.002991 0.003759 0.004055
0.002991 0.003759 0.004055
0.002991 0.003759 0.004055
0.002991 0.003759 0.004055
0.002991 0.003759 0.004055
0.002991 0.003759 0.004055
0.002991 0.003759 0.004055
0.002991 0.003759 0.004055
0.002991 0.003759 0.004055
0.002991 0.003759 0.004055
0.002991 0.003759 0.004055
0.002991 0.003759 0.004055
0.002991 0.003759 0.004055
0.002991 0.003759 0.004055
0.002991 0.003759 0.004055
0.002991 0.003759 0.004055
0.002991 0.003759 0.004055
0.002991 0.003759 0.004055
0.002991 0.003759 0.004055
0.002991 0.003759 0.004055
0.002991 0.003759 0.004055
0.002991 0.003759 0.004055
0.002991 0.003759 0.004055
0.002991 0.003759 0.004055
0.002991 0.003759 0.004055
0.002991 0.003759 0.004055
0.002991 0.003761 0.004055
0.002991 0.003762 0.004055
0.002991 0.003764 0.004055
0.002992 0.003766 0.004055
0.002993 0.003767 0.004055
0.002995 0.003769 0.004055
0.002996 0.003770 0.004055
0.002997 0.003772 0.004055
0.002999 0.003773 0.004054
0.003000 0.003774 0.004054
0.003001 0.003776 0.004054
0.003002 0.003777 0.004053
0.003003 0.003779 0.004053
0.003005 0.003780 0.004052
0.003006 0.003782 0.004052
0.003007 0.003783 0.004052
0.003008 0.003784 0.004051
0.003009 0.003786 0.004051
0.003010 0.003787 0.004050
0.003012 0.003788 0.004050
0.003013 0.003790 0.004050
0.003014 0.003791 0.004049
0.003015 0.003792 0.004049
0.003016 0.003793 0.004049
0.003017 0.003795 0.004048
0.003018 0.003796 0.004048
0.003019 0.003797 0.004047
0.003020 0.003798 0.004047
0.003021 0.003800 0.004047
0.003022 0.003801 0.004046
0.003023 0.003802 0.004046
0.003024 0.003803 0.004046
0.003025 0.003804 0.004045
0.003027 0.003806 0.004045
0.003028 0.003807 0.004045
0.003029 0.003808 0.004044
0.003029 0.003810 0.004044
0.003030 0.003813 0.004044
0.003031 0.003816 0.004043
0.003032 0.003820 0.004043
0.003034 0.003823 0.004043
0.003037 0.003826 0.004042
0.003040 0.003829 0.004042
0.003044 0.003832 0.004042
0.003047 0.003835 0.004042
0.003050 0.003838 0.004041
0.003054 0.003841 0.004043
0.003057 0.003844 0.004044
0.003060 0.003846 0.004046
0.003063 0.003849 0.004048
0.003066 0.003852 0.004049
0.003070 0.003855 0.004051
0.003073 0.003858 0.004052
0.003076 0.003861 0.004054
0.003079 0.003864 0.004056
0.003082 0.003866 0.004057
0.003085 0.003869 0.004059
0.003088 0.003872 0.004060
0.003091 0.003875 0.004062
0.003094 0.003877 0.004063
0.003097 0.003880 0.004065
0.003100 0.003883 0.004066
0.003103 0.003885 0.004068
0.003106 0.003888 0.004069
0.003109 0.003891 0.004071
0.003112 0.003893 0.004072
0.003115 0.003896 0.004074
0.003117 0.003898 0.004075
0.003120 0.003901 0.004076
0.003123 0.003904 0.004078
0.003126 0.003906 0.004079
0.003129 0.003909 0.004081
0.003132 0.003911 0.004082
0.003134 0.003914 0.004084
0.003137 0.003916 0.004085
0.003140 0.003919 0.004086
0.003143 0.003921 0.004088
0.003145 0.003924 0.004089
0.003148 0.003926 0.004090
0.003151 0.003929 0.004092
0.003153 0.003931 0.004093
0.003156 0.003933 0.004094
0.003159 0.003936 0.004096
0.003161 0.003938 0.004097
0.003164 0.003940 0.004098
0.003167 0.003943 0.004100
0.003169 0.003945 0.004101
0.003172 0.003948 0.004102
0.003175 0.003950 0.004104
0.003177 0.003951 0.004105
0.003180 0.003952 0.004106
0.003182 0.003954 0.004107
0.003185 0.003955 0.004109
0.003187 0.003957 0.004110
0.003190 0.003958 0.004111
0.003192 0.003960 0.004112
0.003195 0.003961 0.004114
0.003198 0.003963 0.004115
0.003200 0.003964 0.004116
0.003203 0.003966 0.004117
0.003205 0.003967 0.004119
0.003208 0.003968 0.004120
0.003210 0.003970 0.004121
0.003213 0.003971 0.004122
0.003215 0.003972 0.004123
0.003218 0.003974 0.004124
0.003220 0.003975 0.004125
0.003223 0.003977 0.004126
0.003225 0.003978 0.004128
0.003228 0.003979 0.004129
0.003230 0.003981 0.004130
0.003232 0.003982 0.004131
0.003235 0.003983 0.004132
0.003237 0.003985 0.004133
0.003240 0.003986 0.004134
0.003242 0.003987 0.004135
0.003244 0.003989 0.004136
0.003247 0.003990 0.004137
0.003249 0.003991 0.004138
0.003251 0.003992 0.004139
0.003254 0.003994 0.004140
0.003256 0.003995 0.004141
0.003258 0.003996 0.004142
0.003261 0.003998 0.004143
0.003263 0.003999 0.004144
0.003265 0.004000 0.004145
0.003267 0.004001 0.004146
0.003270 0.004003 0.004147
0.003272 0.004004 0.004148
0.003274 0.004005 0.004149
0.003276 0.004006 0.004150
0.003279 0.004008 0.004151
0.003281 0.004009 0.004152
0.003283 0.004010 0.004153
0.003285 0.004011 0.004154
0.003288 0.004012 0.004155
0.003290 0.004014 0.004156
0.003292 0.004015 0.004157
0.003294 0.004016 0.004158
0.003296 0.004017 0.004159
0.003298 0.004018 0.004160
0.003301 0.004020 0.004161
0.003303 0.004021 0.004162
0.003305 0.004022 0.004163
0.003307 0.004023 0.004164
0.003309 0.004024 0.004165
0.003311 0.004025 0.004166
0.003313 0.004026 0.004167
0.003315 0.004028 0.004168
0.003317 0.004029 0.004169
0.003320 0.004030 0.004170
0.003322 0.004031 0.004170
0.003324 0.004032 0.004171
0.003326 0.004033 0.004172
0.003328 0.004034 0.004173
0.003330 0.004036 0.004174
0.003332 0.004037 0.004175
0.003334 0.004038 0.004176
0.003336 0.004039 0.004177
0.003338 0.004040 0.004178
0.003340 0.004041 0.004178
0.003342 0.004042 0.004179
0.003344 0.004045 0.004180
0.003346 0.004048 0.004181
0.003348 0.004051 0.004182
0.003350 0.004054 0.004183
0.003352 0.004057 0.004184
0.003354 0.004061 0.004185
0.003356 0.004064 0.004185
0.003358 0.004067 0.004186
0.003361 0.004070 0.004187
0.003365 0.004073 0.004188
0.003369 0.004076 0.004189
0.003373 0.004079 0.004190
0.003377 0.004082 0.004190
0.003380 0.004086 0.004191
0.003384 0.004089 0.004192
0.003388 0.004092 0.004193
0.003392 0.004095 0.004194
0.003396 0.004098 0.004195
0.003399 0.004101 0.004197
0.003403 0.004104 0.004199
0.003407 0.004107 0.004201
0.003411 0.004110 0.004203
0.003414 0.004113 0.004205
0.003418 0.004116 0.004207
0.003422 0.004119 0.004208
0.003425 0.004122 0.004210
0.003429 0.004125 0.004212
0.003433 0.004128 0.004214
0.003436 0.004131 0.004216
0.003440 0.004134 0.004218
0.003444 0.004137 0.004220
0.003447 0.004140 0.004222
0.003451 0.004143 0.004224
0.003454 0.004145 0.004225
0.003458 0.004148 0.004227
0.003462 0.004151 0.004229
0.003465 0.004154 0.004231
0.003469 0.004157 0.004233
0.003472 0.004160 0.004235
0.003476 0.004163 0.004236
0.003479 0.004166 0.004238
0.003483 0.004169 0.004240
0.003487 0.004171 0.004242
0.003490 0.004174 0.004244
0.003494 0.004177 0.004245
0.003497 0.004180 0.004247
0.003501 0.004183 0.004249
0.003504 0.004185 0.004251
0.003508 0.004188 0.004253
0.003511 0.004191 0.004254
0.003514 0.004194 0.004256
0.003518 0.004197 0.004258
0.003521 0.004199 0.004260
0.003525 0.004202 0.004261
0.003528 0.004205 0.004263
0.003532 0.004208 0.004265
0.003535 0.004210 0.004267
0.003539 0.004213 0.004268
0.003542 0.004216 0.004270
0.003545 0.004219 0.004272
0.003549 0.004221 0.004273
0.003552 0.004224 0.004275
0.003555 0.004227 0.004277
0.003559 0.004229 0.004279
0.003562 0.004232 0.004280
0.003566 0.004235 0.004282
0.003569 0.004237 0.004284
0.003572 0.004240 0.004285
0.003576 0.004243 0.004287
0.003579 0.004245 0.004289
0.003582 0.004248 0.004290
0.003585 0.004251 0.004292
0.003589 0.004253 0.004294
0.003592 0.004256 0.004295
0.003595 0.004259 0.004297
0.003599 0.004261 0.004299
0.003602 0.004264 0.004300
0.003605 0.004266 0.004302
0.003608 0.004269 0.004304
0.003612 0.004272 0.004305
0.003615 0.004274 0.004307
0.003618 0.004277 0.004308
0.003621 0.004279 0.004310
0.003625 0.004282 0.004312
0.003628 0.004284 0.004313
0.003631 0.004287 0.004315
0.003634 0.004290 0.004316
0.003637 0.004292 0.004318
0.003641 0.004295 0.004320
0.003644 0.004297 0.004321
0.003647 0.004300 0.004323
0.003650 0.004302 0.004324
0.003653 0.004305 0.004326
0.003656 0.004307 0.004328
0.003660 0.004310 0.004329
0.003663 0.004312 0.004331
0.003666 0.004315 0.004332
0.003669 0.004317 0.004334
0.003672 0.004320 0.004335
0.003675 0.004322 0.004337
0.003678 0.004325 0.004338
0.003681 0.004327 0.004340
0.003685 0.004330 0.004342
0.003688 0.004332 0.004343
0.003691 0.004336 0.004345
0.003694 0.004342 0.004346
0.003697 0.004348 0.004348
0.003700 0.004355 0.004349
0.003703 0.004361 0.004351
0.003706 0.004367 0.004352
0.003709 0.004373 0.004354
0.003712 0.004379 0.004355
0.003715 0.004385 0.004357
0.003718 0.004391 0.004358
0.003722 0.004397 0.004360
0.003728 0.004403 0.004361
0.003734 0.004409 0.004363
0.003740 0.004415 0.004364
0.003746 0.004421 0.004366
0.003751 0.004427 0.004367
0.003757 0.004433 0.004369
0.003763 0.004439 0.004370
0.003769 0.004445 0.004371
0.003775 0.004451 0.004373
0.003781 0.004457 0.004374
0.003786 0.004463 0.004376
0.003792 0.004469 0.004377
0.003798 0.004475 0.004380
0.003804 0.004480 0.004386
0.003809 0.004486 0.004392
0.003815 0.004492 0.004397
0.003821 0.004498 0.004403
0.003827 0.004504 0.004409
0.003832 0.004510 0.004414
0.003838 0.004516 0.004420
0.003844 0.004522 0.004425
0.003850 0.004528 0.004431
0.003855 0.004533 0.004437
0.003861 0.004539 0.004442
0.003867 0.004545 0.004448
0.003873 0.004551 0.004453
0.003878 0.004557 0.004459
0.003884 0.004562 0.004464
0.003890 0.004568 0.004470
0.003895 0.004574 0.004475
0.003901 0.004580 0.004481
0.003907 0.004586 0.004487
0.003912 0.004591 0.004492
0.003918 0.004597 0.004498
0.003924 0.004603 0.004503
0.003929 0.004609 0.004508
0.003935 0.004614 0.004514
0.003941 0.004620 0.004519
0.003946 0.004626 0.004525
0.003952 0.004632 0.004530
0.003957 0.004637 0.004536
0.003963 0.004643 0.004541
0.003969 0.004649 0.004547
0.003974 0.004654 0.004552
0.003980 0.004660 0.004558
0.003985 0.004666 0.004563
0.003991 0.004672 0.004568
0.003996 0.004677 0.004574
0.004002 0.004683 0.004579
0.004008 0.004689 0.004585
0.004013 0.004694 0.004590
0.004019 0.004700 0.004595
0.004024 0.004705 0.004601
0.004030 0.004711 0.004606
0.004035 0.004717 0.004612
0.004041 0.004722 0.004617
0.004046 0.004728 0.004622
0.004052 0.004734 0.004628
0.004057 0.004739 0.004633
0.004063 0.004745 0.004638
0.004068 0.004750 0.004644
0.004074 0.004756 0.004649
0.004079 0.004761 0.004654
0.004085 0.004767 0.004659
0.004090 0.004773 0.004665
0.004096 0.004778 0.004670
0.004101 0.004784 0.004675
0.004107 0.004789 0.004681
0.004112 0.004795 0.004686
0.004118 0.004800 0.004691
0.004123 0.004806 0.004696
0.004129 0.004811 0.004702
0.004134 0.004817 0.004707
0.004139 0.004822 0.004712
0.004145 0.004828 0.004717
0.004150 0.004833 0.004723
0.004156 0.004839 0.004728
0.004161 0.004844 0.004733
0.004167 0.004850 0.004738
0.004172 0.004855 0.004744
0.004177 0.004861 0.004749
0.004183 0.004866 0.004754
0.004188 0.004872 0.004759
0.004194 0.004877 0.004764
0.004199 0.004882 0.004769
0.004204 0.004888 0.004775
0.004210 0.004893 0.004780
0.004215 0.004899 0.004785
0.004220 0.004904 0.004790
0.004226 0.004910 0.004795
0.004231 0.004915 0.004800
0.004236 0.004920 0.004806
0.004242 0.004926 0.004811
0.004247 0.004931 0.004816
0.004252 0.004936 0.004821
0.004258 0.004942 0.004826
0.004263 0.004947 0.004831
0.004268 0.004953 0.004836
0.004274 0.004958 0.004841
0.004279 0.004963 0.004846
0.004284 0.004969 0.004851
0.004290 0.004974 0.004857
0.004295 0.004979 0.004862
0.004300 0.004985 0.004867
0.004305 0.004990 0.004872
0.004311 0.004995 0.004877
0.004316 0.005001 0.004882
0.004321 0.005006 0.004887
0.004326 0.005011 0.004892
0.004332 0.005016 0.004897
0.004337 0.005022 0.004902
0.004342 0.005027 0.004907
0.004347 0.005032 0.004912
0.004353 0.005038 0.004917
0.004358 0.005043 0.004922
0.004363 0.005048 0.004927
0.004368 0.005053 0.004932
0.004374 0.005059 0.004937
0.004379 0.005064 0.004942
0.004384 0.005069 0.004947
0.004389 0.005074 0.004952
0.004394 0.005079 0.004957
0.004400 0.005085 0.004962
0.004405 0.005090 0.004967
0.004410 0.005095 0.004972
0.004415 0.005100 0.004977
0.004420 0.005106 0.004982
0.004426 0.005111 0.004987
0.004431 0.005116 0.004992
0.004436 0.005121 0.004997
0.004441 0.005126 0.005002
0.004446 0.005131 0.005007
0.004451 0.005137 0.005011
0.004456 0.005142 0.005016
0.004462 0.005147 0.005021
0.004467 0.005152 0.005026
0.004472 0.005161 0.005031
0.004477 0.005178 0.005036
0.004482 0.005195 0.005041
0.004487 0.005212 0.005046
0.004492 0.005229 0.005051
0.004498 0.005246 0.005055
0.004503 0.005263 0.005060
0.004508 0.005281 0.005065
0.004513 0.005298 0.005070
0.004518 0.005315 0.005075
0.004523 0.005332 0.005080
0.004528 0.005349 0.005085
0.004533 0.005366 0.005089
0.004538 0.005384 0.005094
0.004553 0.005401 0.005099
0.004568 0.005418 0.005104
0.004583 0.005436 0.005109
0.004598 0.005453 0.005114
0.004613 0.005470 0.005118
0.004628 0.005488 0.005123
0.004643 0.005505 0.005128
0.004658 0.005522 0.005133
0.004673 0.005540 0.005138
0.004688 0.005557 0.005142
0.004703 0.005575 0.005147
0.004718 0.005592 0.005152
0.004733 0.005610 0.005157
0.004748 0.005627 0.005161
0.004763 0.005645 0.005166
0.004778 0.005662 0.005171
0.004794 0.005680 0.005176
0.004809 0.005698 0.005188
0.004824 0.005715 0.005204
0.004839 0.005733 0.005221
0.004854 0.005751 0.005237
0.004870 0.005768 0.005253
0.004885 0.005786 0.005269
0.004900 0.005804 0.005286
0.004916 0.005822 0.005302
0.004931 0.005839 0.005318
0.004946 0.005857 0.005335
0.004962 0.005875 0.005351
0.004977 0.005893 0.005368
0.004993 0.005911 0.005384
0.005008 0.005929 0.005401
0.005024 0.005947 0.005417
0.005039 0.005965 0.005434
0.005055 0.005983 0.005450
0.005070 0.006001 0.005467
0.005086 0.006019 0.005483
0.005101 0.006037 0.005500
0.005117 0.006055 0.005516
0.005132 0.006073 0.005533
0.005148 0.006091 0.005550
0.005164 0.006109 0.005566
0.005179 0.006127 0.005583
0.005195 0.006145 0.005600
0.005211 0.006164 0.005617
0.005227 0.006182 0.005633
0.005242 0.006200 0.005650
0.005258 0.006218 0.005667
0.005274 0.006237 0.005684
0.005290 0.006255 0.005700
0.005305 0.006273 0.005717
0.005321 0.006291 0.005734
0.005337 0.006310 0.005751
0.005353 0.006328 0.005768
0.005369 0.006347 0.005785
0.005385 0.006365 0.005802
0.005401 0.006383 0.005819
0.005417 0.006402 0.005836
0.005433 0.006420 0.005853
0.005449 0.006439 0.005870
0.005465 0.006457 0.005887
0.005481 0.006476 0.005904
0.005497 0.006495 0.005921
0.005513 0.006513 0.005938
0.005529 0.006532 0.005955
0.005545 0.006550 0.005973
0.005561 0.006569 0.005990
0.005577 0.006588 0.006007
0.005594 0.006606 0.006024
0.005610 0.006625 0.006041
0.005626 0.006644 0.006059
0.005642 0.006663 0.006076
0.005658 0.006681 0.006093
0.005675 0.006700 0.006110
0.005691 0.006719 0.006128
0.005707 0.006738 0.006145
0.005724 0.006757 0.006162
0.005740 0.006776 0.006180
0.005756 0.006795 0.006197
0.005773 0.006813 0.006215
0.005789 0.006832 0.006232
0.005805 0.006851 0.006250
0.005822 0.006870 0.006267
0.005838 0.006889 0.006285
0.005855 0.006908 0.006302
0.005871 0.006927 0.006320
0.005888 0.006947 0.006337
0.005904 0.006966 0.006355
0.005921 0.006985 0.006372
0.005937 0.007004 0.006390
0.005954 0.007023 0.006408
0.005971 0.007042 0.006425
0.005987 0.007061 0.006443
0.006004 0.007081 0.006461
0.006021 0.007100 0.006478
0.006037 0.007119 0.006496
0.006054 0.007138 0.006514
0.006071 0.007158 0.006532
0.006087 0.007177 0.006550
0.006104 0.007196 0.006567
0.006121 0.007216 0.006585
0.006138 0.007235 0.006603
0.006155 0.007254 0.006621
0.006171 0.007274 0.006639
0.006188 0.007293 0.006657
0.006205 0.007313 0.006675
0.006222 0.007332 0.006693
0.006239 0.007352 0.006711
0.006256 0.007371 0.006729
0.006273 0.007391 0.006747
0.006290 0.007410 0.006765
0.006307 0.007430 0.006783
0.006324 0.007450 0.006801
0.006341 0.007469 0.006819
0.006358 0.007489 0.006837
0.006375 0.007509 0.006855
0.006392 0.007528 0.006873
0.006409 0.007548 0.006891
0.006426 0.007568 0.006910
0.006443 0.007587 0.006928
0.006460 0.007607 0.006946
0.006478 0.007627 0.006964
0.006495 0.007647 0.006983
0.006512 0.007667 0.007001
0.006529 0.007686 0.007019
0.006546 0.007706 0.007037
0.006564 0.007726 0.007056
0.006581 0.007746 0.007074
0.006598 0.007766 0.007093
0.006616 0.007786 0.007111
0.006633 0.007806 0.007129
0.006650 0.007826 0.007148
0.006668 0.007846 0.007166
0.006685 0.007866 0.007185
0.006702 0.007886 0.007203
0.006720 0.007906 0.007222
0.006737 0.007926 0.007240
0.006755 0.007946 0.007259
0.006772 0.007967 0.007277
0.006790 0.007987 0.007296
0.006807 0.008007 0.007315
0.006825 0.008027 0.007333
0.006842 0.008047 0.007352
0.006860 0.008068 0.007370
0.006878 0.008088 0.007389
0.006895 0.008108 0.007408
0.006913 0.008128 0.007427
0.006931 0.008149 0.007445
0.006948 0.008169 0.007464
0.006966 0.008189 0.007483
0.006984 0.008210 0.007502
0.007001 0.008230 0.007520
0.007019 0.008251 0.007539
0.007037 0.008271 0.007558
0.007055 0.008291 0.007577
0.007072 0.008312 0.007596
0.007090 0.008332 0.007615
0.007108 0.008353 0.007634
0.007126 0.008373 0.007653
0.007144 0.008394 0.007672
0.007162 0.008415 0.007691
0.007180 0.008435 0.007710
0.007197 0.008456 0.007729
0.007215 0.008476 0.007748
0.007233 0.008497 0.007767
0.007251 0.008518 0.007786
0.007269 0.008538 0.007805
0.007287 0.008559 0.007824
0.007305 0.008580 0.007843
0.007323 0.008601 0.007862
0.007342 0.008621 0.007882
0.007360 0.008642 0.007901
0.007378 0.008663 0.007920
0.007396 0.008684 0.007939
0.007414 0.008705 0.007958
0.007432 0.008726 0.007978
0.007450 0.008747 0.007997
0.007469 0.008767 0.008016
0.007487 0.008788 0.008036
0.007505 0.008809 0.008055
0.007523 0.008830 0.008074
0.007542 0.008851 0.008094
0.007560 0.008872 0.008113
0.007578 0.008893 0.008133
0.007596 0.008914 0.008152
0.007615 0.008935 0.008171
0.007633 0.008957 0.008191
0.007652 0.008978 0.008210
0.007670 0.008999 0.008230
0.007688 0.009020 0.008249
0.007707 0.009041 0.008269
0.007725 0.009062 0.008289
0.007744 0.009084 0.008308
0.007762 0.009105 0.008328
0.007781 0.009126 0.008347
0.007799 0.009156 0.008367
0.007818 0.009198 0.008387
0.007836 0.009239 0.008406
0.007855 0.009281 0.008426
0.007874 0.009323 0.008446
0.007892 0.009364 0.008466
0.007911 0.009406 0.008485
0.007929 0.009449 0.008505
0.007948 0.009491 0.008525
0.007967 0.009533 0.008545
0.007985 0.009576 0.008565
0.008004 0.009618 0.008584
0.008023 0.009661 0.008604
0.008042 0.009704 0.008624
0.008060 0.009747 0.008644
0.008079 0.009790 0.008664
0.008098 0.009834 0.008684
0.008118 0.009877 0.008704
0.008154 0.009921 0.008724
0.008191 0.009964 0.008744
0.008228 0.010008 0.008764
0.008264 0.010052 0.008784
0.008301 0.010096 0.008804
0.008338 0.010141 0.008824
0.008375 0.010185 0.008844
0.008412 0.010230 0.008864
0.008449 0.010274 0.008884
0.008487 0.010319 0.008904
0.008524 0.010364 0.008925
0.008562 0.010409 0.008945
0.008600 0.010454 0.008965
0.008638 0.010499 0.008985
0.008676 0.010545 0.009005
0.008714 0.010590 0.009026
0.008752 0.010636 0.009046
0.008790 0.010682 0.009066
0.008829 0.010728 0.009086
0.008867 0.010774 0.009107
0.008906 0.010820 0.009127
0.008945 0.010867 0.009147
0.008983 0.010913 0.009168
0.009022 0.010960 0.009207
0.009062 0.011007 0.009250
0.009101 0.011054 0.009293
0.009140 0.011101 0.009336
0.009180 0.011148 0.009379
0.009219 0.011196 0.009422
0.009259 0.011243 0.009466
0.009299 0.011291 0.009509
0.009339 0.011338 0.009553
0.009379 0.011386 0.009597
0.009419 0.011434 0.009641
0.009459 0.011483 0.009685
0.009500 0.011531 0.009730
0.009540 0.011579 0.009774
0.009581 0.011628 0.009819
0.009622 0.011677 0.009863
0.009663 0.011726 0.009908
0.009704 0.011775 0.009953
0.009745 0.011824 0.009999
0.009786 0.011873 0.010044
0.009828 0.011923 0.010089
0.009869 0.011972 0.010135
0.009911 0.012022 0.010181
0.009952 0.012072 0.010227
0.009994 0.012122 0.010273
0.010036 0.012172 0.010319
0.010078 0.012223 0.010366
0.010121 0.012273 0.010412
0.010163 0.012324 0.010459
0.010206 0.012374 0.010506
0.010248 0.012425 0.010553
0.010291 0.012476 0.010600
0.010334 0.012527 0.010647
0.010377 0.012579 0.010694
0.010420 0.012630 0.010742
0.010463 0.012682 0.010790
0.010506 0.012734 0.010838
0.010550 0.012786 0.010886
0.010594 0.012838 0.010934
0.010637 0.012890 0.010982
0.010681 0.012942 0.011031
0.010725 0.012995 0.011079
0.010769 0.013047 0.011128
0.010813 0.013100 0.011177
0.010858 0.013153 0.011226
0.010902 0.013206 0.011275
0.010947 0.013259 0.011325
0.010992 0.013313 0.011374
0.011037 0.013366 0.011424
0.011082 0.013420 0.011474
0.011127 0.013474 0.011524
0.011172 0.013528 0.011574
0.011217 0.013582 0.011624
0.011263 0.013636 0.011675
0.011308 0.013690 0.011726
0.011354 0.013745 0.011776
0.011400 0.013800 0.011827
0.011446 0.013854 0.011878
0.011492 0.013909 0.011930
0.011538 0.013965 0.011981
0.011585 0.014020 0.012033
0.011631 0.014075 0.012084
0.011678 0.014131 0.012136
0.011725 0.014187 0.012188
0.011772 0.014243 0.012241
0.011819 0.014299 0.012293
0.011866 0.014355 0.012346
0.011913 0.014411 0.012398
0.011961 0.014468 0.012451
0.012008 0.014525 0.012504
0.012056 0.014581 0.012557
0.012104 0.014638 0.012611
0.012152 0.014695 0.012664
0.012200 0.014753 0.012718
0.012248 0.014810 0.012772
0.012296 0.014868 0.012826
0.012345 0.014926 0.012880
0.012394 0.014983 0.012934
0.012442 0.015041 0.012989
0.012491 0.015100 0.013043
0.012540 0.015158 0.013098
0.012589 0.015217 0.013153
0.012639 0.015275 0.013208
0.012688 0.015334 0.013264
0.012738 0.015393 0.013319
0.012787 0.015452 0.013375
0.012837 0.015511 0.013431
0.012887 0.015571 0.013487
0.012937 0.015631 0.013543
0.012987 0.015690 0.013599
0.013038 0.015750 0.013655
0.013088 0.015810 0.013712
0.013139 0.015871 0.013769
0.013190 0.015931 0.013826
0.013241 0.015992 0.013883
0.013292 0.016052 0.013940
0.013343 0.016113 0.013998
0.013394 0.016174 0.014055
0.013446 0.016235 0.014113
0.013497 0.016297 0.014171
0.013549 0.016358 0.014229
0.013601 0.016420 0.014288
0.013653 0.016482 0.014346
0.013705 0.016544 0.014405
0.013757 0.016606 0.014464
0.013810 0.016668 0.014523
0.013862 0.016731 0.014582
0.013915 0.016793 0.014641
0.013968 0.016856 0.014701
0.014021 0.016919 0.014760
0.014074 0.016982 0.014820
0.014127 0.017045 0.014880
0.014180 0.017109 0.014941
0.014234 0.017172 0.015001
0.014288 0.017236 0.015061
0.014341 0.017300 0.015122
0.014395 0.017364 0.015183
0.014449 0.017429 0.015244
0.014504 0.017493 0.015305
0.014558 0.017558 0.015367
0.014612 0.017622 0.015429
0.014667 0.017687 0.015490
0.014722 0.017752 0.015552
0.014777 0.017817 0.015614
0.014832 0.017883 0.015677
0.014887 0.017948 0.015739
0.014942 0.018014 0.015802
0.014998 0.018080 0.015865
0.015054 0.018146 0.015928
0.015109 0.018212 0.015991
0.015165 0.018279 0.016054
0.015221 0.018345 0.016118
