config/curves/lightroomXMP/DiVERE_Ilford_MGFB_4_HDR.xmp
<x:xmpmeta xmlns:x="adobe:ns:meta/" x:xmptk="Adobe XMP Core 7.0-c000 1.000000, 0000/00/00-00:00:00        ">
 <rdf:RDF xmlns:rdf="http://www.w3.org/1999/02/22-rdf-syntax-ns#">
  <rdf:Description rdf:about=""
    xmlns:crs="http://ns.adobe.com/camera-raw-settings/1.0/"
   crs:PresetType="Normal"
   crs:Cluster=""
   crs:UUID="F5334D1AFD184B818701A0D4CD36BD55"
   crs:SupportsAmount2="True"
   crs:SupportsAmount="True"
   crs:SupportsColor="True"
   crs:SupportsMonochrome="True"
   crs:SupportsHighDynamicRange="True"
   crs:SupportsNormalDynamicRange="True"
   crs:SupportsSceneReferred="True"
   crs:SupportsOutputReferred="True"
   crs:RequiresRGBTables="False"
   crs:CameraModelRestriction=""
   crs:Copyright=""
   crs:ContactInfo=""
   crs:Version="17.2"
   crs:ProcessVersion="15.4"
   crs:ParametricShadows="0"
   crs:ParametricDarks="0"
   crs:ParametricLights="0"
   crs:ParametricHighlights="0"
   crs:ParametricShadowSplit="25"
   crs:ParametricMidtoneSplit="50"
   crs:ParametricHighlightSplit="75"
   crs:ToneCurveName2012="Custom"
   crs:HDREditMode="1"
   crs:HDRMaxValue="+4.00"
   crs:SDRBrightness="0"
   crs:SDRContrast="0"
   crs:SDRClarity="0"
   crs:SDRHighlights="0"
   crs:SDRShadows="0"
   crs:SDRWhites="0"
   crs:SDRBlend="0"
   crs:HasSettings="True">
   <crs:Name>
    <rdf:Alt>
     <rdf:li xml:lang="x-default">DiVERE Ilford MGFB 4 HDR</rdf:li>
    </rdf:Alt>
   </crs:Name>
   <crs:ShortName>
    <rdf:Alt>
     <rdf:li xml:lang="x-default"/>
    </rdf:Alt>
   </crs:ShortName>
   <crs:SortName>
    <rdf:Alt>
     <rdf:li xml:lang="x-default"/>
    </rdf:Alt>
   </crs:SortName>
   <crs:Group>
    <rdf:Alt>
     <rdf:li xml:lang="x-default">DiVERE Density Curves HDR</rdf:li>
    </rdf:Alt>
   </crs:Group>
   <crs:Description>
    <rdf:Alt>
     <rdf:li xml:lang="x-default"/>
    </rdf:Alt>
   </crs:Description>
    <crs:ToneCurvePV2012>
     <rdf:Seq>
      <rdf:li>0, 0</rdf:li>
      <rdf:li>255, 255</rdf:li>
     </rdf:Seq>
    </crs:ToneCurvePV2012>
    <crs:ToneCurvePV2012Red>
     <rdf:Seq>
      <rdf:li>0, 43</rdf:li>
      <rdf:li>8, 43</rdf:li>
      <rdf:li>11, 42</rdf:li>
      <rdf:li>13, 41</rdf:li>
      <rdf:li>16, 41</rdf:li>
      <rdf:li>19, 42</rdf:li>
      <rdf:li>21, 42</rdf:li>
      <rdf:li>24, 43</rdf:li>
      <rdf:li>27, 48</rdf:li>
      <rdf:li>33, 60</rdf:li>
      <rdf:li>36, 82</rdf:li>
      <rdf:li>39, 113</rdf:li>
      <rdf:li>42, 148</rdf:li>
      <rdf:li>44, 190</rdf:li>
      <rdf:li>55, 331</rdf:li>
      <rdf:li>64, 364</rdf:li>
      <rdf:li>73, 379</rdf:li>
      <rdf:li>112, 380</rdf:li>
      <rdf:li>255, 372</rdf:li>
      <rdf:li>500, 372</rdf:li>
     </rdf:Seq>
    </crs:ToneCurvePV2012Red>
    <crs:ToneCurvePV2012Green>
     <rdf:Seq>
      <rdf:li>0, 43</rdf:li>
      <rdf:li>8, 43</rdf:li>
      <rdf:li>11, 42</rdf:li>
      <rdf:li>13, 41</rdf:li>
      <rdf:li>16, 41</rdf:li>
      <rdf:li>19, 42</rdf:li>
      <rdf:li>21, 42</rdf:li>
      <rdf:li>24, 43</rdf:li>
      <rdf:li>27, 48</rdf:li>
      <rdf:li>33, 60</rdf:li>
      <rdf:li>36, 82</rdf:li>
      <rdf:li>39, 113</rdf:li>
      <rdf:li>42, 148</rdf:li>
      <rdf:li>44, 190</rdf:li>
      <rdf:li>55, 331</rdf:li>
      <rdf:li>64, 364</rdf:li>
      <rdf:li>73, 379</rdf:li>
      <rdf:li>112, 380</rdf:li>
      <rdf:li>255, 372</rdf:li>
      <rdf:li>500, 372</rdf:li>
     </rdf:Seq>
    </crs:ToneCurvePV2012Green>
    <crs:ToneCurvePV2012Blue>
     <rdf:Seq>
      <rdf:li>0, 43</rdf:li>
      <rdf:li>8, 43</rdf:li>
      <rdf:li>11, 42</rdf:li>
      <rdf:li>13, 41</rdf:li>
      <rdf:li>16, 41</rdf:li>
      <rdf:li>19, 42</rdf:li>
      <rdf:li>21, 42</rdf:li>
      <rdf:li>24, 43</rdf:li>
      <rdf:li>27, 48</rdf:li>
      <rdf:li>33, 60</rdf:li>
      <rdf:li>36, 82</rdf:li>
      <rdf:li>39, 113</rdf:li>
      <rdf:li>42, 148</rdf:li>
      <rdf:li>44, 190</rdf:li>
      <rdf:li>55, 331</rdf:li>
      <rdf:li>64, 364</rdf:li>
      <rdf:li>73, 379</rdf:li>
      <rdf:li>112, 380</rdf:li>
      <rdf:li>255, 372</rdf:li>
      <rdf:li>500, 372</rdf:li>
     </rdf:Seq>
    </crs:ToneCurvePV2012Blue>
  </rdf:Description>
 </rdf:RDF>
</x:xmpmeta>
