config/curves/lightroomXMP/DiVERE_Kodak_Portra_Endura_HDR_BC.xmp
<x:xmpmeta xmlns:x="adobe:ns:meta/" x:xmptk="Adobe XMP Core 7.0-c000 1.000000, 0000/00/00-00:00:00        ">
 <rdf:RDF xmlns:rdf="http://www.w3.org/1999/02/22-rdf-syntax-ns#">
  <rdf:Description rdf:about=""
    xmlns:crs="http://ns.adobe.com/camera-raw-settings/1.0/"
   crs:PresetType="Normal"
   crs:Cluster=""
   crs:UUID="3F8E1DD1AC094370B2813DC2CC11B6D8"
   crs:SupportsAmount2="True"
   crs:SupportsAmount="True"
   crs:SupportsColor="True"
   crs:SupportsMonochrome="True"
   crs:SupportsHighDynamicRange="True"
   crs:SupportsNormalDynamicRange="True"
   crs:SupportsSceneReferred="True"
   crs:SupportsOutputReferred="True"
   crs:RequiresRGBTables="False"
   crs:CameraModelRestriction=""
   crs:Copyright=""
   crs:ContactInfo=""
   crs:Version="17.2"
   crs:ProcessVersion="15.4"
   crs:ParametricShadows="0"
   crs:ParametricDarks="0"
   crs:ParametricLights="0"
   crs:ParametricHighlights="0"
   crs:ParametricShadowSplit="25"
   crs:ParametricMidtoneSplit="50"
   crs:ParametricHighlightSplit="75"
   crs:ToneCurveName2012="Custom"
   crs:HDREditMode="1"
   crs:HDRMaxValue="+4.00"
   crs:SDRBrightness="0"
   crs:SDRContrast="0"
   crs:SDRClarity="0"
   crs:SDRHighlights="0"
   crs:SDRShadows="0"
   crs:SDRWhites="0"
   crs:SDRBlend="0"
   crs:HasSettings="True">
   <crs:Name>
    <rdf:Alt>
     <rdf:li xml:lang="x-default">DiVERE Kodak Portra Endura HDR BC</rdf:li>
    </rdf:Alt>
   </crs:Name>
   <crs:ShortName>
    <rdf:Alt>
     <rdf:li xml:lang="x-default"/>
    </rdf:Alt>
   </crs:ShortName>
   <crs:SortName>
    <rdf:Alt>
     <rdf:li xml:lang="x-default"/>
    </rdf:Alt>
   </crs:SortName>
   <crs:Group>
    <rdf:Alt>
     <rdf:li xml:lang="x-default">DiVERE Density Curves HDR</rdf:li>
    </rdf:Alt>
   </crs:Group>
   <crs:Description>
    <rdf:Alt>
     <rdf:li xml:lang="x-default"/>
    </rdf:Alt>
   </crs:Description>
    <crs:ToneCurvePV2012>
     <rdf:Seq>
      <rdf:li>0, 0</rdf:li>
      <rdf:li>255, 255</rdf:li>
     </rdf:Seq>
    </crs:ToneCurvePV2012>
    <crs:ToneCurvePV2012Red>
     <rdf:Seq>
      <rdf:li>0, 0</rdf:li>
      <rdf:li>13, 0</rdf:li>
      <rdf:li>27, 6</rdf:li>
      <rdf:li>40, 35</rdf:li>
      <rdf:li>54, 123</rdf:li>
      <rdf:li>67, 226</rdf:li>
      <rdf:li>81, 299</rdf:li>
      <rdf:li>94, 339</rdf:li>
      <rdf:li>107, 358</rdf:li>
      <rdf:li>121, 367</rdf:li>
      <rdf:li>134, 370</rdf:li>
      <rdf:li>148, 371</rdf:li>
      <rdf:li>161, 372</rdf:li>
      <rdf:li>174, 372</rdf:li>
      <rdf:li>188, 372</rdf:li>
      <rdf:li>201, 372</rdf:li>
      <rdf:li>215, 372</rdf:li>
      <rdf:li>228, 373</rdf:li>
      <rdf:li>242, 373</rdf:li>
      <rdf:li>255, 373</rdf:li>
     </rdf:Seq>
    </crs:ToneCurvePV2012Red>
    <crs:ToneCurvePV2012Green>
     <rdf:Seq>
      <rdf:li>0, 0</rdf:li>
      <rdf:li>13, 0</rdf:li>
      <rdf:li>27, 8</rdf:li>
      <rdf:li>40, 40</rdf:li>
      <rdf:li>54, 130</rdf:li>
      <rdf:li>67, 234</rdf:li>
      <rdf:li>81, 305</rdf:li>
      <rdf:li>94, 342</rdf:li>
      <rdf:li>107, 359</rdf:li>
      <rdf:li>121, 367</rdf:li>
      <rdf:li>134, 370</rdf:li>
      <rdf:li>148, 372</rdf:li>
      <rdf:li>161, 372</rdf:li>
      <rdf:li>174, 373</rdf:li>
      <rdf:li>188, 373</rdf:li>
      <rdf:li>201, 372</rdf:li>
      <rdf:li>215, 372</rdf:li>
      <rdf:li>228, 372</rdf:li>
      <rdf:li>242, 373</rdf:li>
      <rdf:li>255, 373</rdf:li>
     </rdf:Seq>
    </crs:ToneCurvePV2012Green>
    <crs:ToneCurvePV2012Blue>
     <rdf:Seq>
      <rdf:li>0, 8</rdf:li>
      <rdf:li>13, 8</rdf:li>
      <rdf:li>27, 11</rdf:li>
      <rdf:li>40, 40</rdf:li>
      <rdf:li>54, 136</rdf:li>
      <rdf:li>67, 242</rdf:li>
      <rdf:li>81, 310</rdf:li>
      <rdf:li>94, 344</rdf:li>
      <rdf:li>107, 359</rdf:li>
      <rdf:li>121, 367</rdf:li>
      <rdf:li>134, 370</rdf:li>
      <rdf:li>148, 372</rdf:li>
      <rdf:li>161, 373</rdf:li>
      <rdf:li>174, 373</rdf:li>
      <rdf:li>188, 373</rdf:li>
      <rdf:li>201, 373</rdf:li>
      <rdf:li>215, 372</rdf:li>
      <rdf:li>228, 373</rdf:li>
      <rdf:li>242, 373</rdf:li>
      <rdf:li>255, 373</rdf:li>
     </rdf:Seq>
    </crs:ToneCurvePV2012Blue>
  </rdf:Description>
 </rdf:RDF>
</x:xmpmeta>
