config/curves/lightroomXMP/DiVERE_Kodak_Portra_Endura_HDR.xmp
<x:xmpmeta xmlns:x="adobe:ns:meta/" x:xmptk="Adobe XMP Core 7.0-c000 1.000000, 0000/00/00-00:00:00        ">
 <rdf:RDF xmlns:rdf="http://www.w3.org/1999/02/22-rdf-syntax-ns#">
  <rdf:Description rdf:about=""
    xmlns:crs="http://ns.adobe.com/camera-raw-settings/1.0/"
   crs:PresetType="Normal"
   crs:Cluster=""
   crs:UUID="3BEB9C8A936C4921BACF2623463683A4"
   crs:SupportsAmount2="True"
   crs:SupportsAmount="True"
   crs:SupportsColor="True"
   crs:SupportsMonochrome="True"
   crs:SupportsHighDynamicRange="True"
   crs:SupportsNormalDynamicRange="True"
   crs:SupportsSceneReferred="True"
   crs:SupportsOutputReferred="True"
   crs:RequiresRGBTables="False"
   crs:CameraModelRestriction=""
   crs:Copyright=""
   crs:ContactInfo=""
   crs:Version="17.2"
   crs:ProcessVersion="15.4"
   crs:ParametricShadows="0"
   crs:ParametricDarks="0"
   crs:ParametricLights="0"
   crs:ParametricHighlights="0"
   crs:ParametricShadowSplit="25"
   crs:ParametricMidtoneSplit="50"
   crs:ParametricHighlightSplit="75"
   crs:ToneCurveName2012="Custom"
   crs:HDREditMode="1"
   crs:HDRMaxValue="+4.00"
   crs:SDRBrightness="0"
   crs:SDRContrast="0"
   crs:SDRClarity="0"
   crs:SDRHighlights="0"
   crs:SDRShadows="0"
   crs:SDRWhites="0"
   crs:SDRBlend="0"
   crs:HasSettings="True">
   <crs:Name>
    <rdf:Alt>
     <rdf:li xml:lang="x-default">DiVERE Kodak Portra Endura HDR</rdf:li>
    </rdf:Alt>
   </crs:Name>
   <crs:ShortName>
    <rdf:Alt>
     <rdf:li xml:lang="x-default"/>
    </rdf:Alt>
   </crs:ShortName>
   <crs:SortName>
    <rdf:Alt>
     <rdf:li xml:lang="x-default"/>
    </rdf:Alt>
   </crs:SortName>
   <crs:Group>
    <rdf:Alt>
     <rdf:li xml:lang="x-default">DiVERE Density Curves HDR</rdf:li>
    </rdf:Alt>
   </crs:Group>
   <crs:Description>
    <rdf:Alt>
     <rdf:li xml:lang="x-default"/>
    </rdf:Alt>
   </crs:Description>
    <crs:ToneCurvePV2012>
     <rdf:Seq>
      <rdf:li>0, 0</rdf:li>
      <rdf:li>255, 255</rdf:li>
     </rdf:Seq>
    </crs:ToneCurvePV2012>
    <crs:ToneCurvePV2012Red>
     <rdf:Seq>
      <rdf:li>0, 26</rdf:li>
      <rdf:li>12, 26</rdf:li>
      <rdf:li>15, 26</rdf:li>
      <rdf:li>20, 28</rdf:li>
      <rdf:li>22, 29</rdf:li>
      <rdf:li>25, 30</rdf:li>
      <rdf:li>28, 32</rdf:li>
      <rdf:li>32, 36</rdf:li>
      <rdf:li>34, 41</rdf:li>
      <rdf:li>37, 47</rdf:li>
      <rdf:li>45, 82</rdf:li>
      <rdf:li>61, 203</rdf:li>
      <rdf:li>72, 271</rdf:li>
      <rdf:li>84, 326</rdf:li>
      <rdf:li>99, 358</rdf:li>
      <rdf:li>116, 372</rdf:li>
      <rdf:li>135, 378</rdf:li>
      <rdf:li>159, 379</rdf:li>
      <rdf:li>255, 380</rdf:li>
      <rdf:li>500, 380</rdf:li>
     </rdf:Seq>
    </crs:ToneCurvePV2012Red>
    <crs:ToneCurvePV2012Green>
     <rdf:Seq>
      <rdf:li>0, 26</rdf:li>
      <rdf:li>12, 26</rdf:li>
      <rdf:li>15, 26</rdf:li>
      <rdf:li>30, 36</rdf:li>
      <rdf:li>32, 40</rdf:li>
      <rdf:li>35, 46</rdf:li>
      <rdf:li>38, 53</rdf:li>
      <rdf:li>40, 63</rdf:li>
      <rdf:li>51, 132</rdf:li>
      <rdf:li>70, 269</rdf:li>
      <rdf:li>82, 323</rdf:li>
      <rdf:li>96, 356</rdf:li>
      <rdf:li>112, 371</rdf:li>
      <rdf:li>131, 377</rdf:li>
      <rdf:li>154, 379</rdf:li>
      <rdf:li>180, 380</rdf:li>
      <rdf:li>211, 379</rdf:li>
      <rdf:li>246, 380</rdf:li>
      <rdf:li>255, 380</rdf:li>
      <rdf:li>500, 380</rdf:li>
     </rdf:Seq>
    </crs:ToneCurvePV2012Green>
    <crs:ToneCurvePV2012Blue>
     <rdf:Seq>
      <rdf:li>0, 33</rdf:li>
      <rdf:li>12, 33</rdf:li>
      <rdf:li>15, 33</rdf:li>
      <rdf:li>31, 39</rdf:li>
      <rdf:li>33, 43</rdf:li>
      <rdf:li>37, 51</rdf:li>
      <rdf:li>40, 62</rdf:li>
      <rdf:li>44, 81</rdf:li>
      <rdf:li>51, 136</rdf:li>
      <rdf:li>60, 208</rdf:li>
      <rdf:li>70, 277</rdf:li>
      <rdf:li>82, 327</rdf:li>
      <rdf:li>96, 357</rdf:li>
      <rdf:li>112, 371</rdf:li>
      <rdf:li>131, 377</rdf:li>
      <rdf:li>154, 379</rdf:li>
      <rdf:li>180, 380</rdf:li>
      <rdf:li>210, 379</rdf:li>
      <rdf:li>255, 380</rdf:li>
      <rdf:li>500, 380</rdf:li>
     </rdf:Seq>
    </crs:ToneCurvePV2012Blue>
  </rdf:Description>
 </rdf:RDF>
</x:xmpmeta>
