config/curves/lightroomXMP/DiVERE_Kodak_Endura_Premier_SDR_BC.xmp
<x:xmpmeta xmlns:x="adobe:ns:meta/" x:xmptk="Adobe XMP Core 7.0-c000 1.000000, 0000/00/00-00:00:00        ">
 <rdf:RDF xmlns:rdf="http://www.w3.org/1999/02/22-rdf-syntax-ns#">
  <rdf:Description rdf:about=""
    xmlns:crs="http://ns.adobe.com/camera-raw-settings/1.0/"
   crs:PresetType="Normal"
   crs:Cluster=""
   crs:UUID="F73C5B91924C4988B71521CCA1911B47"
   crs:SupportsAmount2="True"
   crs:SupportsAmount="True"
   crs:SupportsColor="True"
   crs:SupportsMonochrome="True"
   crs:SupportsHighDynamicRange="True"
   crs:SupportsNormalDynamicRange="True"
   crs:SupportsSceneReferred="True"
   crs:SupportsOutputReferred="True"
   crs:RequiresRGBTables="False"
   crs:CameraModelRestriction=""
   crs:Copyright=""
   crs:ContactInfo=""
   crs:Version="17.2"
   crs:ProcessVersion="15.4"
   crs:ParametricShadows="0"
   crs:ParametricDarks="0"
   crs:ParametricLights="0"
   crs:ParametricHighlights="0"
   crs:ParametricShadowSplit="25"
   crs:ParametricMidtoneSplit="50"
   crs:ParametricHighlightSplit="75"
   crs:ToneCurveName2012="Custom"
   crs:HDREditMode="0"
   crs:HasSettings="True">
   <crs:Name>
    <rdf:Alt>
     <rdf:li xml:lang="x-default">DiVERE Kodak Endura Premier SDR BC</rdf:li>
    </rdf:Alt>
   </crs:Name>
   <crs:ShortName>
    <rdf:Alt>
     <rdf:li xml:lang="x-default"/>
    </rdf:Alt>
   </crs:ShortName>
   <crs:SortName>
    <rdf:Alt>
     <rdf:li xml:lang="x-default"/>
    </rdf:Alt>
   </crs:SortName>
   <crs:Group>
    <rdf:Alt>
     <rdf:li xml:lang="x-default">DiVERE Density Curves</rdf:li>
    </rdf:Alt>
   </crs:Group>
   <crs:Description>
    <rdf:Alt>
     <rdf:li xml:lang="x-default"/>
    </rdf:Alt>
   </crs:Description>
    <crs:ToneCurvePV2012>
     <rdf:Seq>
      <rdf:li>0, 0</rdf:li>
      <rdf:li>255, 255</rdf:li>
     </rdf:Seq>
    </crs:ToneCurvePV2012>
    <crs:ToneCurvePV2012Red>
     <rdf:Seq>
      <rdf:li>0, 0</rdf:li>
      <rdf:li>13, 0</rdf:li>
      <rdf:li>27, 3</rdf:li>
      <rdf:li>40, 57</rdf:li>
      <rdf:li>54, 167</rdf:li>
      <rdf:li>67, 219</rdf:li>
      <rdf:li>81, 235</rdf:li>
      <rdf:li>94, 238</rdf:li>
      <rdf:li>107, 239</rdf:li>
      <rdf:li>121, 239</rdf:li>
      <rdf:li>134, 239</rdf:li>
      <rdf:li>148, 239</rdf:li>
      <rdf:li>161, 239</rdf:li>
      <rdf:li>174, 239</rdf:li>
      <rdf:li>188, 239</rdf:li>
      <rdf:li>201, 239</rdf:li>
      <rdf:li>215, 239</rdf:li>
      <rdf:li>228, 239</rdf:li>
      <rdf:li>242, 239</rdf:li>
      <rdf:li>255, 239</rdf:li>
     </rdf:Seq>
    </crs:ToneCurvePV2012Red>
    <crs:ToneCurvePV2012Green>
     <rdf:Seq>
      <rdf:li>0, 4</rdf:li>
      <rdf:li>13, 4</rdf:li>
      <rdf:li>27, 7</rdf:li>
      <rdf:li>40, 51</rdf:li>
      <rdf:li>54, 160</rdf:li>
      <rdf:li>67, 217</rdf:li>
      <rdf:li>81, 234</rdf:li>
      <rdf:li>94, 238</rdf:li>
      <rdf:li>107, 238</rdf:li>
      <rdf:li>121, 239</rdf:li>
      <rdf:li>134, 239</rdf:li>
      <rdf:li>148, 239</rdf:li>
      <rdf:li>161, 239</rdf:li>
      <rdf:li>174, 239</rdf:li>
      <rdf:li>188, 239</rdf:li>
      <rdf:li>201, 239</rdf:li>
      <rdf:li>215, 239</rdf:li>
      <rdf:li>228, 239</rdf:li>
      <rdf:li>242, 239</rdf:li>
      <rdf:li>255, 239</rdf:li>
     </rdf:Seq>
    </crs:ToneCurvePV2012Green>
    <crs:ToneCurvePV2012Blue>
     <rdf:Seq>
      <rdf:li>0, 5</rdf:li>
      <rdf:li>13, 5</rdf:li>
      <rdf:li>27, 7</rdf:li>
      <rdf:li>40, 50</rdf:li>
      <rdf:li>54, 162</rdf:li>
      <rdf:li>67, 218</rdf:li>
      <rdf:li>81, 234</rdf:li>
      <rdf:li>94, 238</rdf:li>
      <rdf:li>107, 238</rdf:li>
      <rdf:li>121, 239</rdf:li>
      <rdf:li>134, 239</rdf:li>
      <rdf:li>148, 239</rdf:li>
      <rdf:li>161, 239</rdf:li>
      <rdf:li>174, 239</rdf:li>
      <rdf:li>188, 239</rdf:li>
      <rdf:li>201, 239</rdf:li>
      <rdf:li>215, 239</rdf:li>
      <rdf:li>228, 239</rdf:li>
      <rdf:li>242, 239</rdf:li>
      <rdf:li>255, 239</rdf:li>
     </rdf:Seq>
    </crs:ToneCurvePV2012Blue>
  </rdf:Description>
 </rdf:RDF>
</x:xmpmeta>
