config/curves/lightroomXMP/DiVERE_Kodak_Supra_Endura_HDR_BC.xmp
<x:xmpmeta xmlns:x="adobe:ns:meta/" x:xmptk="Adobe XMP Core 7.0-c000 1.000000, 0000/00/00-00:00:00        ">
 <rdf:RDF xmlns:rdf="http://www.w3.org/1999/02/22-rdf-syntax-ns#">
  <rdf:Description rdf:about=""
    xmlns:crs="http://ns.adobe.com/camera-raw-settings/1.0/"
   crs:PresetType="Normal"
   crs:Cluster=""
   crs:UUID="C44BDC1AFA8D4380B91D441D495A9DF9"
   crs:SupportsAmount2="True"
   crs:SupportsAmount="True"
   crs:SupportsColor="True"
   crs:SupportsMonochrome="True"
   crs:SupportsHighDynamicRange="True"
   crs:SupportsNormalDynamicRange="True"
   crs:SupportsSceneReferred="True"
   crs:SupportsOutputReferred="True"
   crs:RequiresRGBTables="False"
   crs:CameraModelRestriction=""
   crs:Copyright=""
   crs:ContactInfo=""
   crs:Version="17.2"
   crs:ProcessVersion="15.4"
   crs:ParametricShadows="0"
   crs:ParametricDarks="0"
   crs:ParametricLights="0"
   crs:ParametricHighlights="0"
   crs:ParametricShadowSplit="25"
   crs:ParametricMidtoneSplit="50"
   crs:ParametricHighlightSplit="75"
   crs:ToneCurveName2012="Custom"
   crs:HDREditMode="1"
   crs:HDRMaxValue="+4.00"
   crs:SDRBrightness="0"
   crs:SDRContrast="0"
   crs:SDRClarity="0"
   crs:SDRHighlights="0"
   crs:SDRShadows="0"
   crs:SDRWhites="0"
   crs:SDRBlend="0"
   crs:HasSettings="True">
   <crs:Name>
    <rdf:Alt>
     <rdf:li xml:lang="x-default">DiVERE Kodak Supra Endura HDR BC</rdf:li>
    </rdf:Alt>
   </crs:Name>
   <crs:ShortName>
    <rdf:Alt>
     <rdf:li xml:lang="x-default"/>
    </rdf:Alt>
   </crs:ShortName>
   <crs:SortName>
    <rdf:Alt>
     <rdf:li xml:lang="x-default"/>
    </rdf:Alt>
   </crs:SortName>
   <crs:Group>
    <rdf:Alt>
     <rdf:li xml:lang="x-default">DiVERE Density Curves HDR</rdf:li>
    </rdf:Alt>
   </crs:Group>
   <crs:Description>
    <rdf:Alt>
     <rdf:li xml:lang="x-default"/>
    </rdf:Alt>
   </crs:Description>
    <crs:ToneCurvePV2012>
     <rdf:Seq>
      <rdf:li>0, 0</rdf:li>
      <rdf:li>255, 255</rdf:li>
     </rdf:Seq>
    </crs:ToneCurvePV2012>
    <crs:ToneCurvePV2012Red>
     <rdf:Seq>
      <rdf:li>0, 8</rdf:li>
      <rdf:li>12, 8</rdf:li>
      <rdf:li>15, 0</rdf:li>
      <rdf:li>17, 8</rdf:li>
      <rdf:li>20, 12</rdf:li>
      <rdf:li>22, 14</rdf:li>
      <rdf:li>25, 20</rdf:li>
      <rdf:li>28, 27</rdf:li>
      <rdf:li>33, 59</rdf:li>
      <rdf:li>36, 90</rdf:li>
      <rdf:li>38, 122</rdf:li>
      <rdf:li>52, 267</rdf:li>
      <rdf:li>61, 323</rdf:li>
      <rdf:li>71, 358</rdf:li>
      <rdf:li>84, 372</rdf:li>
      <rdf:li>98, 378</rdf:li>
      <rdf:li>115, 379</rdf:li>
      <rdf:li>135, 380</rdf:li>
      <rdf:li>255, 380</rdf:li>
      <rdf:li>500, 380</rdf:li>
     </rdf:Seq>
    </crs:ToneCurvePV2012Red>
    <crs:ToneCurvePV2012Green>
     <rdf:Seq>
      <rdf:li>0, 14</rdf:li>
      <rdf:li>12, 14</rdf:li>
      <rdf:li>15, 12</rdf:li>
      <rdf:li>22, 23</rdf:li>
      <rdf:li>25, 30</rdf:li>
      <rdf:li>28, 38</rdf:li>
      <rdf:li>32, 61</rdf:li>
      <rdf:li>34, 83</rdf:li>
      <rdf:li>37, 115</rdf:li>
      <rdf:li>44, 191</rdf:li>
      <rdf:li>51, 262</rdf:li>
      <rdf:li>60, 318</rdf:li>
      <rdf:li>70, 355</rdf:li>
      <rdf:li>82, 371</rdf:li>
      <rdf:li>96, 377</rdf:li>
      <rdf:li>113, 379</rdf:li>
      <rdf:li>132, 380</rdf:li>
      <rdf:li>211, 380</rdf:li>
      <rdf:li>255, 380</rdf:li>
      <rdf:li>500, 380</rdf:li>
     </rdf:Seq>
    </crs:ToneCurvePV2012Green>
    <crs:ToneCurvePV2012Blue>
     <rdf:Seq>
      <rdf:li>0, 20</rdf:li>
      <rdf:li>12, 20</rdf:li>
      <rdf:li>15, 18</rdf:li>
      <rdf:li>22, 20</rdf:li>
      <rdf:li>25, 25</rdf:li>
      <rdf:li>28, 30</rdf:li>
      <rdf:li>33, 66</rdf:li>
      <rdf:li>36, 93</rdf:li>
      <rdf:li>51, 255</rdf:li>
      <rdf:li>60, 309</rdf:li>
      <rdf:li>70, 345</rdf:li>
      <rdf:li>82, 365</rdf:li>
      <rdf:li>96, 374</rdf:li>
      <rdf:li>113, 377</rdf:li>
      <rdf:li>132, 379</rdf:li>
      <rdf:li>155, 379</rdf:li>
      <rdf:li>181, 380</rdf:li>
      <rdf:li>212, 380</rdf:li>
      <rdf:li>255, 379</rdf:li>
      <rdf:li>500, 379</rdf:li>
     </rdf:Seq>
    </crs:ToneCurvePV2012Blue>
  </rdf:Description>
 </rdf:RDF>
</x:xmpmeta>
